;FLAVOR:UltiGCode
;TIME:33178
;MATERIAL:169770
;MATERIAL2:0
;NOZZLE_DIAMETER:0.8
;Generated with Cura_SteamEngine 2.3.1

;LAYER_COUNT:228
;LAYER:0
M107
G10
G1 Z22
G0 F3750 X10.79 Y10.726 Z2.43
G0 X11.5 Y10.45 Z2.43
;TYPE:SKIRT
G1 Z.43
G11
G1 F1200 X211.5 Y10.45 E60.2
G1 X211.786 Y10.49 E60.28692
G1 X212.051 Y10.606 E60.374
G1 X212.274 Y10.79 E60.46102
G1 X212.438 Y11.028 E60.54802
G1 X212.531 Y11.302 E60.63511
G1 X212.55 Y11.5 E60.69498
G1 X212.55 Y211.5 E120.89498
G1 X212.51 Y211.786 E120.98191
G1 X212.394 Y212.051 E121.06898
G1 X212.21 Y212.274 E121.156
G1 X211.972 Y212.438 E121.243
G1 X211.698 Y212.531 E121.3301
G1 X211.5 Y212.55 E121.38997
G1 X11.5 Y212.55 E181.58997
G1 X11.214 Y212.51 E181.67689
G1 X10.949 Y212.394 E181.76396
G1 X10.726 Y212.21 E181.85099
G1 X10.562 Y211.972 E181.93799
G1 X10.469 Y211.698 E182.02508
G1 X10.45 Y211.5 E182.08495
G1 X10.45 Y11.5 E242.28495
G1 X10.49 Y11.214 E242.37188
G1 X10.606 Y10.949 E242.45895
G1 X10.79 Y10.726 E242.54597
G1 X11.028 Y10.562 E242.63297
G1 X11.302 Y10.469 E242.72007
G1 X11.5 Y10.45 E242.77994
G0 F3750 X11.5 Y11.15
G1 F1200 X211.5 Y11.15 E302.97994
G1 X211.661 Y11.189 E303.0298
G1 X211.786 Y11.299 E303.07992
G1 X211.85 Y11.5 E303.14341
G1 X211.85 Y211.5 E363.34341
G1 X211.811 Y211.661 E363.39328
G1 X211.701 Y211.786 E363.44339
G1 X211.5 Y211.85 E363.50689
G1 X11.5 Y211.85 E423.70689
G1 X11.339 Y211.811 E423.75675
G1 X11.214 Y211.701 E423.80687
G1 X11.15 Y211.5 E423.87036
G1 X11.15 Y11.5 E484.07036
G1 X11.189 Y11.339 E484.12023
G1 X11.299 Y11.214 E484.17034
G1 X11.5 Y11.15 E484.23384
G10
G0 F3750 X12.578 Y12.578
G0 X12.829 Y12.829
;TYPE:FILL
G11
G1 F1500 X210.169 Y210.169 E568.23719
G0 X210.292 Y210.292
G0 F3750 X210.169 Y196.027
G1 F1500 X26.971 Y12.829 E646.2206
G0 X26.848 Y12.706
G0 F3750 X41.114 Y12.829
G1 F1500 X210.169 Y181.885 E718.18386
G0 X210.292 Y182.008
G0 F3750 X210.169 Y167.743
G1 F1500 X55.256 Y12.829 E784.12717
G0 X55.133 Y12.706
G0 F3750 X69.398 Y12.829
G1 F1500 X210.169 Y153.601 E844.05054
G0 X210.292 Y153.724
G0 F3750 X210.169 Y139.459
G1 F1500 X83.54 Y12.829 E897.95397
G0 X83.417 Y12.706
G0 F3750 X97.682 Y12.829
G1 F1500 X210.169 Y125.316 E945.83724
G0 X210.292 Y125.439
G0 F3750 X210.169 Y111.174
G1 F1500 X111.824 Y12.829 E987.70057
G0 X111.701 Y12.706
G0 F3750 X125.966 Y12.829
G1 F1500 X210.169 Y97.032 E1023.54396
G0 X210.292 Y97.155
G0 F3750 X210.169 Y82.89
G1 F1500 X140.108 Y12.829 E1053.3674
G0 X139.985 Y12.706
G0 F3750 X154.251 Y12.829
G1 F1500 X210.169 Y68.748 E1077.1707
G0 X210.292 Y68.871
G0 F3750 X210.169 Y54.606
G1 F1500 X168.393 Y12.829 E1094.95404
G0 X168.27 Y12.706
G0 F3750 X182.535 Y12.829
G1 F1500 X210.169 Y40.464 E1106.71745
G0 X210.292 Y40.587
G0 F3750 X210.169 Y26.322
G1 F1500 X196.677 Y12.829 E1112.46092
G0 X196.554 Y12.706
G0 F3750 X12.829 Y26.971
G1 F1500 X196.026 Y210.169 E1190.44411
G0 X196.149 Y210.292
G0 F3750 X181.884 Y210.169
G1 F1500 X12.829 Y41.114 E1262.40715
G0 X12.706 Y40.991
G0 F3750 X12.829 Y55.256
G1 F1500 X167.742 Y210.169 E1328.35025
G0 X167.865 Y210.292
G0 F3750 X153.6 Y210.169
G1 F1500 X12.829 Y69.398 E1388.27341
G0 X12.706 Y69.275
G0 F3750 X12.829 Y83.54
G1 F1500 X139.458 Y210.169 E1442.17663
G0 X139.581 Y210.292
G0 F3750 X125.316 Y210.169
G1 F1500 X12.829 Y97.682 E1490.0599
G0 X12.706 Y97.559
G0 F3750 X12.829 Y111.824
G1 F1500 X111.174 Y210.169 E1531.92323
G0 X111.297 Y210.292
G0 F3750 X97.032 Y210.169
G1 F1500 X12.829 Y125.966 E1567.76662
G0 X12.706 Y125.843
G0 F3750 X12.829 Y140.108
G1 F1500 X82.889 Y210.169 E1597.58985
G0 X83.012 Y210.292
G0 F3750 X68.747 Y210.169
G1 F1500 X12.829 Y154.251 E1621.39293
G0 X12.706 Y154.128
G0 F3750 X12.829 Y168.393
G1 F1500 X54.605 Y210.169 E1639.17607
G0 X54.728 Y210.292
G0 F3750 X40.463 Y210.169
G1 F1500 X12.829 Y182.535 E1650.93926
G0 X12.706 Y182.412
G0 F3750 X12.829 Y196.677
G1 F1500 X26.321 Y210.169 E1656.68251
G0 X26.444 Y210.292
G0 F3750 X12.62 Y210.38
G0 X12.55 Y210.45
;TYPE:WALL-INNER
G1 F1500 X12.55 Y12.55 E1716.25041
G1 X210.45 Y12.55 E1775.81831
G1 X210.45 Y210.45 E1835.38621
G1 X12.55 Y210.45 E1894.95411
G0 F3750 X11.9 Y211.1
;TYPE:WALL-OUTER
G1 F1500 X11.9 Y11.9 E1954.91331
G1 X211.1 Y11.9 E2014.87251
G1 X211.1 Y211.1 E2074.83171
G1 X11.9 Y211.1 E2134.79091
G0 F3750 X13.044 Y209.75
;TIME_ELAPSED:311.860380
;LAYER:1
M106 S255
G0 F4875 X13.044 Y209.75 Z.68
G0 X16.104 Y210.169
;TYPE:FILL
G1 F2370 X210.169 Y16.105 E2182.81942
G0 X210.292 Y15.982
G0 F4875 X199.302 Y12.829
G1 F2370 X12.829 Y199.302 E2228.96914
G0 X12.706 Y199.425
G0 F4875 X12.829 Y185.16
G1 F2370 X185.16 Y12.829 E2271.61888
G0 X185.283 Y12.706
G0 F4875 X171.018 Y12.829
G1 F2370 X12.829 Y171.018 E2310.76866
G0 X12.706 Y171.141
G0 F4875 X12.829 Y156.875
G1 F2370 X156.875 Y12.829 E2346.41823
G0 X156.998 Y12.706
G0 F4875 X142.733 Y12.829
G1 F2370 X12.829 Y142.733 E2378.56783
G0 X12.706 Y142.856
G0 F4875 X12.829 Y128.591
G1 F2370 X128.591 Y12.829 E2407.21746
G0 X128.714 Y12.706
G0 F4875 X114.449 Y12.829
G1 F2370 X12.829 Y114.449 E2432.36713
G0 X12.706 Y114.572
G0 F4875 X12.829 Y100.307
G1 F2370 X100.307 Y12.829 E2454.01683
G0 X100.43 Y12.706
G0 F4875 X86.165 Y12.829
G1 F2370 X12.829 Y86.165 E2472.16657
G0 X12.706 Y86.288
G0 F4875 X12.829 Y72.023
G1 F2370 X72.023 Y12.829 E2486.81633
G0 X72.146 Y12.706
G0 F4875 X57.88 Y12.829
G1 F2370 X12.829 Y57.88 E2497.96589
G0 X12.706 Y58.003
G0 F4875 X12.829 Y43.738
G1 F2370 X43.738 Y12.829 E2505.61547
G0 X43.861 Y12.706
G0 F4875 X29.596 Y12.829
G1 F2370 X12.829 Y29.596 E2509.76509
G0 X12.706 Y29.719
G0 F4875 X12.829 Y15.454
G1 F2370 X15.454 Y12.829 E2510.41475
G0 X15.577 Y12.706
G0 F4875 X210.169 Y30.247
G1 F2370 X30.246 Y210.169 E2554.9433
G0 X30.123 Y210.292
G0 F4875 X44.388 Y210.169
G1 F2370 X210.169 Y44.389 E2595.97188
G0 X210.292 Y44.266
G0 F4875 X210.169 Y58.531
G1 F2370 X58.53 Y210.169 E2633.50049
G0 X58.407 Y210.292
G0 F4875 X72.672 Y210.169
G1 F2370 X210.169 Y72.673 E2667.52914
G0 X210.292 Y72.55
G0 F4875 X210.169 Y86.815
G1 F2370 X86.815 Y210.169 E2698.0577
G0 X86.692 Y210.292
G0 F4875 X100.957 Y210.169
G1 F2370 X210.169 Y100.957 E2725.08629
G0 X210.292 Y100.834
G0 F4875 X210.169 Y115.1
G1 F2370 X115.099 Y210.169 E2748.61479
G0 X114.976 Y210.292
G0 F4875 X129.241 Y210.169
G1 F2370 X210.169 Y129.242 E2768.64332
G0 X210.292 Y129.119
G0 F4875 X210.169 Y143.384
G1 F2370 X143.383 Y210.169 E2785.17189
G0 X143.26 Y210.292
G0 F4875 X157.525 Y210.169
G1 F2370 X210.169 Y157.526 E2798.20049
G0 X210.292 Y157.403
G0 F4875 X210.169 Y171.668
G1 F2370 X171.667 Y210.169 E2807.72913
G0 X171.544 Y210.292
G0 F4875 X185.809 Y210.169
G1 F2370 X210.169 Y185.81 E2813.75779
G0 X210.292 Y185.687
G0 F4875 X210.169 Y199.952
G1 F2370 X199.952 Y210.169 E2816.28637
G0 X199.829 Y210.292
G0 F4875 X210.38 Y210.38
G0 X210.45 Y210.45
;TYPE:WALL-INNER
G1 F2070 X12.55 Y210.45 E2850.91887
G1 X12.55 Y12.55 E2885.55137
G1 X210.45 Y12.55 E2920.18387
G1 X210.45 Y210.45 E2954.81637
G0 F4875 X211.1 Y211.1
;TYPE:WALL-OUTER
G1 F1650 X11.9 Y211.1 E2989.67637
G1 X11.9 Y11.9 E3024.53637
G1 X211.1 Y11.9 E3059.39637
G1 X211.1 Y211.1 E3094.25637
G0 F4875 X209.75 Y209.956
;TIME_ELAPSED:470.486892
;LAYER:2
G0 F6000 X210.169 Y210.169 Z.93
;TYPE:FILL
G1 F3240 X12.829 Y12.829 E3143.09553
G0 X12.706 Y12.706
G0 F6000 X12.829 Y26.971
G1 F3240 X196.026 Y210.169 E3188.4346
G0 X196.149 Y210.292
G0 F6000 X181.884 Y210.169
G1 F3240 X12.829 Y41.114 E3230.27358
G0 X12.706 Y40.991
G0 F6000 X12.829 Y55.256
G1 F3240 X167.742 Y210.169 E3268.61259
G0 X167.865 Y210.292
G0 F6000 X153.6 Y210.169
G1 F3240 X12.829 Y69.398 E3303.45163
G0 X12.706 Y69.275
G0 F6000 X12.829 Y83.54
G1 F3240 X139.458 Y210.169 E3334.79071
G0 X139.581 Y210.292
G0 F6000 X125.316 Y210.169
G1 F3240 X12.829 Y97.682 E3362.62983
G0 X12.706 Y97.559
G0 F6000 X12.829 Y111.824
G1 F3240 X111.174 Y210.169 E3386.96897
G0 X111.297 Y210.292
G0 F6000 X97.032 Y210.169
G1 F3240 X12.829 Y125.966 E3407.80815
G0 X12.706 Y125.843
G0 F6000 X12.829 Y140.108
G1 F3240 X82.889 Y210.169 E3425.14724
G0 X83.012 Y210.292
G0 F6000 X68.747 Y210.169
G1 F3240 X12.829 Y154.251 E3438.98624
G0 X12.706 Y154.128
G0 F6000 X12.829 Y168.393
G1 F3240 X54.605 Y210.169 E3449.32527
G0 X54.728 Y210.292
G0 F6000 X40.463 Y210.169
G1 F3240 X12.829 Y182.535 E3456.16434
G0 X12.706 Y182.412
G0 F6000 X12.829 Y196.677
G1 F3240 X26.321 Y210.169 E3459.50344
G0 X26.444 Y210.292
G0 F6000 X210.169 Y196.027
G1 F3240 X26.971 Y12.829 E3504.84263
G0 X26.848 Y12.706
G0 F6000 X41.114 Y12.829
G1 F3240 X210.169 Y181.885 E3546.68173
G0 X210.292 Y182.008
G0 F6000 X210.169 Y167.743
G1 F3240 X55.256 Y12.829 E3585.02087
G0 X55.133 Y12.706
G0 F6000 X69.398 Y12.829
G1 F3240 X210.169 Y153.601 E3619.86003
G0 X210.292 Y153.724
G0 F6000 X210.169 Y139.459
G1 F3240 X83.54 Y12.829 E3651.19924
G0 X83.417 Y12.706
G0 F6000 X97.682 Y12.829
G1 F3240 X210.169 Y125.316 E3679.03835
G0 X210.292 Y125.439
G0 F6000 X210.169 Y111.174
G1 F3240 X111.824 Y12.829 E3703.37749
G0 X111.701 Y12.706
G0 F6000 X125.966 Y12.829
G1 F3240 X210.169 Y97.032 E3724.21667
G0 X210.292 Y97.155
G0 F6000 X210.169 Y82.89
G1 F3240 X140.108 Y12.829 E3741.55589
G0 X139.985 Y12.706
G0 F6000 X154.251 Y12.829
G1 F3240 X210.169 Y68.748 E3755.39501
G0 X210.292 Y68.871
G0 F6000 X210.169 Y54.606
G1 F3240 X168.393 Y12.829 E3765.73417
G0 X168.27 Y12.706
G0 F6000 X182.535 Y12.829
G1 F3240 X210.169 Y40.464 E3772.57336
G0 X210.292 Y40.587
G0 F6000 X210.169 Y26.322
G1 F3240 X196.677 Y12.829 E3775.91258
G0 X196.554 Y12.706
G0 F6000 X210.38 Y12.62
G0 X210.45 Y12.55
;TYPE:WALL-INNER
G1 F2640 X210.45 Y210.45 E3810.54508
G1 X12.55 Y210.45 E3845.17758
G1 X12.55 Y12.55 E3879.81008
G1 X210.45 Y12.55 E3914.44258
G0 F6000 X211.1 Y11.9
;TYPE:WALL-OUTER
G1 F1800 X211.1 Y211.1 E3949.30258
G1 X11.9 Y211.1 E3984.16258
G1 X11.9 Y11.9 E4019.02258
G1 X211.1 Y11.9 E4053.88258
G0 F6000 X209.75 Y13.044
;TIME_ELAPSED:593.979761
;LAYER:3
G0 X209.75 Y13.044 Z1.18
G0 X210.169 Y16.105
;TYPE:FILL
G1 F3240 X16.104 Y210.169 E4101.91109
G0 X15.981 Y210.292
G0 F6000 X12.829 Y199.302
G1 F3240 X199.302 Y12.829 E4148.0608
G0 X199.425 Y12.706
G0 F6000 X185.16 Y12.829
G1 F3240 X12.829 Y185.16 E4190.71055
G0 X12.706 Y185.283
G0 F6000 X12.829 Y171.018
G1 F3240 X171.018 Y12.829 E4229.86033
G0 X171.141 Y12.706
G0 F6000 X156.875 Y12.829
G1 F3240 X12.829 Y156.875 E4265.5099
G0 X12.706 Y156.998
G0 F6000 X12.829 Y142.733
G1 F3240 X142.733 Y12.829 E4297.6595
G0 X142.856 Y12.706
G0 F6000 X128.591 Y12.829
G1 F3240 X12.829 Y128.591 E4326.30913
G0 X12.706 Y128.714
G0 F6000 X12.829 Y114.449
G1 F3240 X114.449 Y12.829 E4351.4588
G0 X114.572 Y12.706
G0 F6000 X100.307 Y12.829
G1 F3240 X12.829 Y100.307 E4373.1085
G0 X12.706 Y100.43
G0 F6000 X12.829 Y86.165
G1 F3240 X86.165 Y12.829 E4391.25823
G0 X86.288 Y12.706
G0 F6000 X72.023 Y12.829
G1 F3240 X12.829 Y72.023 E4405.908
G0 X12.706 Y72.146
G0 F6000 X12.829 Y57.88
G1 F3240 X57.88 Y12.829 E4417.05755
G0 X58.003 Y12.706
G0 F6000 X43.738 Y12.829
G1 F3240 X12.829 Y43.738 E4424.70714
G0 X12.706 Y43.861
G0 F6000 X12.829 Y29.596
G1 F3240 X29.596 Y12.829 E4428.85676
G0 X29.719 Y12.706
G0 F6000 X15.454 Y12.829
G1 F3240 X12.829 Y15.454 E4429.50642
G0 X12.706 Y15.577
G0 F6000 X30.246 Y210.169
G1 F3240 X210.169 Y30.247 E4474.03496
G0 X210.292 Y30.124
G0 F6000 X210.169 Y44.389
G1 F3240 X44.388 Y210.169 E4515.06354
G0 X44.265 Y210.292
G0 F6000 X58.53 Y210.169
G1 F3240 X210.169 Y58.531 E4552.59216
G0 X210.292 Y58.408
G0 F6000 X210.169 Y72.673
G1 F3240 X72.672 Y210.169 E4586.6208
G0 X72.549 Y210.292
G0 F6000 X86.815 Y210.169
G1 F3240 X210.169 Y86.815 E4617.14936
G0 X210.292 Y86.692
G0 F6000 X210.169 Y100.957
G1 F3240 X100.957 Y210.169 E4644.17795
G0 X100.834 Y210.292
G0 F6000 X115.099 Y210.169
G1 F3240 X210.169 Y115.1 E4667.70645
G0 X210.292 Y114.977
G0 F6000 X210.169 Y129.242
G1 F3240 X129.241 Y210.169 E4687.73499
G0 X129.118 Y210.292
G0 F6000 X143.383 Y210.169
G1 F3240 X210.169 Y143.384 E4704.26356
G0 X210.292 Y143.261
G0 F6000 X210.169 Y157.526
G1 F3240 X157.525 Y210.169 E4717.29216
G0 X157.402 Y210.292
G0 F6000 X171.667 Y210.169
G1 F3240 X210.169 Y171.668 E4726.82079
G0 X210.292 Y171.545
G0 F6000 X210.169 Y185.81
G1 F3240 X185.809 Y210.169 E4732.84946
G0 X185.686 Y210.292
G0 F6000 X199.952 Y210.169
G1 F3240 X210.169 Y199.952 E4735.37804
G0 X210.292 Y199.829
G0 F6000 X210.38 Y210.38
G0 X210.45 Y210.45
;TYPE:WALL-INNER
G1 F2640 X12.55 Y210.45 E4770.01054
G1 X12.55 Y12.55 E4804.64304
G1 X210.45 Y12.55 E4839.27554
G1 X210.45 Y210.45 E4873.90804
G0 F6000 X211.1 Y211.1
;TYPE:WALL-OUTER
G1 F1800 X11.9 Y211.1 E4908.76804
G1 X11.9 Y11.9 E4943.62804
G1 X211.1 Y11.9 E4978.48804
G1 X211.1 Y211.1 E5013.34804
G0 F6000 X209.75 Y209.956
;TIME_ELAPSED:717.692564
;LAYER:4
G0 X210.169 Y210.169 Z1.43
;TYPE:FILL
G1 F3240 X12.829 Y12.829 E5062.1872
G0 X12.706 Y12.706
G0 F6000 X12.829 Y26.971
G1 F3240 X196.026 Y210.169 E5107.52627
G0 X196.149 Y210.292
G0 F6000 X181.884 Y210.169
G1 F3240 X12.829 Y41.114 E5149.36524
G0 X12.706 Y40.991
G0 F6000 X12.829 Y55.256
G1 F3240 X167.742 Y210.169 E5187.70426
G0 X167.865 Y210.292
G0 F6000 X153.6 Y210.169
G1 F3240 X12.829 Y69.398 E5222.5433
G0 X12.706 Y69.275
G0 F6000 X12.829 Y83.54
G1 F3240 X139.458 Y210.169 E5253.88238
G0 X139.581 Y210.292
G0 F6000 X125.316 Y210.169
G1 F3240 X12.829 Y97.682 E5281.72149
G0 X12.706 Y97.559
G0 F6000 X12.829 Y111.824
G1 F3240 X111.174 Y210.169 E5306.06064
G0 X111.297 Y210.292
G0 F6000 X97.032 Y210.169
G1 F3240 X12.829 Y125.966 E5326.89982
G0 X12.706 Y125.843
G0 F6000 X12.829 Y140.108
G1 F3240 X82.889 Y210.169 E5344.23891
G0 X83.012 Y210.292
G0 F6000 X68.747 Y210.169
G1 F3240 X12.829 Y154.251 E5358.07791
G0 X12.706 Y154.128
G0 F6000 X12.829 Y168.393
G1 F3240 X54.605 Y210.169 E5368.41694
G0 X54.728 Y210.292
G0 F6000 X40.463 Y210.169
G1 F3240 X12.829 Y182.535 E5375.256
G0 X12.706 Y182.412
G0 F6000 X12.829 Y196.677
G1 F3240 X26.321 Y210.169 E5378.5951
G0 X26.444 Y210.292
G0 F6000 X210.169 Y196.027
G1 F3240 X26.971 Y12.829 E5423.9343
G0 X26.848 Y12.706
G0 F6000 X41.114 Y12.829
G1 F3240 X210.169 Y181.885 E5465.7734
G0 X210.292 Y182.008
G0 F6000 X210.169 Y167.743
G1 F3240 X55.256 Y12.829 E5504.11253
G0 X55.133 Y12.706
G0 F6000 X69.398 Y12.829
G1 F3240 X210.169 Y153.601 E5538.9517
G0 X210.292 Y153.724
G0 F6000 X210.169 Y139.459
G1 F3240 X83.54 Y12.829 E5570.2909
G0 X83.417 Y12.706
G0 F6000 X97.682 Y12.829
G1 F3240 X210.169 Y125.316 E5598.13002
G0 X210.292 Y125.439
G0 F6000 X210.169 Y111.174
G1 F3240 X111.824 Y12.829 E5622.46916
G0 X111.701 Y12.706
G0 F6000 X125.966 Y12.829
G1 F3240 X210.169 Y97.032 E5643.30834
G0 X210.292 Y97.155
G0 F6000 X210.169 Y82.89
G1 F3240 X140.108 Y12.829 E5660.64755
G0 X139.985 Y12.706
G0 F6000 X154.251 Y12.829
G1 F3240 X210.169 Y68.748 E5674.48668
G0 X210.292 Y68.871
G0 F6000 X210.169 Y54.606
G1 F3240 X168.393 Y12.829 E5684.82583
G0 X168.27 Y12.706
G0 F6000 X182.535 Y12.829
G1 F3240 X210.169 Y40.464 E5691.66502
G0 X210.292 Y40.587
G0 F6000 X210.169 Y26.322
G1 F3240 X196.677 Y12.829 E5695.00425
G0 X196.554 Y12.706
G0 F6000 X210.38 Y12.62
G0 X210.45 Y12.55
;TYPE:WALL-INNER
G1 F2640 X210.45 Y210.45 E5729.63675
G1 X12.55 Y210.45 E5764.26925
G1 X12.55 Y12.55 E5798.90175
G1 X210.45 Y12.55 E5833.53425
G0 F6000 X211.1 Y11.9
;TYPE:WALL-OUTER
G1 F1800 X211.1 Y211.1 E5868.39425
G1 X11.9 Y211.1 E5903.25425
G1 X11.9 Y11.9 E5938.11425
G1 X211.1 Y11.9 E5972.97425
G0 F6000 X209.75 Y13.044
;TIME_ELAPSED:841.185432
;LAYER:5
G0 X209.75 Y13.044 Z1.68
G0 X210.169 Y16.105
;TYPE:FILL
G1 F3240 X16.104 Y210.169 E6021.00276
G0 X15.981 Y210.292
G0 F6000 X12.829 Y199.302
G1 F3240 X199.302 Y12.829 E6067.15247
G0 X199.425 Y12.706
G0 F6000 X185.16 Y12.829
G1 F3240 X12.829 Y185.16 E6109.80222
G0 X12.706 Y185.283
G0 F6000 X12.829 Y171.018
G1 F3240 X171.018 Y12.829 E6148.952
G0 X171.141 Y12.706
G0 F6000 X156.875 Y12.829
G1 F3240 X12.829 Y156.875 E6184.60156
G0 X12.706 Y156.998
G0 F6000 X12.829 Y142.733
G1 F3240 X142.733 Y12.829 E6216.75116
G0 X142.856 Y12.706
G0 F6000 X128.591 Y12.829
G1 F3240 X12.829 Y128.591 E6245.4008
G0 X12.706 Y128.714
G0 F6000 X12.829 Y114.449
G1 F3240 X114.449 Y12.829 E6270.55046
G0 X114.572 Y12.706
G0 F6000 X100.307 Y12.829
G1 F3240 X12.829 Y100.307 E6292.20017
G0 X12.706 Y100.43
G0 F6000 X12.829 Y86.165
