;FLAVOR:UltiGCode
;TIME:58591
;MATERIAL:368592
;MATERIAL2:0
;NOZZLE_DIAMETER:0.8
;Generated with Cura_SteamEngine 2.4.0-BETA

;LAYER_COUNT:389
;LAYER:0
M107
G10
G1 Z22
G0 F3750 X10.79 Y10.731 Z2.43
G0 X11.5 Y10.455 Z2.43
;TYPE:SKIRT
G1 Z0.43
G11
G1 F1200 X211.438 Y10.455 E60.18134
G1 X211.724 Y10.495 E60.26826
G1 X211.989 Y10.611 E60.35533
G1 X212.212 Y10.795 E60.44236
G1 X212.376 Y11.033 E60.52936
G1 X212.469 Y11.307 E60.61645
G1 X212.488 Y11.505 E60.67632
G1 X212.488 Y211.443 E120.85766
G1 X212.448 Y211.729 E120.94458
G1 X212.332 Y211.994 E121.03166
G1 X212.148 Y212.217 E121.11868
G1 X211.91 Y212.381 E121.20568
G1 X211.636 Y212.474 E121.29277
G1 X211.438 Y212.493 E121.35264
G1 X11.5 Y212.493 E181.53398
G1 X11.214 Y212.453 E181.62091
G1 X10.949 Y212.337 E181.70798
G1 X10.726 Y212.153 E181.795
G1 X10.562 Y211.915 E181.882
G1 X10.469 Y211.641 E181.9691
G1 X10.45 Y211.443 E182.02897
G1 X10.45 Y11.505 E242.2103
G1 X10.49 Y11.219 E242.29723
G1 X10.606 Y10.954 E242.3843
G1 X10.79 Y10.731 E242.47132
G1 X11.028 Y10.567 E242.55832
G1 X11.302 Y10.474 E242.64542
G1 X11.5 Y10.455 E242.70529
G0 F3750 X11.5 Y11.155
G1 F1200 X211.438 Y11.155 E302.88663
G1 X211.599 Y11.194 E302.93649
G1 X211.724 Y11.304 E302.98661
G1 X211.788 Y11.505 E303.0501
G1 X211.788 Y211.443 E363.23144
G1 X211.749 Y211.604 E363.2813
G1 X211.639 Y211.729 E363.33142
G1 X211.438 Y211.793 E363.39492
G1 X11.5 Y211.793 E423.57625
G1 X11.339 Y211.754 E423.62612
G1 X11.214 Y211.644 E423.67624
G1 X11.15 Y211.443 E423.73973
G1 X11.15 Y11.505 E483.92107
G1 X11.189 Y11.344 E483.97093
G1 X11.299 Y11.219 E484.02105
G1 X11.5 Y11.155 E484.08454
G10
G0 F3750 X12.564 Y12.569
G0 X12.834 Y12.834
;TYPE:FILL
G11
G1 F1500 X210.108 Y210.108 E568.0598
G0 X210.231 Y210.231
G0 F3750 X195.97 Y210.112
G1 F1500 X12.829 Y26.971 E646.01895
G0 X12.706 Y26.848
G0 F3750 X12.829 Y41.114
G1 F1500 X181.828 Y210.112 E717.95794
G0 X181.951 Y210.235
G0 F3750 X167.686 Y210.112
G1 F1500 X12.829 Y55.256 E783.87699
G0 X12.706 Y55.133
G0 F3750 X12.829 Y69.398
G1 F1500 X153.543 Y210.112 E843.77588
G0 X153.666 Y210.235
G0 F3750 X139.401 Y210.112
G1 F1500 X12.829 Y83.54 E897.65483
G0 X12.706 Y83.417
G0 F3750 X12.829 Y97.682
G1 F1500 X125.259 Y210.112 E945.51384
G0 X125.382 Y210.235
G0 F3750 X111.117 Y210.112
G1 F1500 X12.829 Y111.824 E987.35291
G0 X12.706 Y111.701
G0 F3750 X12.829 Y125.966
G1 F1500 X96.975 Y210.112 E1023.17203
G0 X97.098 Y210.235
G0 F3750 X82.833 Y210.112
G1 F1500 X12.829 Y140.108 E1052.97122
G0 X12.706 Y139.985
G0 F3750 X12.829 Y154.251
G1 F1500 X68.691 Y210.112 E1076.75024
G0 X68.814 Y210.235
G0 F3750 X54.549 Y210.112
G1 F1500 X12.829 Y168.393 E1094.50933
G0 X12.706 Y168.27
G0 F3750 X12.829 Y182.535
G1 F1500 X40.406 Y210.112 E1106.24826
G0 X40.529 Y210.235
G0 F3750 X26.264 Y210.112
G1 F1500 X12.829 Y196.677 E1111.96725
G0 X12.706 Y196.554
G0 F3750 X26.976 Y12.834
G1 F1500 X210.108 Y195.966 E1189.92256
G0 X210.231 Y196.089
G0 F3750 X210.108 Y181.824
G1 F1500 X41.118 Y12.834 E1261.85793
G0 X40.995 Y12.711
G0 F3750 X55.261 Y12.834
G1 F1500 X210.108 Y167.681 E1327.77294
G0 X210.231 Y167.804
G0 F3750 X210.108 Y153.539
G1 F1500 X69.403 Y12.834 E1387.668
G0 X69.28 Y12.711
G0 F3750 X83.545 Y12.834
G1 F1500 X210.108 Y139.397 E1441.54312
G0 X210.231 Y139.52
G0 F3750 X210.108 Y125.255
G1 F1500 X97.687 Y12.834 E1489.3983
G0 X97.564 Y12.711
G0 F3750 X111.829 Y12.834
G1 F1500 X210.108 Y111.113 E1531.23354
G0 X210.231 Y111.236
G0 F3750 X210.108 Y96.971
G1 F1500 X125.971 Y12.834 E1567.04883
G0 X125.848 Y12.711
G0 F3750 X140.113 Y12.834
G1 F1500 X210.108 Y82.829 E1596.84418
G0 X210.231 Y82.952
G0 F3750 X210.108 Y68.686
G1 F1500 X154.256 Y12.834 E1620.61916
G0 X154.133 Y12.711
G0 F3750 X168.398 Y12.834
G1 F1500 X210.108 Y54.544 E1638.37421
G0 X210.231 Y54.667
G0 F3750 X210.108 Y40.402
G1 F1500 X182.54 Y12.834 E1650.1093
G0 X182.417 Y12.711
G0 F3750 X196.682 Y12.834
G1 F1500 X210.108 Y26.26 E1655.82446
G0 X210.231 Y26.383
G0 F3750 X210.318 Y12.625
G0 X210.388 Y12.555
;TYPE:WALL-INNER
G1 F1500 X210.388 Y210.393 E1715.3737
G1 X12.55 Y210.393 E1774.92294
G1 X12.55 Y12.555 E1834.47218
G1 X210.388 Y12.555 E1894.02141
G0 F3750 X211.038 Y11.905
;TYPE:WALL-OUTER
G1 F1500 X211.038 Y211.043 E1953.96195
G1 X11.9 Y211.043 E2013.90249
G1 X11.9 Y11.905 E2073.84303
G1 X211.038 Y11.905 E2133.78357
G0 F3750 X211.038 Y12.305
G0 X209.688 Y13.049
;TIME_ELAPSED:311.729742
;LAYER:1
M106 S255
G0 F4875 X209.688 Y13.049 Z0.68
G0 X210.107 Y16.166
;TYPE:FILL
G1 F2370 X16.161 Y210.112 E2181.78275
G0 X16.038 Y210.235
G0 F4875 X12.829 Y199.302
G1 F2370 X199.298 Y12.833 E2227.93147
G0 X199.421 Y12.71
G0 F4875 X185.155 Y12.833
G1 F2370 X12.829 Y185.16 E2270.58011
G0 X12.706 Y185.283
G0 F4875 X12.829 Y171.018
G1 F2370 X171.013 Y12.833 E2309.72877
G0 X171.136 Y12.71
G0 F4875 X156.871 Y12.833
G1 F2370 X12.829 Y156.875 E2345.37735
G0 X12.706 Y156.998
G0 F4875 X12.829 Y142.733
G1 F2370 X142.729 Y12.833 E2377.52596
G0 X142.852 Y12.71
G0 F4875 X128.587 Y12.833
G1 F2370 X12.829 Y128.591 E2406.1746
G0 X12.706 Y128.714
G0 F4875 X12.829 Y114.449
G1 F2370 X114.445 Y12.833 E2431.32328
G0 X114.568 Y12.71
G0 F4875 X100.303 Y12.833
G1 F2370 X12.829 Y100.307 E2452.97199
G0 X12.706 Y100.43
G0 F4875 X12.829 Y86.165
G1 F2370 X86.16 Y12.833 E2471.12061
G0 X86.283 Y12.71
G0 F4875 X72.018 Y12.833
G1 F2370 X12.829 Y72.023 E2485.76926
G0 X12.706 Y72.146
G0 F4875 X12.829 Y57.88
G1 F2370 X57.876 Y12.833 E2496.91783
G0 X57.999 Y12.71
G0 F4875 X43.734 Y12.833
G1 F2370 X12.829 Y43.738 E2504.56643
G0 X12.706 Y43.861
G0 F4875 X12.829 Y29.596
G1 F2370 X29.592 Y12.833 E2508.71506
G0 X29.715 Y12.71
G0 F4875 X15.45 Y12.833
G1 F2370 X12.829 Y15.454 E2509.36372
G0 X12.706 Y15.577
G0 F4875 X30.303 Y210.112
G1 F2370 X210.107 Y30.308 E2553.86294
G0 X210.23 Y30.185
G0 F4875 X210.107 Y44.45
G1 F2370 X44.445 Y210.112 E2594.86219
G0 X44.322 Y210.235
G0 F4875 X58.588 Y210.112
G1 F2370 X210.107 Y58.592 E2632.36136
G0 X210.23 Y58.469
G0 F4875 X210.107 Y72.735
G1 F2370 X72.73 Y210.112 E2666.36043
G0 X72.607 Y210.235
G0 F4875 X86.872 Y210.112
G1 F2370 X210.107 Y86.877 E2696.85954
G0 X210.23 Y86.754
G0 F4875 X210.107 Y101.019
G1 F2370 X101.014 Y210.112 E2723.85868
G0 X100.891 Y210.235
G0 F4875 X115.156 Y210.112
G1 F2370 X210.107 Y115.161 E2747.35785
G0 X210.23 Y115.038
G0 F4875 X210.107 Y129.303
G1 F2370 X129.298 Y210.112 E2767.35706
G0 X129.175 Y210.235
G0 F4875 X143.44 Y210.112
G1 F2370 X210.107 Y143.445 E2783.8563
G0 X210.23 Y143.322
G0 F4875 X210.107 Y157.587
G1 F2370 X157.582 Y210.112 E2796.85557
G0 X157.459 Y210.235
G0 F4875 X171.725 Y210.112
G1 F2370 X210.107 Y171.73 E2806.35463
G0 X210.23 Y171.607
G0 F4875 X210.107 Y185.872
G1 F2370 X185.867 Y210.112 E2812.35373
G0 X185.744 Y210.235
G0 F4875 X200.009 Y210.112
G1 F2370 X210.107 Y200.014 E2814.85285
G0 X210.23 Y199.891
G0 F4875 X210.318 Y210.323
G0 X210.388 Y210.393
;TYPE:WALL-INNER
G1 F2070 X12.55 Y210.393 E2849.4745
G1 X12.55 Y12.555 E2884.09615
G1 X210.388 Y12.555 E2918.7178
G1 X210.388 Y210.393 E2953.33945
G0 F4875 X211.038 Y211.043
;TYPE:WALL-OUTER
G1 F1650 X11.9 Y211.043 E2988.1886
G1 X11.9 Y11.905 E3023.03775
G1 X211.038 Y11.905 E3057.8869
G1 X211.038 Y211.043 E3092.73605
G0 F4875 X210.638 Y211.043
G0 X209.688 Y209.899
;TIME_ELAPSED:470.283392
;LAYER:2
G0 F6000 X210.108 Y210.108 Z0.93
;TYPE:FILL
G1 F3240 X12.834 Y12.834 E3141.55888
G0 X12.711 Y12.711
G0 F6000 X12.829 Y26.971
G1 F3240 X195.97 Y210.112 E3186.88396
G0 X196.093 Y210.235
G0 F6000 X181.828 Y210.112
G1 F3240 X12.829 Y41.114 E3228.70896
G0 X12.706 Y40.991
G0 F6000 X12.829 Y55.256
G1 F3240 X167.686 Y210.112 E3267.03399
G0 X167.809 Y210.235
G0 F6000 X153.543 Y210.112
G1 F3240 X12.829 Y69.398 E3301.85892
G0 X12.706 Y69.275
G0 F6000 X12.829 Y83.54
G1 F3240 X139.401 Y210.112 E3333.1839
G0 X139.524 Y210.235
G0 F6000 X125.259 Y210.112
G1 F3240 X12.829 Y97.682 E3361.0089
G0 X12.706 Y97.559
G0 F6000 X12.829 Y111.824
G1 F3240 X111.117 Y210.112 E3385.33394
G0 X111.24 Y210.235
G0 F6000 X96.975 Y210.112
G1 F3240 X12.829 Y125.966 E3406.15901
G0 X12.706 Y125.843
G0 F6000 X12.829 Y140.108
G1 F3240 X82.833 Y210.112 E3423.48412
G0 X82.956 Y210.235
G0 F6000 X68.691 Y210.112
G1 F3240 X12.829 Y154.251 E3437.30914
G0 X12.706 Y154.128
G0 F6000 X12.829 Y168.393
G1 F3240 X54.549 Y210.112 E3447.63418
G0 X54.672 Y210.235
G0 F6000 X40.406 Y210.112
G1 F3240 X12.829 Y182.535 E3454.45914
G0 X12.706 Y182.412
G0 F6000 X12.829 Y196.677
G1 F3240 X26.264 Y210.112 E3457.78414
G0 X26.387 Y210.235
G0 F6000 X210.108 Y195.966
G1 F3240 X26.976 Y12.834 E3503.10699
G0 X26.853 Y12.711
G0 F6000 X41.118 Y12.834
G1 F3240 X210.108 Y181.824 E3544.92989
G0 X210.231 Y181.947
G0 F6000 X210.108 Y167.681
G1 F3240 X55.261 Y12.834 E3583.25256
G0 X55.138 Y12.711
G0 F6000 X69.403 Y12.834
G1 F3240 X210.108 Y153.539 E3618.07527
G0 X210.231 Y153.662
G0 F6000 X210.108 Y139.397
G1 F3240 X83.545 Y12.834 E3649.39802
G0 X83.422 Y12.711
G0 F6000 X97.687 Y12.834
G1 F3240 X210.108 Y125.255 E3677.2208
G0 X210.231 Y125.378
G0 F6000 X210.108 Y111.113
G1 F3240 X111.829 Y12.834 E3701.54361
G0 X111.706 Y12.711
G0 F6000 X125.971 Y12.834
G1 F3240 X210.108 Y96.971 E3722.36645
G0 X210.231 Y97.094
G0 F6000 X210.108 Y82.829
G1 F3240 X140.113 Y12.834 E3739.68933
G0 X139.99 Y12.711
G0 F6000 X154.256 Y12.834
G1 F3240 X210.108 Y68.686 E3753.512
G0 X210.231 Y68.809
G0 F6000 X210.108 Y54.544
G1 F3240 X168.398 Y12.834 E3763.8347
G0 X168.275 Y12.711
G0 F6000 X182.54 Y12.834
G1 F3240 X210.108 Y40.402 E3770.65743
G0 X210.231 Y40.525
G0 F6000 X210.108 Y26.26
G1 F3240 X196.682 Y12.834 E3773.98019
G0 X196.559 Y12.711
G0 F6000 X210.318 Y12.625
G0 X210.388 Y12.555
;TYPE:WALL-INNER
G1 F2640 X210.388 Y210.393 E3808.60184
G1 X12.55 Y210.393 E3843.22349
G1 X12.55 Y12.555 E3877.84514
G1 X210.388 Y12.555 E3912.46679
G0 F6000 X211.038 Y11.905
;TYPE:WALL-OUTER
G1 F1800 X211.038 Y211.043 E3947.31594
G1 X11.9 Y211.043 E3982.16509
G1 X11.9 Y11.905 E4017.01424
G1 X211.038 Y11.905 E4051.86339
G0 F6000 X211.038 Y12.305
G0 X209.688 Y13.049
;TIME_ELAPSED:593.726935
;LAYER:3
G0 X209.688 Y13.049 Z1.18
G0 X210.107 Y16.166
;TYPE:FILL
G1 F3240 X16.161 Y210.112 E4099.86258
G0 X16.038 Y210.235
G0 F6000 X12.829 Y199.302
G1 F3240 X199.298 Y12.833 E4146.0113
G0 X199.421 Y12.71
G0 F6000 X185.155 Y12.833
G1 F3240 X12.829 Y185.16 E4188.65993
G0 X12.706 Y185.283
G0 F6000 X12.829 Y171.018
G1 F3240 X171.013 Y12.833 E4227.8086
G0 X171.136 Y12.71
G0 F6000 X156.871 Y12.833
G1 F3240 X12.829 Y156.875 E4263.45718
G0 X12.706 Y156.998
G0 F6000 X12.829 Y142.733
G1 F3240 X142.729 Y12.833 E4295.60579
G0 X142.852 Y12.71
G0 F6000 X128.587 Y12.833
G1 F3240 X12.829 Y128.591 E4324.25443
G0 X12.706 Y128.714
G0 F6000 X12.829 Y114.449
G1 F3240 X114.445 Y12.833 E4349.40311
G0 X114.568 Y12.71
G0 F6000 X100.303 Y12.833
G1 F3240 X12.829 Y100.307 E4371.05182
G0 X12.706 Y100.43
G0 F6000 X12.829 Y86.165
G1 F3240 X86.16 Y12.833 E4389.20044
G0 X86.283 Y12.71
G0 F6000 X72.018 Y12.833
G1 F3240 X12.829 Y72.023 E4403.84909
G0 X12.706 Y72.146
G0 F6000 X12.829 Y57.88
G1 F3240 X57.876 Y12.833 E4414.99766
G0 X57.999 Y12.71
G0 F6000 X43.734 Y12.833
G1 F3240 X12.829 Y43.738 E4422.64625
G0 X12.706 Y43.861
G0 F6000 X12.829 Y29.596
G1 F3240 X29.592 Y12.833 E4426.79488
G0 X29.715 Y12.71
G0 F6000 X15.45 Y12.833
G1 F3240 X12.829 Y15.454 E4427.44355
G0 X12.706 Y15.577
G0 F6000 X30.303 Y210.112
G1 F3240 X210.107 Y30.308 E4471.94277
G0 X210.23 Y30.185
G0 F6000 X210.107 Y44.45
G1 F3240 X44.445 Y210.112 E4512.94202
G0 X44.322 Y210.235
G0 F6000 X58.588 Y210.112
G1 F3240 X210.107 Y58.592 E4550.44118
G0 X210.23 Y58.469
G0 F6000 X210.107 Y72.735
G1 F3240 X72.73 Y210.112 E4584.44026
G0 X72.607 Y210.235
G0 F6000 X86.872 Y210.112
G1 F3240 X210.107 Y86.877 E4614.93936
G0 X210.23 Y86.754
G0 F6000 X210.107 Y101.019
G1 F3240 X101.014 Y210.112 E4641.9385
G0 X100.891 Y210.235
G0 F6000 X115.156 Y210.112
G1 F3240 X210.107 Y115.161 E4665.43768
G0 X210.23 Y115.038
G0 F6000 X210.107 Y129.303
G1 F3240 X129.298 Y210.112 E4685.43688
G0 X129.175 Y210.235
G0 F6000 X143.44 Y210.112
G1 F3240 X210.107 Y143.445 E4701.93613
G0 X210.23 Y143.322
G0 F6000 X210.107 Y157.587
G1 F3240 X157.582 Y210.112 E4714.9354
G0 X157.459 Y210.235
G0 F6000 X171.725 Y210.112
G1 F3240 X210.107 Y171.73 E4724.43446
G0 X210.23 Y171.607
G0 F6000 X210.107 Y185.872
G1 F3240 X185.867 Y210.112 E4730.43355
G0 X185.744 Y210.235
G0 F6000 X200.009 Y210.112
G1 F3240 X210.107 Y200.014 E4732.93268
G0 X210.23 Y199.891
G0 F6000 X210.318 Y210.323
G0 X210.388 Y210.393
;TYPE:WALL-INNER
G1 F2640 X12.55 Y210.393 E4767.55433
G1 X12.55 Y12.555 E4802.17598
G1 X210.388 Y12.555 E4836.79763
G1 X210.388 Y210.393 E4871.41928
G0 F6000 X211.038 Y211.043
;TYPE:WALL-OUTER
G1 F1800 X11.9 Y211.043 E4906.26843
G1 X11.9 Y11.905 E4941.11758
G1 X211.038 Y11.905 E4975.96673
G1 X211.038 Y211.043 E5010.81588
G0 F6000 X210.638 Y211.043
G0 X209.688 Y209.899
;TIME_ELAPSED:717.386135
;LAYER:4
G0 X210.108 Y210.108 Z1.43
;TYPE:FILL
G1 F3240 X12.834 Y12.834 E5059.63871
G0 X12.711 Y12.711
G0 F6000 X12.829 Y26.971
G1 F3240 X195.97 Y210.112 E5104.96379
G0 X196.093 Y210.235
G0 F6000 X181.828 Y210.112
G1 F3240 X12.829 Y41.114 E5146.78879
G0 X12.706 Y40.991
G0 F6000 X12.829 Y55.256
G1 F3240 X167.686 Y210.112 E5185.11381
G0 X167.809 Y210.235
G0 F6000 X153.543 Y210.112
G1 F3240 X12.829 Y69.398 E5219.93875
G0 X12.706 Y69.275
G0 F6000 X12.829 Y83.54
G1 F3240 X139.401 Y210.112 E5251.26372
G0 X139.524 Y210.235
G0 F6000 X125.259 Y210.112
G1 F3240 X12.829 Y97.682 E5279.08873
G0 X12.706 Y97.559
G0 F6000 X12.829 Y111.824
G1 F3240 X111.117 Y210.112 E5303.41377
G0 X111.24 Y210.235
G0 F6000 X96.975 Y210.112
G1 F3240 X12.829 Y125.966 E5324.23884
G0 X12.706 Y125.843
G0 F6000 X12.829 Y140.108
G1 F3240 X82.833 Y210.112 E5341.56395
G0 X82.956 Y210.235
G0 F6000 X68.691 Y210.112
G1 F3240 X12.829 Y154.251 E5355.38896
G0 X12.706 Y154.128
G0 F6000 X12.829 Y168.393
G1 F3240 X54.549 Y210.112 E5365.71401
G0 X54.672 Y210.235
G0 F6000 X40.406 Y210.112
G1 F3240 X12.829 Y182.535 E5372.53897
G0 X12.706 Y182.412
G0 F6000 X12.829 Y196.677
G1 F3240 X26.264 Y210.112 E5375.86396
G0 X26.387 Y210.235
G0 F6000 X210.108 Y195.966
G1 F3240 X26.976 Y12.834 E5421.18682
G0 X26.853 Y12.711
G0 F6000 X41.118 Y12.834
G1 F3240 X210.108 Y181.824 E5463.00971
G0 X210.231 Y181.947
G0 F6000 X210.108 Y167.681
G1 F3240 X55.261 Y12.834 E5501.33239
G0 X55.138 Y12.711
G0 F6000 X69.403 Y12.834
G1 F3240 X210.108 Y153.539 E5536.1551
G0 X210.231 Y153.662
G0 F6000 X210.108 Y139.397
G1 F3240 X83.545 Y12.834 E5567.47785
G0 X83.422 Y12.711
G0 F6000 X97.687 Y12.834
G1 F3240 X210.108 Y125.255 E5595.30062
G0 X210.231 Y125.378
G0 F6000 X210.108 Y111.113
G1 F3240 X111.829 Y12.834 E5619.62344
G0 X111.706 Y12.711
G0 F6000 X125.971 Y12.834
G1 F3240 X210.108 Y96.971 E5640.44628
G0 X210.231 Y97.094
G0 F6000 X210.108 Y82.829
G1 F3240 X140.113 Y12.834 E5657.76916
G0 X139.99 Y12.711
G0 F6000 X154.256 Y12.834
G1 F3240 X210.108 Y68.686 E5671.59182
G0 X210.231 Y68.809
G0 F6000 X210.108 Y54.544
G1 F3240 X168.398 Y12.834 E5681.91452
G0 X168.275 Y12.711
G0 F6000 X182.54 Y12.834
G1 F3240 X210.108 Y40.402 E5688.73725
G0 X210.231 Y40.525
G0 F6000 X210.108 Y26.26
G1 F3240 X196.682 Y12.834 E5692.06002
G0 X196.559 Y12.711
G0 F6000 X210.318 Y12.625
G0 X210.388 Y12.555
;TYPE:WALL-INNER
G1 F2640 X210.388 Y210.393 E5726.68167
G1 X12.55 Y210.393 E5761.30332
G1 X12.55 Y12.555 E5795.92497
G1 X210.388 Y12.555 E5830.54662
G0 F6000 X211.038 Y11.905
;TYPE:WALL-OUTER
G1 F1800 X211.038 Y211.043 E5865.39577
G1 X11.9 Y211.043 E5900.24492
G1 X11.9 Y11.905 E5935.09407
G1 X211.038 Y11.905 E5969.94322
G0 F6000 X211.038 Y12.305
G0 X209.688 Y13.049
;TIME_ELAPSED:840.829678
;LAYER:5
G0 X209.688 Y13.049 Z1.68
G0 X210.107 Y16.166
;TYPE:FILL
G1 F3240 X16.161 Y210.112 E6017.94241
G0 X16.038 Y210.235
G0 F6000 X12.829 Y199.302
G1 F3240 X199.298 Y12.833 E6064.09113
G0 X199.421 Y12.71
G0 F6000 X185.155 Y12.833
G1 F3240 X12.829 Y185.16 E6106.73976
G0 X12.706 Y185.283
G0 F6000 X12.829 Y171.018
G1 F3240 X171.013 Y12.833 E6145.88843
G0 X171.136 Y12.71
G0 F6000 X156.871 Y12.833
G1 F3240 X12.829 Y156.875 E6181.537
G0 X12.706 Y156.998
G0 F6000 X12.829 Y142.733
G1 F3240 X142.729 Y12.833 E6213.68561
G0 X142.852 Y12.71
G0 F6000 X128.587 Y12.833
