;FLAVOR:UltiGCode
;TIME:57146
;MATERIAL:354043
;MATERIAL2:0
;NOZZLE_DIAMETER:0.8
;Generated with Cura_SteamEngine 2.3.1

;LAYER_COUNT:359
;LAYER:0
M107
G10
G1 Z22
G0 F3750 X10.791 Y10.726 Z2.43
G0 X11.501 Y10.45 Z2.43
;TYPE:SKIRT
G1 Z.43
G11
G1 F1200 X211.5 Y10.45 E60.1997
G1 X211.786 Y10.49 E60.28662
G1 X212.051 Y10.606 E60.3737
G1 X212.274 Y10.79 E60.46072
G1 X212.438 Y11.028 E60.54772
G1 X212.531 Y11.302 E60.63481
G1 X212.55 Y11.5 E60.69468
G1 X212.55 Y211.5 E120.89468
G1 X212.51 Y211.786 E120.98161
G1 X212.394 Y212.051 E121.06868
G1 X212.21 Y212.274 E121.1557
G1 X211.972 Y212.438 E121.2427
G1 X211.698 Y212.531 E121.3298
G1 X211.5 Y212.55 E121.38967
G1 X11.501 Y212.55 E181.58937
G1 X11.215 Y212.51 E181.67629
G1 X10.95 Y212.394 E181.76336
G1 X10.727 Y212.21 E181.85039
G1 X10.563 Y211.972 E181.93738
G1 X10.47 Y211.698 E182.02448
G1 X10.451 Y211.5 E182.08435
G1 X10.451 Y11.5 E242.28435
G1 X10.491 Y11.214 E242.37127
G1 X10.607 Y10.949 E242.45835
G1 X10.791 Y10.726 E242.54537
G1 X11.029 Y10.562 E242.63237
G1 X11.303 Y10.469 E242.71946
G1 X11.501 Y10.45 E242.77934
G0 F3750 X11.501 Y11.15
G1 F1200 X211.5 Y11.15 E302.97903
G1 X211.661 Y11.189 E303.0289
G1 X211.786 Y11.299 E303.07902
G1 X211.85 Y11.5 E303.14251
G1 X211.85 Y211.5 E363.34251
G1 X211.811 Y211.661 E363.39237
G1 X211.701 Y211.786 E363.44249
G1 X211.5 Y211.85 E363.50599
G1 X11.501 Y211.85 E423.70568
G1 X11.34 Y211.811 E423.75555
G1 X11.215 Y211.701 E423.80567
G1 X11.151 Y211.5 E423.86916
G1 X11.151 Y11.5 E484.06916
G1 X11.19 Y11.339 E484.11902
G1 X11.3 Y11.214 E484.16914
G1 X11.501 Y11.15 E484.23263
G10
G0 F3750 X12.579 Y12.578
G0 X12.83 Y12.83
;TYPE:FILL
G11
G1 F1500 X210.169 Y210.169 E568.23556
G0 X210.292 Y210.292
G0 F3750 X210.169 Y196.027
G1 F1500 X26.972 Y12.83 E646.21855
G0 X26.849 Y12.707
G0 F3750 X41.114 Y12.83
G1 F1500 X210.169 Y181.885 E718.18159
G0 X210.292 Y182.008
G0 F3750 X210.169 Y167.743
G1 F1500 X55.256 Y12.83 E784.12469
G0 X55.133 Y12.707
G0 F3750 X69.398 Y12.83
G1 F1500 X210.169 Y153.601 E844.04784
G0 X210.292 Y153.724
G0 F3750 X210.169 Y139.459
G1 F1500 X83.541 Y12.83 E897.95085
G0 X83.418 Y12.707
G0 F3750 X97.683 Y12.83
G1 F1500 X210.169 Y125.316 E945.83369
G0 X210.292 Y125.439
G0 F3750 X210.169 Y111.174
G1 F1500 X111.825 Y12.83 E987.6966
G0 X111.702 Y12.707
G0 F3750 X125.967 Y12.83
G1 F1500 X210.169 Y97.032 E1023.53956
G0 X210.292 Y97.155
G0 F3750 X210.169 Y82.89
G1 F1500 X140.109 Y12.83 E1053.36258
G0 X139.986 Y12.707
G0 F3750 X154.251 Y12.83
G1 F1500 X210.169 Y68.748 E1077.16566
G0 X210.292 Y68.871
G0 F3750 X210.169 Y54.606
G1 F1500 X168.393 Y12.83 E1094.9488
G0 X168.27 Y12.707
G0 F3750 X182.536 Y12.83
G1 F1500 X210.169 Y40.464 E1106.71178
G0 X210.292 Y40.587
G0 F3750 X210.169 Y26.322
G1 F1500 X196.678 Y12.83 E1112.45482
G0 X196.555 Y12.707
G0 F3750 X12.83 Y26.972
G1 F1500 X196.026 Y210.169 E1190.43759
G0 X196.149 Y210.292
G0 F3750 X181.884 Y210.169
G1 F1500 X12.83 Y41.114 E1262.40042
G0 X12.707 Y40.991
G0 F3750 X12.83 Y55.256
G1 F1500 X167.742 Y210.169 E1328.3433
G0 X167.865 Y210.292
G0 F3750 X153.6 Y210.169
G1 F1500 X12.83 Y69.398 E1388.26625
G0 X12.707 Y69.275
G0 F3750 X12.83 Y83.541
G1 F1500 X139.458 Y210.169 E1442.16904
G0 X139.581 Y210.292
G0 F3750 X125.316 Y210.169
G1 F1500 X12.83 Y97.683 E1490.05189
G0 X12.707 Y97.56
G0 F3750 X12.83 Y111.825
G1 F1500 X111.174 Y210.169 E1531.91479
G0 X111.297 Y210.292
G0 F3750 X97.032 Y210.169
G1 F1500 X12.83 Y125.967 E1567.75775
G0 X12.707 Y125.844
G0 F3750 X12.83 Y140.109
G1 F1500 X82.889 Y210.169 E1597.58056
G0 X83.012 Y210.292
G0 F3750 X68.747 Y210.169
G1 F1500 X12.83 Y154.251 E1621.38343
G0 X12.707 Y154.128
G0 F3750 X12.83 Y168.393
G1 F1500 X54.605 Y210.169 E1639.16635
G0 X54.728 Y210.292
G0 F3750 X40.463 Y210.169
G1 F1500 X12.83 Y182.536 E1650.92912
G0 X12.707 Y182.413
G0 F3750 X12.83 Y196.678
G1 F1500 X26.321 Y210.169 E1656.67194
G0 X26.444 Y210.292
G0 F3750 X12.621 Y210.38
G0 X12.551 Y210.45
;TYPE:WALL-INNER
G1 F1500 X12.551 Y12.55 E1716.23984
G1 X210.45 Y12.55 E1775.80744
G1 X210.45 Y210.45 E1835.37534
G1 X12.551 Y210.45 E1894.94294
G0 F3750 X11.901 Y211.1
;TYPE:WALL-OUTER
G1 F1500 X11.901 Y11.9 E1954.90214
G1 X211.1 Y11.9 E2014.86104
G1 X211.1 Y211.1 E2074.82024
G1 X11.901 Y211.1 E2134.77914
G0 F3750 X13.045 Y209.75
;TIME_ELAPSED:311.858792
;LAYER:1
M106 S255
G0 F4875 X13.045 Y209.75 Z.68
G0 X16.104 Y210.169
;TYPE:FILL
G1 F2370 X210.169 Y16.105 E2182.80765
G0 X210.292 Y15.982
G0 F4875 X199.302 Y12.829
G1 F2370 X12.831 Y199.3 E2228.95687
G0 X12.708 Y199.423
G0 F4875 X12.831 Y185.158
G1 F2370 X185.16 Y12.829 E2271.60612
G0 X185.283 Y12.706
G0 F4875 X171.018 Y12.829
G1 F2370 X12.831 Y171.016 E2310.75541
G0 X12.708 Y171.139
G0 F4875 X12.831 Y156.874
G1 F2370 X156.875 Y12.829 E2346.4046
G0 X156.998 Y12.706
G0 F4875 X142.733 Y12.829
G1 F2370 X12.831 Y142.732 E2378.55383
G0 X12.708 Y142.855
G0 F4875 X12.831 Y128.59
G1 F2370 X128.591 Y12.829 E2407.20309
G0 X128.714 Y12.706
G0 F4875 X114.449 Y12.829
G1 F2370 X12.831 Y114.448 E2432.35239
G0 X12.708 Y114.571
G0 F4875 X12.831 Y100.305
G1 F2370 X100.307 Y12.829 E2454.00159
G0 X100.43 Y12.706
G0 F4875 X86.165 Y12.829
G1 F2370 X12.831 Y86.163 E2472.15083
G0 X12.708 Y86.286
G0 F4875 X12.831 Y72.021
G1 F2370 X72.023 Y12.829 E2486.80011
G0 X72.146 Y12.706
G0 F4875 X57.88 Y12.829
G1 F2370 X12.831 Y57.879 E2497.94929
G0 X12.708 Y58.002
G0 F4875 X12.831 Y43.737
G1 F2370 X43.738 Y12.829 E2505.5985
G0 X43.861 Y12.706
G0 F4875 X29.596 Y12.829
G1 F2370 X12.831 Y29.595 E2509.74775
G0 X12.708 Y29.718
G0 F4875 X12.831 Y15.453
G1 F2370 X15.454 Y12.829 E2510.39704
G0 X15.577 Y12.706
G0 F4875 X210.169 Y30.247
G1 F2370 X30.246 Y210.169 E2554.92558
G0 X30.123 Y210.292
G0 F4875 X44.388 Y210.169
G1 F2370 X210.169 Y44.389 E2595.95416
G0 X210.292 Y44.266
G0 F4875 X210.169 Y58.531
G1 F2370 X58.53 Y210.169 E2633.48278
G0 X58.407 Y210.292
G0 F4875 X72.672 Y210.169
G1 F2370 X210.169 Y72.673 E2667.51143
G0 X210.292 Y72.55
G0 F4875 X210.169 Y86.815
G1 F2370 X86.815 Y210.169 E2698.03998
G0 X86.692 Y210.292
G0 F4875 X100.957 Y210.169
G1 F2370 X210.169 Y100.957 E2725.06857
G0 X210.292 Y100.834
G0 F4875 X210.169 Y115.1
G1 F2370 X115.099 Y210.169 E2748.59707
G0 X114.976 Y210.292
G0 F4875 X129.241 Y210.169
G1 F2370 X210.169 Y129.242 E2768.62561
G0 X210.292 Y129.119
G0 F4875 X210.169 Y143.384
G1 F2370 X143.383 Y210.169 E2785.15418
G0 X143.26 Y210.292
G0 F4875 X157.525 Y210.169
G1 F2370 X210.169 Y157.526 E2798.18278
G0 X210.292 Y157.403
G0 F4875 X210.169 Y171.668
G1 F2370 X171.667 Y210.169 E2807.71141
G0 X171.544 Y210.292
G0 F4875 X185.809 Y210.169
G1 F2370 X210.169 Y185.81 E2813.74008
G0 X210.292 Y185.687
G0 F4875 X210.169 Y199.952
G1 F2370 X199.952 Y210.169 E2816.26866
G0 X199.829 Y210.292
G0 F4875 X210.38 Y210.38
G0 X210.45 Y210.45
;TYPE:WALL-INNER
G1 F2070 X12.551 Y210.45 E2850.90099
G1 X12.551 Y12.55 E2885.53349
G1 X210.45 Y12.55 E2920.16581
G1 X210.45 Y210.45 E2954.79831
G0 F4875 X211.1 Y211.1
;TYPE:WALL-OUTER
G1 F1650 X11.901 Y211.1 E2989.65814
G1 X11.901 Y11.9 E3024.51814
G1 X211.1 Y11.9 E3059.37796
G1 X211.1 Y211.1 E3094.23796
G0 F4875 X209.75 Y209.956
;TIME_ELAPSED:470.484303
;LAYER:2
G0 F6000 X210.169 Y210.169 Z.93
;TYPE:FILL
G1 F3240 X12.83 Y12.83 E3143.07687
G0 X12.707 Y12.707
G0 F6000 X12.83 Y26.972
G1 F3240 X196.026 Y210.169 E3188.41569
G0 X196.149 Y210.292
G0 F6000 X181.884 Y210.169
G1 F3240 X12.83 Y41.114 E3230.25455
G0 X12.707 Y40.991
G0 F6000 X12.83 Y55.256
G1 F3240 X167.742 Y210.169 E3268.59343
G0 X167.865 Y210.292
G0 F6000 X153.6 Y210.169
G1 F3240 X12.83 Y69.398 E3303.43236
G0 X12.707 Y69.275
G0 F6000 X12.83 Y83.541
G1 F3240 X139.458 Y210.169 E3334.77119
G0 X139.581 Y210.292
G0 F6000 X125.316 Y210.169
G1 F3240 X12.83 Y97.683 E3362.61005
G0 X12.707 Y97.56
G0 F6000 X12.83 Y111.825
G1 F3240 X111.174 Y210.169 E3386.94895
G0 X111.297 Y210.292
G0 F6000 X97.032 Y210.169
G1 F3240 X12.83 Y125.967 E3407.78788
G0 X12.707 Y125.844
G0 F6000 X12.83 Y140.109
G1 F3240 X82.889 Y210.169 E3425.12672
G0 X83.012 Y210.292
G0 F6000 X68.747 Y210.169
G1 F3240 X12.83 Y154.251 E3438.9656
G0 X12.707 Y154.128
G0 F6000 X12.83 Y168.393
G1 F3240 X54.605 Y210.169 E3449.30451
G0 X54.728 Y210.292
G0 F6000 X40.463 Y210.169
G1 F3240 X12.83 Y182.536 E3456.14333
G0 X12.707 Y182.413
G0 F6000 X12.83 Y196.678
G1 F3240 X26.321 Y210.169 E3459.48218
G0 X26.444 Y210.292
G0 F6000 X210.169 Y196.027
G1 F3240 X26.972 Y12.83 E3504.82112
G0 X26.849 Y12.707
G0 F6000 X41.114 Y12.83
G1 F3240 X210.169 Y181.885 E3546.6601
G0 X210.292 Y182.008
G0 F6000 X210.169 Y167.743
G1 F3240 X55.256 Y12.83 E3584.99911
G0 X55.133 Y12.707
G0 F6000 X69.398 Y12.83
G1 F3240 X210.169 Y153.601 E3619.83816
G0 X210.292 Y153.724
G0 F6000 X210.169 Y139.459
G1 F3240 X83.541 Y12.83 E3651.17711
G0 X83.418 Y12.707
G0 F6000 X97.683 Y12.83
G1 F3240 X210.169 Y125.316 E3679.01598
G0 X210.292 Y125.439
G0 F6000 X210.169 Y111.174
G1 F3240 X111.825 Y12.83 E3703.35487
G0 X111.702 Y12.707
G0 F6000 X125.967 Y12.83
G1 F3240 X210.169 Y97.032 E3724.19381
G0 X210.292 Y97.155
G0 F6000 X210.169 Y82.89
G1 F3240 X140.109 Y12.83 E3741.53277
G0 X139.986 Y12.707
G0 F6000 X154.251 Y12.83
G1 F3240 X210.169 Y68.748 E3755.37177
G0 X210.292 Y68.871
G0 F6000 X210.169 Y54.606
G1 F3240 X168.393 Y12.83 E3765.7108
G0 X168.27 Y12.707
G0 F6000 X182.536 Y12.83
G1 F3240 X210.169 Y40.464 E3772.54975
G0 X210.292 Y40.587
G0 F6000 X210.169 Y26.322
G1 F3240 X196.678 Y12.83 E3775.88872
G0 X196.555 Y12.707
G0 F6000 X210.38 Y12.62
G0 X210.45 Y12.55
;TYPE:WALL-INNER
G1 F2640 X210.45 Y210.45 E3810.52122
G1 X12.551 Y210.45 E3845.15355
G1 X12.551 Y12.55 E3879.78605
G1 X210.45 Y12.55 E3914.41837
G0 F6000 X211.1 Y11.9
;TYPE:WALL-OUTER
G1 F1800 X211.1 Y211.1 E3949.27837
G1 X11.901 Y211.1 E3984.1382
G1 X11.901 Y11.9 E4018.9982
G1 X211.1 Y11.9 E4053.85802
G0 F6000 X209.75 Y13.044
;TIME_ELAPSED:593.976474
;LAYER:3
G0 X209.75 Y13.044 Z1.18
G0 X210.169 Y16.105
;TYPE:FILL
G1 F3240 X16.104 Y210.169 E4101.88653
G0 X15.981 Y210.292
G0 F6000 X12.831 Y199.3
G1 F3240 X199.302 Y12.829 E4148.03575
G0 X199.425 Y12.706
G0 F6000 X185.16 Y12.829
G1 F3240 X12.831 Y185.158 E4190.685
G0 X12.708 Y185.281
G0 F6000 X12.831 Y171.016
G1 F3240 X171.018 Y12.829 E4229.83429
G0 X171.141 Y12.706
G0 F6000 X156.875 Y12.829
G1 F3240 X12.831 Y156.874 E4265.48348
G0 X12.708 Y156.997
G0 F6000 X12.831 Y142.732
G1 F3240 X142.733 Y12.829 E4297.63271
G0 X142.856 Y12.706
G0 F6000 X128.591 Y12.829
G1 F3240 X12.831 Y128.59 E4326.28197
G0 X12.708 Y128.713
G0 F6000 X12.831 Y114.448
G1 F3240 X114.449 Y12.829 E4351.43127
G0 X114.572 Y12.706
G0 F6000 X100.307 Y12.829
G1 F3240 X12.831 Y100.305 E4373.08048
G0 X12.708 Y100.428
G0 F6000 X12.831 Y86.163
G1 F3240 X86.165 Y12.829 E4391.22972
G0 X86.288 Y12.706
G0 F6000 X72.023 Y12.829
G1 F3240 X12.831 Y72.021 E4405.87899
G0 X12.708 Y72.144
G0 F6000 X12.831 Y57.879
G1 F3240 X57.88 Y12.829 E4417.02817
G0 X58.003 Y12.706
G0 F6000 X43.738 Y12.829
G1 F3240 X12.831 Y43.737 E4424.67739
G0 X12.708 Y43.86
G0 F6000 X12.831 Y29.595
G1 F3240 X29.596 Y12.829 E4428.82664
G0 X29.719 Y12.706
G0 F6000 X15.454 Y12.829
G1 F3240 X12.831 Y15.453 E4429.47592
G0 X12.708 Y15.576
G0 F6000 X30.246 Y210.169
G1 F3240 X210.169 Y30.247 E4474.00447
G0 X210.292 Y30.124
G0 F6000 X210.169 Y44.389
G1 F3240 X44.388 Y210.169 E4515.03305
G0 X44.265 Y210.292
G0 F6000 X58.53 Y210.169
G1 F3240 X210.169 Y58.531 E4552.56166
G0 X210.292 Y58.408
G0 F6000 X210.169 Y72.673
G1 F3240 X72.672 Y210.169 E4586.59031
G0 X72.549 Y210.292
G0 F6000 X86.815 Y210.169
G1 F3240 X210.169 Y86.815 E4617.11887
G0 X210.292 Y86.692
G0 F6000 X210.169 Y100.957
G1 F3240 X100.957 Y210.169 E4644.14746
G0 X100.834 Y210.292
G0 F6000 X115.099 Y210.169
G1 F3240 X210.169 Y115.1 E4667.67596
G0 X210.292 Y114.977
G0 F6000 X210.169 Y129.242
G1 F3240 X129.241 Y210.169 E4687.70449
G0 X129.118 Y210.292
G0 F6000 X143.383 Y210.169
G1 F3240 X210.169 Y143.384 E4704.23306
G0 X210.292 Y143.261
G0 F6000 X210.169 Y157.526
G1 F3240 X157.525 Y210.169 E4717.26166
G0 X157.402 Y210.292
G0 F6000 X171.667 Y210.169
G1 F3240 X210.169 Y171.668 E4726.7903
G0 X210.292 Y171.545
G0 F6000 X210.169 Y185.81
G1 F3240 X185.809 Y210.169 E4732.81896
G0 X185.686 Y210.292
G0 F6000 X199.952 Y210.169
G1 F3240 X210.169 Y199.952 E4735.34754
G0 X210.292 Y199.829
G0 F6000 X210.38 Y210.38
G0 X210.45 Y210.45
;TYPE:WALL-INNER
G1 F2640 X12.551 Y210.45 E4769.97987
G1 X12.551 Y12.55 E4804.61237
G1 X210.45 Y12.55 E4839.24469
G1 X210.45 Y210.45 E4873.87719
G0 F6000 X211.1 Y211.1
;TYPE:WALL-OUTER
G1 F1800 X11.901 Y211.1 E4908.73702
G1 X11.901 Y11.9 E4943.59702
G1 X211.1 Y11.9 E4978.45684
G1 X211.1 Y211.1 E5013.31684
G0 F6000 X209.75 Y209.956
;TIME_ELAPSED:717.688550
;LAYER:4
G0 X210.169 Y210.169 Z1.43
;TYPE:FILL
G1 F3240 X12.83 Y12.83 E5062.15575
G0 X12.707 Y12.707
G0 F6000 X12.83 Y26.972
G1 F3240 X196.026 Y210.169 E5107.49457
G0 X196.149 Y210.292
G0 F6000 X181.884 Y210.169
G1 F3240 X12.83 Y41.114 E5149.33343
G0 X12.707 Y40.991
G0 F6000 X12.83 Y55.256
G1 F3240 X167.742 Y210.169 E5187.67232
G0 X167.865 Y210.292
G0 F6000 X153.6 Y210.169
G1 F3240 X12.83 Y69.398 E5222.51124
G0 X12.707 Y69.275
G0 F6000 X12.83 Y83.541
G1 F3240 X139.458 Y210.169 E5253.85007
G0 X139.581 Y210.292
G0 F6000 X125.316 Y210.169
G1 F3240 X12.83 Y97.683 E5281.68893
G0 X12.707 Y97.56
G0 F6000 X12.83 Y111.825
G1 F3240 X111.174 Y210.169 E5306.02783
G0 X111.297 Y210.292
G0 F6000 X97.032 Y210.169
G1 F3240 X12.83 Y125.967 E5326.86676
G0 X12.707 Y125.844
G0 F6000 X12.83 Y140.109
G1 F3240 X82.889 Y210.169 E5344.20561
G0 X83.012 Y210.292
G0 F6000 X68.747 Y210.169
G1 F3240 X12.83 Y154.251 E5358.04448
G0 X12.707 Y154.128
G0 F6000 X12.83 Y168.393
G1 F3240 X54.605 Y210.169 E5368.38339
G0 X54.728 Y210.292
G0 F6000 X40.463 Y210.169
G1 F3240 X12.83 Y182.536 E5375.22221
G0 X12.707 Y182.413
G0 F6000 X12.83 Y196.678
G1 F3240 X26.321 Y210.169 E5378.56106
G0 X26.444 Y210.292
G0 F6000 X210.169 Y196.027
G1 F3240 X26.972 Y12.83 E5423.9
G0 X26.849 Y12.707
G0 F6000 X41.114 Y12.83
G1 F3240 X210.169 Y181.885 E5465.73898
G0 X210.292 Y182.008
G0 F6000 X210.169 Y167.743
G1 F3240 X55.256 Y12.83 E5504.07799
G0 X55.133 Y12.707
G0 F6000 X69.398 Y12.83
G1 F3240 X210.169 Y153.601 E5538.91704
G0 X210.292 Y153.724
G0 F6000 X210.169 Y139.459
G1 F3240 X83.541 Y12.83 E5570.25599
G0 X83.418 Y12.707
G0 F6000 X97.683 Y12.83
G1 F3240 X210.169 Y125.316 E5598.09486
G0 X210.292 Y125.439
G0 F6000 X210.169 Y111.174
G1 F3240 X111.825 Y12.83 E5622.43376
G0 X111.702 Y12.707
G0 F6000 X125.967 Y12.83
G1 F3240 X210.169 Y97.032 E5643.27269
G0 X210.292 Y97.155
G0 F6000 X210.169 Y82.89
G1 F3240 X140.109 Y12.83 E5660.61165
G0 X139.986 Y12.707
G0 F6000 X154.251 Y12.83
G1 F3240 X210.169 Y68.748 E5674.45065
G0 X210.292 Y68.871
G0 F6000 X210.169 Y54.606
G1 F3240 X168.393 Y12.83 E5684.78969
G0 X168.27 Y12.707
G0 F6000 X182.536 Y12.83
G1 F3240 X210.169 Y40.464 E5691.62863
G0 X210.292 Y40.587
G0 F6000 X210.169 Y26.322
G1 F3240 X196.678 Y12.83 E5694.9676
G0 X196.555 Y12.707
G0 F6000 X210.38 Y12.62
G0 X210.45 Y12.55
;TYPE:WALL-INNER
G1 F2640 X210.45 Y210.45 E5729.6001
G1 X12.551 Y210.45 E5764.23243
G1 X12.551 Y12.55 E5798.86493
G1 X210.45 Y12.55 E5833.49725
G0 F6000 X211.1 Y11.9
;TYPE:WALL-OUTER
G1 F1800 X211.1 Y211.1 E5868.35725
G1 X11.901 Y211.1 E5903.21708
G1 X11.901 Y11.9 E5938.07708
G1 X211.1 Y11.9 E5972.9369
G0 F6000 X209.75 Y13.044
;TIME_ELAPSED:841.180722
;LAYER:5
G0 X209.75 Y13.044 Z1.68
G0 X210.169 Y16.105
;TYPE:FILL
G1 F3240 X16.104 Y210.169 E6020.96542
G0 X15.981 Y210.292
G0 F6000 X12.831 Y199.3
G1 F3240 X199.302 Y12.829 E6067.11464
G0 X199.425 Y12.706
G0 F6000 X185.16 Y12.829
G1 F3240 X12.831 Y185.158 E6109.76389
G0 X12.708 Y185.281
G0 F6000 X12.831 Y171.016
G1 F3240 X171.018 Y12.829 E6148.91317
G0 X171.141 Y12.706
G0 F6000 X156.875 Y12.829
G1 F3240 X12.831 Y156.874 E6184.56237
G0 X12.708 Y156.997
G0 F6000 X12.831 Y142.732
G1 F3240 X142.733 Y12.829 E6216.7116
G0 X142.856 Y12.706
G0 F6000 X128.591 Y12.829
G1 F3240 X12.831 Y128.59 E6245.36086
G0 X12.708 Y128.713
G0 F6000 X12.831 Y114.448
G1 F3240 X114.449 Y12.829 E6270.51015
G0 X114.572 Y12.706
G0 F6000 X100.307 Y12.829
G1 F3240 X12.831 Y100.305 E6292.15936
G0 X12.708 Y100.428
G0 F6000 X12.831 Y86.163
G1 F3240 X86.165 Y12.829 E6310.3086
