;FLAVOR:UltiGCode
;TIME:22720
;MATERIAL:100378
;MATERIAL2:0
;NOZZLE_DIAMETER:0.8
;Generated with Cura_SteamEngine 2.3.0-BETA

;LAYER_COUNT:54
;LAYER:0
M106 S255.000000
G10
G1 Z21.000
G0 F3600.000 X10.790 Y10.726 Z1.430
G0 X11.500 Y10.450 Z1.430
;TYPE:SKIRT
G1 Z0.430
G11
G1 F1200.000 X211.499 Y10.450 E60.19970
G1 X211.785 Y10.490 E60.28662
G1 X212.050 Y10.606 E60.37370
G1 X212.273 Y10.790 E60.46072
G1 X212.437 Y11.028 E60.54772
G1 X212.530 Y11.302 E60.63481
G1 X212.549 Y11.500 E60.69468
G1 X212.549 Y211.499 E120.89438
G1 X212.509 Y211.785 E120.98131
G1 X212.393 Y212.050 E121.06838
G1 X212.209 Y212.273 E121.15540
G1 X211.971 Y212.437 E121.24240
G1 X211.697 Y212.530 E121.32949
G1 X211.499 Y212.549 E121.38937
G1 X11.500 Y212.549 E181.58907
G1 X11.214 Y212.509 E181.67599
G1 X10.949 Y212.393 E181.76306
G1 X10.726 Y212.209 E181.85008
G1 X10.562 Y211.971 E181.93708
G1 X10.469 Y211.697 E182.02418
G1 X10.450 Y211.499 E182.08405
G1 X10.450 Y11.500 E242.28375
G1 X10.490 Y11.214 E242.37067
G1 X10.606 Y10.949 E242.45775
G1 X10.790 Y10.726 E242.54477
G1 X11.028 Y10.562 E242.63177
G1 X11.302 Y10.469 E242.71886
G1 X11.500 Y10.450 E242.77873
G0 F3600.00000 X11.500 Y11.150
G1 F1200.000 X211.499 Y11.150 E302.97843
G1 X211.660 Y11.189 E303.02829
G1 X211.785 Y11.299 E303.07841
G1 X211.849 Y11.500 E303.14191
G1 X211.849 Y211.499 E363.34161
G1 X211.810 Y211.660 E363.39147
G1 X211.700 Y211.785 E363.44159
G1 X211.499 Y211.849 E363.50508
G1 X11.500 Y211.849 E423.70478
G1 X11.339 Y211.810 E423.75464
G1 X11.214 Y211.700 E423.80476
G1 X11.150 Y211.499 E423.86826
G1 X11.150 Y11.500 E484.06796
G1 X11.189 Y11.339 E484.11782
G1 X11.299 Y11.214 E484.16794
G1 X11.500 Y11.150 E484.23143
G10
G0 F3600.00000 X12.578 Y12.578
G0 X12.829 Y12.829
;TYPE:FILL
G11
G1 F1200.000 X210.168 Y210.168 E568.23436
G0 X210.291 Y210.291
G0 F3600.000 X196.026 Y210.168
G1 F1200.000 X12.829 Y26.971 E646.21734
G0 X12.706 Y26.848
G0 F3600.000 X12.829 Y41.114
G1 F1200.000 X181.884 Y210.168 E718.18017
G0 X182.007 Y210.291
G0 F3600.000 X167.741 Y210.168
G1 F1200.000 X12.829 Y55.256 E784.12284
G0 X12.706 Y55.133
G0 F3600.000 X12.829 Y69.398
G1 F1200.000 X153.599 Y210.168 E844.04558
G0 X153.722 Y210.291
G0 F3600.000 X139.457 Y210.168
G1 F1200.000 X12.829 Y83.540 E897.94837
G0 X12.706 Y83.417
G0 F3600.000 X12.829 Y97.682
G1 F1200.000 X125.315 Y210.168 E945.83121
G0 X125.438 Y210.291
G0 F3600.000 X111.173 Y210.168
G1 F1200.000 X12.829 Y111.824 E987.69412
G0 X12.706 Y111.701
G0 F3600.000 X12.829 Y125.966
G1 F1200.000 X97.031 Y210.168 E1023.53708
G0 X97.154 Y210.291
G0 F3600.000 X82.889 Y210.168
G1 F1200.000 X12.829 Y140.108 E1053.36010
G0 X12.706 Y139.985
G0 F3600.000 X12.829 Y154.251
G1 F1200.000 X68.747 Y210.168 E1077.16297
G0 X68.870 Y210.291
G0 F3600.000 X54.604 Y210.168
G1 F1200.000 X12.829 Y168.393 E1094.94568
G0 X12.706 Y168.270
G0 F3600.000 X12.829 Y182.535
G1 F1200.000 X40.462 Y210.168 E1106.70845
G0 X40.585 Y210.291
G0 F3600.000 X26.320 Y210.168
G1 F1200.000 X12.829 Y196.677 E1112.45127
G0 X12.706 Y196.554
G0 F3600.000 X26.972 Y12.830
G1 F1200.000 X210.168 Y196.026 E1190.43383
G0 X210.291 Y196.149
G0 F3600.000 X210.168 Y181.884
G1 F1200.000 X41.114 Y12.830 E1262.39645
G0 X40.991 Y12.707
G0 F3600.000 X55.256 Y12.830
G1 F1200.000 X210.168 Y167.741 E1328.33891
G0 X210.291 Y167.864
G0 F3600.000 X210.168 Y153.599
G1 F1200.000 X69.398 Y12.830 E1388.26143
G0 X69.275 Y12.707
G0 F3600.000 X83.541 Y12.830
G1 F1200.000 X210.168 Y139.457 E1442.16379
G0 X210.291 Y139.580
G0 F3600.000 X210.168 Y125.315
G1 F1200.000 X97.683 Y12.830 E1490.04621
G0 X97.560 Y12.707
G0 F3600.000 X111.825 Y12.830
G1 F1200.000 X210.168 Y111.173 E1531.90869
G0 X210.291 Y111.296
G0 F3600.000 X210.168 Y97.031
G1 F1200.000 X125.967 Y12.830 E1567.75123
G0 X125.844 Y12.707
G0 F3600.000 X140.109 Y12.830
G1 F1200.000 X210.168 Y82.889 E1597.57382
G0 X210.291 Y83.012
G0 F3600.000 X210.168 Y68.747
G1 F1200.000 X154.251 Y12.830 E1621.37648
G0 X154.128 Y12.707
G0 F3600.000 X168.393 Y12.830
G1 F1200.000 X210.168 Y54.604 E1639.15897
G0 X210.291 Y54.727
G0 F3600.000 X210.168 Y40.462
G1 F1200.000 X182.536 Y12.830 E1650.92131
G0 X182.413 Y12.707
G0 F3600.000 X196.678 Y12.830
G1 F1200.000 X210.168 Y26.320 E1656.66371
G0 X210.291 Y26.443
G0 F3600.000 X210.379 Y12.620
G0 X210.449 Y12.550
;TYPE:WALL-INNER
G1 F1200.000 X210.449 Y210.449 E1716.23131
G1 X12.550 Y210.449 E1775.79891
G1 X12.550 Y12.550 E1835.36651
G1 X210.449 Y12.550 E1894.93411
G0 F3600.00000 X211.099 Y11.900
;TYPE:WALL-OUTER
G1 F1200.000 X211.099 Y211.099 E1954.89301
G1 X11.900 Y211.099 E2014.85191
G1 X11.900 Y11.900 E2074.81081
G1 X211.099 Y11.900 E2134.76971
G0 F3600.00000 X209.749 Y13.044
;TIME_ELAPSED:367.074
;LAYER:1
G0 F5400.000 X209.749 Y13.044 Z0.680
G0 X210.168 Y16.105
;TYPE:FILL
G1 F2100.000 X16.105 Y210.168 E2182.79785
G0 X15.982 Y210.291
G0 F5400.000 X12.830 Y199.301
G1 F2100.000 X199.302 Y12.829 E2228.94731
G0 X199.425 Y12.706
G0 F5400.000 X185.160 Y12.829
G1 F2100.000 X12.830 Y185.159 E2271.59681
G0 X12.707 Y185.282
G0 F5400.000 X12.830 Y171.017
G1 F2100.000 X171.018 Y12.829 E2310.74635
G0 X171.141 Y12.706
G0 F5400.000 X156.875 Y12.829
G1 F2100.000 X12.830 Y156.875 E2346.39579
G0 X12.707 Y156.998
G0 F5400.000 X12.830 Y142.733
G1 F2100.000 X142.733 Y12.829 E2378.54526
G0 X142.856 Y12.706
G0 F5400.000 X128.591 Y12.829
G1 F2100.000 X12.830 Y128.590 E2407.19465
G0 X12.707 Y128.713
G0 F5400.000 X12.830 Y114.448
G1 F2100.000 X114.449 Y12.829 E2432.34407
G0 X114.572 Y12.706
G0 F5400.000 X100.307 Y12.829
G1 F2100.000 X12.830 Y100.306 E2453.99352
G0 X12.707 Y100.429
G0 F5400.000 X12.830 Y86.164
G1 F2100.000 X86.165 Y12.829 E2472.14301
G0 X86.288 Y12.706
G0 F5400.000 X72.023 Y12.829
G1 F2100.000 X12.830 Y72.022 E2486.79253
G0 X12.707 Y72.145
G0 F5400.000 X12.830 Y57.880
G1 F2100.000 X57.880 Y12.829 E2497.94196
G0 X58.003 Y12.706
G0 F5400.000 X43.738 Y12.829
G1 F2100.000 X12.830 Y43.738 E2505.59142
G0 X12.707 Y43.861
G0 F5400.000 X12.830 Y29.595
G1 F2100.000 X29.596 Y12.829 E2509.74080
G0 X29.719 Y12.706
G0 F5400.000 X15.454 Y12.829
G1 F2100.000 X12.830 Y15.453 E2510.39020
G0 X12.707 Y15.576
G0 F5400.000 X30.247 Y210.168
G1 F2100.000 X210.168 Y30.247 E2554.91838
G0 X210.291 Y30.124
G0 F5400.000 X210.168 Y44.390
G1 F2100.000 X44.390 Y210.168 E2595.94634
G0 X44.267 Y210.291
G0 F5400.000 X58.532 Y210.168
G1 F2100.000 X210.168 Y58.532 E2633.47434
G0 X210.291 Y58.409
G0 F5400.000 X210.168 Y72.674
G1 F2100.000 X72.674 Y210.168 E2667.50236
G0 X72.551 Y210.291
G0 F5400.000 X86.816 Y210.168
G1 F2100.000 X210.168 Y86.816 E2698.03043
G0 X210.291 Y86.693
G0 F5400.000 X210.168 Y100.958
G1 F2100.000 X100.958 Y210.168 E2725.05852
G0 X100.835 Y210.291
G0 F5400.000 X115.100 Y210.168
G1 F2100.000 X210.168 Y115.100 E2748.58665
G0 X210.291 Y114.977
G0 F5400.000 X210.168 Y129.242
G1 F2100.000 X129.242 Y210.168 E2768.61482
G0 X129.119 Y210.291
G0 F5400.000 X143.384 Y210.168
G1 F2100.000 X210.168 Y143.384 E2785.14301
G0 X210.291 Y143.261
G0 F5400.000 X210.168 Y157.527
G1 F2100.000 X157.527 Y210.168 E2798.17100
G0 X157.404 Y210.291
G0 F5400.000 X171.669 Y210.168
G1 F2100.000 X210.168 Y171.669 E2807.69901
G0 X210.291 Y171.546
G0 F5400.000 X210.168 Y185.811
G1 F2100.000 X185.811 Y210.168 E2813.72706
G0 X185.688 Y210.291
G0 F5400.000 X199.953 Y210.168
G1 F2100.000 X210.168 Y199.953 E2816.25515
G0 X210.291 Y199.830
G0 F5400.000 X210.379 Y210.379
G0 X210.449 Y210.449
;TYPE:WALL-INNER
G1 F2100.000 X12.550 Y210.449 E2850.88747
G1 X12.550 Y12.550 E2885.51980
G1 X210.449 Y12.550 E2920.15212
G1 X210.449 Y210.449 E2954.78445
G0 F5400.00000 X211.099 Y211.099
;TYPE:WALL-OUTER
G1 F1800.000 X11.900 Y211.099 E2989.64427
G1 X11.900 Y11.900 E3024.50410
G1 X211.099 Y11.900 E3059.36392
G1 X211.099 Y211.099 E3094.22375
G0 F5400.00000 X209.749 Y209.955
;TIME_ELAPSED:535.038
;LAYER:2
G0 F7200.000 X210.168 Y210.168 Z0.930
;TYPE:FILL
G1 F3000.000 X12.829 Y12.829 E3143.06266
G0 X12.706 Y12.706
G0 F7200.000 X12.829 Y26.971
G1 F3000.000 X196.026 Y210.168 E3188.40160
G0 X196.149 Y210.291
G0 F7200.000 X181.884 Y210.168
G1 F3000.000 X12.829 Y41.114 E3230.24045
G0 X12.706 Y40.991
G0 F7200.000 X12.829 Y55.256
G1 F3000.000 X167.741 Y210.168 E3268.57922
G0 X167.864 Y210.291
G0 F7200.000 X153.599 Y210.168
G1 F3000.000 X12.829 Y69.398 E3303.41802
G0 X12.706 Y69.275
G0 F7200.000 X12.829 Y83.540
G1 F3000.000 X139.457 Y210.168 E3334.75685
G0 X139.580 Y210.291
G0 F7200.000 X125.315 Y210.168
G1 F3000.000 X12.829 Y97.682 E3362.59571
G0 X12.706 Y97.559
G0 F7200.000 X12.829 Y111.824
G1 F3000.000 X111.173 Y210.168 E3386.93461
G0 X111.296 Y210.291
G0 F7200.000 X97.031 Y210.168
G1 F3000.000 X12.829 Y125.966 E3407.77354
G0 X12.706 Y125.843
G0 F7200.000 X12.829 Y140.108
G1 F3000.000 X82.889 Y210.168 E3425.11251
G0 X83.012 Y210.291
G0 F7200.000 X68.747 Y210.168
G1 F3000.000 X12.829 Y154.251 E3438.95138
G0 X12.706 Y154.128
G0 F7200.000 X12.829 Y168.393
G1 F3000.000 X54.604 Y210.168 E3449.29017
G0 X54.727 Y210.291
G0 F7200.000 X40.462 Y210.168
G1 F3000.000 X12.829 Y182.535 E3456.12899
G0 X12.706 Y182.412
G0 F7200.000 X12.829 Y196.677
G1 F3000.000 X26.320 Y210.168 E3459.46784
G0 X26.443 Y210.291
G0 F7200.000 X210.168 Y196.026
G1 F3000.000 X26.972 Y12.830 E3504.80654
G0 X26.849 Y12.707
G0 F7200.000 X41.114 Y12.830
G1 F3000.000 X210.168 Y181.884 E3546.64527
G0 X210.291 Y182.007
G0 F7200.000 X210.168 Y167.741
G1 F3000.000 X55.256 Y12.830 E3584.98391
G0 X55.133 Y12.707
G0 F7200.000 X69.398 Y12.830
G1 F3000.000 X210.168 Y153.599 E3619.82258
G0 X210.291 Y153.722
G0 F7200.000 X210.168 Y139.457
G1 F3000.000 X83.541 Y12.830 E3651.16116
G0 X83.418 Y12.707
G0 F7200.000 X97.683 Y12.830
G1 F3000.000 X210.168 Y125.315 E3678.99978
G0 X210.291 Y125.438
G0 F7200.000 X210.168 Y111.173
G1 F3000.000 X111.825 Y12.830 E3703.33843
G0 X111.702 Y12.707
G0 F7200.000 X125.967 Y12.830
G1 F3000.000 X210.168 Y97.031 E3724.17712
G0 X210.291 Y97.154
G0 F7200.000 X210.168 Y82.889
G1 F3000.000 X140.109 Y12.830 E3741.51583
G0 X139.986 Y12.707
G0 F7200.000 X154.251 Y12.830
G1 F3000.000 X210.168 Y68.747 E3755.35459
G0 X210.291 Y68.870
G0 F7200.000 X210.168 Y54.604
G1 F3000.000 X168.393 Y12.830 E3765.69325
G0 X168.270 Y12.707
G0 F7200.000 X182.536 Y12.830
G1 F3000.000 X210.168 Y40.462 E3772.53182
G0 X210.291 Y40.585
G0 F7200.000 X210.168 Y26.320
G1 F3000.000 X196.678 Y12.830 E3775.87042
G0 X196.555 Y12.707
G0 F7200.000 X210.379 Y12.620
G0 X210.449 Y12.550
;TYPE:WALL-INNER
G1 F3000.000 X210.449 Y210.449 E3810.50275
G1 X12.550 Y210.449 E3845.13507
G1 X12.550 Y12.550 E3879.76740
G1 X210.449 Y12.550 E3914.39972
G0 F7200.00000 X211.099 Y11.900
;TYPE:WALL-OUTER
G1 F2400.000 X211.099 Y211.099 E3949.25955
G1 X11.900 Y211.099 E3984.11937
G1 X11.900 Y11.900 E4018.97920
G1 X211.099 Y11.900 E4053.83902
G0 F7200.00000 X209.749 Y13.044
;TIME_ELAPSED:654.786
;LAYER:3
G0 X209.749 Y13.044 Z1.180
G0 X210.168 Y16.105
;TYPE:FILL
G1 F3000.000 X16.105 Y210.168 E4101.86716
G0 X15.982 Y210.291
G0 F7200.000 X12.830 Y199.301
G1 F3000.000 X199.302 Y12.829 E4148.01663
G0 X199.425 Y12.706
G0 F7200.000 X185.160 Y12.829
G1 F3000.000 X12.830 Y185.159 E4190.66613
G0 X12.707 Y185.282
G0 F7200.000 X12.830 Y171.017
G1 F3000.000 X171.018 Y12.829 E4229.81566
G0 X171.141 Y12.706
G0 F7200.000 X156.875 Y12.829
G1 F3000.000 X12.830 Y156.875 E4265.46510
G0 X12.707 Y156.998
G0 F7200.000 X12.830 Y142.733
G1 F3000.000 X142.733 Y12.829 E4297.61458
G0 X142.856 Y12.706
G0 F7200.000 X128.591 Y12.829
G1 F3000.000 X12.830 Y128.590 E4326.26397
G0 X12.707 Y128.713
G0 F7200.000 X12.830 Y114.448
G1 F3000.000 X114.449 Y12.829 E4351.41339
G0 X114.572 Y12.706
G0 F7200.000 X100.307 Y12.829
G1 F3000.000 X12.830 Y100.306 E4373.06284
G0 X12.707 Y100.429
G0 F7200.000 X12.830 Y86.164
G1 F3000.000 X86.165 Y12.829 E4391.21232
G0 X86.288 Y12.706
G0 F7200.000 X72.023 Y12.829
G1 F3000.000 X12.830 Y72.022 E4405.86184
G0 X12.707 Y72.145
G0 F7200.000 X12.830 Y57.880
G1 F3000.000 X57.880 Y12.829 E4417.01127
G0 X58.003 Y12.706
G0 F7200.000 X43.738 Y12.829
G1 F3000.000 X12.830 Y43.738 E4424.66074
G0 X12.707 Y43.861
G0 F7200.000 X12.830 Y29.595
G1 F3000.000 X29.596 Y12.829 E4428.81011
G0 X29.719 Y12.706
G0 F7200.000 X15.454 Y12.829
G1 F3000.000 X12.830 Y15.453 E4429.45952
G0 X12.707 Y15.576
G0 F7200.000 X30.247 Y210.168
G1 F3000.000 X210.168 Y30.247 E4473.98769
G0 X210.291 Y30.124
G0 F7200.000 X210.168 Y44.390
G1 F3000.000 X44.390 Y210.168 E4515.01566
G0 X44.267 Y210.291
G0 F7200.000 X58.532 Y210.168
G1 F3000.000 X210.168 Y58.532 E4552.54365
G0 X210.291 Y58.409
G0 F7200.000 X210.168 Y72.674
G1 F3000.000 X72.674 Y210.168 E4586.57168
G0 X72.551 Y210.291
G0 F7200.000 X86.816 Y210.168
G1 F3000.000 X210.168 Y86.816 E4617.09974
G0 X210.291 Y86.693
G0 F7200.000 X210.168 Y100.958
G1 F3000.000 X100.958 Y210.168 E4644.12784
G0 X100.835 Y210.291
G0 F7200.000 X115.100 Y210.168
G1 F3000.000 X210.168 Y115.100 E4667.65597
G0 X210.291 Y114.977
G0 F7200.000 X210.168 Y129.242
G1 F3000.000 X129.242 Y210.168 E4687.68413
G0 X129.119 Y210.291
G0 F7200.000 X143.384 Y210.168
G1 F3000.000 X210.168 Y143.384 E4704.21233
G0 X210.291 Y143.261
G0 F7200.000 X210.168 Y157.527
G1 F3000.000 X157.527 Y210.168 E4717.24031
G0 X157.404 Y210.291
G0 F7200.000 X171.669 Y210.168
G1 F3000.000 X210.168 Y171.669 E4726.76833
G0 X210.291 Y171.546
G0 F7200.000 X210.168 Y185.811
G1 F3000.000 X185.811 Y210.168 E4732.79638
G0 X185.688 Y210.291
G0 F7200.000 X199.953 Y210.168
G1 F3000.000 X210.168 Y199.953 E4735.32446
G0 X210.291 Y199.830
G0 F7200.000 X210.379 Y210.379
G0 X210.449 Y210.449
;TYPE:WALL-INNER
G1 F3000.000 X12.550 Y210.449 E4769.95679
G1 X12.550 Y12.550 E4804.58911
G1 X210.449 Y12.550 E4839.22144
G1 X210.449 Y210.449 E4873.85376
G0 F7200.00000 X211.099 Y211.099
;TYPE:WALL-OUTER
G1 F2400.000 X11.900 Y211.099 E4908.71359
G1 X11.900 Y11.900 E4943.57341
G1 X211.099 Y11.900 E4978.43324
G1 X211.099 Y211.099 E5013.29306
G0 F7200.00000 X209.749 Y209.955
;TIME_ELAPSED:774.728
;LAYER:4
G0 X210.168 Y210.168 Z1.430
;TYPE:FILL
G1 F3000.000 X12.829 Y12.829 E5062.13197
G0 X12.706 Y12.706
G0 F7200.000 X12.829 Y26.971
G1 F3000.000 X196.026 Y210.168 E5107.47092
G0 X196.149 Y210.291
G0 F7200.000 X181.884 Y210.168
G1 F3000.000 X12.829 Y41.114 E5149.30977
G0 X12.706 Y40.991
G0 F7200.000 X12.829 Y55.256
G1 F3000.000 X167.741 Y210.168 E5187.64853
G0 X167.864 Y210.291
G0 F7200.000 X153.599 Y210.168
G1 F3000.000 X12.829 Y69.398 E5222.48733
G0 X12.706 Y69.275
G0 F7200.000 X12.829 Y83.540
G1 F3000.000 X139.457 Y210.168 E5253.82616
G0 X139.580 Y210.291
G0 F7200.000 X125.315 Y210.168
G1 F3000.000 X12.829 Y97.682 E5281.66503
G0 X12.706 Y97.559
G0 F7200.000 X12.829 Y111.824
G1 F3000.000 X111.173 Y210.168 E5306.00393
G0 X111.296 Y210.291
G0 F7200.000 X97.031 Y210.168
G1 F3000.000 X12.829 Y125.966 E5326.84286
G0 X12.706 Y125.843
G0 F7200.000 X12.829 Y140.108
G1 F3000.000 X82.889 Y210.168 E5344.18182
G0 X83.012 Y210.291
G0 F7200.000 X68.747 Y210.168
G1 F3000.000 X12.829 Y154.251 E5358.02070
G0 X12.706 Y154.128
G0 F7200.000 X12.829 Y168.393
G1 F3000.000 X54.604 Y210.168 E5368.35948
G0 X54.727 Y210.291
G0 F7200.000 X40.462 Y210.168
G1 F3000.000 X12.829 Y182.535 E5375.19830
G0 X12.706 Y182.412
G0 F7200.000 X12.829 Y196.677
G1 F3000.000 X26.320 Y210.168 E5378.53715
G0 X26.443 Y210.291
G0 F7200.000 X210.168 Y196.026
G1 F3000.000 X26.972 Y12.830 E5423.87585
G0 X26.849 Y12.707
G0 F7200.000 X41.114 Y12.830
G1 F3000.000 X210.168 Y181.884 E5465.71458
G0 X210.291 Y182.007
G0 F7200.000 X210.168 Y167.741
G1 F3000.000 X55.256 Y12.830 E5504.05322
G0 X55.133 Y12.707
G0 F7200.000 X69.398 Y12.830
G1 F3000.000 X210.168 Y153.599 E5538.89190
G0 X210.291 Y153.722
G0 F7200.000 X210.168 Y139.457
G1 F3000.000 X83.541 Y12.830 E5570.23048
G0 X83.418 Y12.707
G0 F7200.000 X97.683 Y12.830
G1 F3000.000 X210.168 Y125.315 E5598.06910
G0 X210.291 Y125.438
G0 F7200.000 X210.168 Y111.173
G1 F3000.000 X111.825 Y12.830 E5622.40775
G0 X111.702 Y12.707
G0 F7200.000 X125.967 Y12.830
G1 F3000.000 X210.168 Y97.031 E5643.24643
G0 X210.291 Y97.154
G0 F7200.000 X210.168 Y82.889
G1 F3000.000 X140.109 Y12.830 E5660.58515
G0 X139.986 Y12.707
G0 F7200.000 X154.251 Y12.830
G1 F3000.000 X210.168 Y68.747 E5674.42390
G0 X210.291 Y68.870
