;FLAVOR:UltiGCode
;TIME:24990
;MATERIAL:106616
;MATERIAL2:0
;NOZZLE_DIAMETER:0.8
;Generated with Cura_SteamEngine 2.4.0-BETA

;LAYER_COUNT:124
;LAYER:0
M107
G10
G1 Z22
G0 F3750 X10.791 Y10.727 Z2.43
G0 X11.501 Y10.451 Z2.43
;TYPE:SKIRT
G1 Z0.43
G11
G1 F1200 X211.499 Y10.451 E60.1994
G1 X211.785 Y10.491 E60.28632
G1 X212.05 Y10.607 E60.37339
G1 X212.273 Y10.791 E60.46042
G1 X212.437 Y11.029 E60.54742
G1 X212.53 Y11.303 E60.63451
G1 X212.549 Y11.501 E60.69438
G1 X212.549 Y211.5 E120.89408
G1 X212.509 Y211.786 E120.98101
G1 X212.393 Y212.051 E121.06808
G1 X212.209 Y212.274 E121.1551
G1 X211.971 Y212.438 E121.2421
G1 X211.697 Y212.531 E121.32919
G1 X211.499 Y212.55 E121.38907
G1 X11.501 Y212.55 E181.58846
G1 X11.215 Y212.51 E181.67539
G1 X10.95 Y212.394 E181.76246
G1 X10.727 Y212.21 E181.84948
G1 X10.563 Y211.972 E181.93648
G1 X10.47 Y211.698 E182.02358
G1 X10.451 Y211.5 E182.08345
G1 X10.451 Y11.501 E242.28315
G1 X10.491 Y11.215 E242.37007
G1 X10.607 Y10.95 E242.45714
G1 X10.791 Y10.727 E242.54417
G1 X11.029 Y10.563 E242.63116
G1 X11.303 Y10.47 E242.71826
G1 X11.501 Y10.451 E242.77813
G0 F3750 X11.501 Y11.151
G1 F1200 X211.499 Y11.151 E302.97753
G1 X211.66 Y11.19 E303.02739
G1 X211.785 Y11.3 E303.07751
G1 X211.849 Y11.501 E303.141
G1 X211.849 Y211.5 E363.3407
G1 X211.81 Y211.661 E363.39057
G1 X211.7 Y211.786 E363.44069
G1 X211.499 Y211.85 E363.50418
G1 X11.501 Y211.85 E423.70358
G1 X11.34 Y211.811 E423.75344
G1 X11.215 Y211.701 E423.80356
G1 X11.151 Y211.5 E423.86705
G1 X11.151 Y11.501 E484.06675
G1 X11.19 Y11.34 E484.11661
G1 X11.3 Y11.215 E484.16673
G1 X11.501 Y11.151 E484.23023
G10
G0 F3750 X12.565 Y12.565
G0 X12.83 Y12.83
;TYPE:FILL
G11
G1 F1500 X210.169 Y210.169 E568.23315
G0 X210.292 Y210.292
G0 F3750 X196.026 Y210.169
G1 F1500 X12.83 Y26.972 E646.21592
G0 X12.707 Y26.849
G0 F3750 X12.83 Y41.114
G1 F1500 X181.884 Y210.169 E718.17875
G0 X182.007 Y210.292
G0 F3750 X167.742 Y210.169
G1 F1500 X12.83 Y55.256 E784.12164
G0 X12.707 Y55.133
G0 F3750 X12.83 Y69.398
G1 F1500 X153.6 Y210.169 E844.04459
G0 X153.723 Y210.292
G0 F3750 X139.458 Y210.169
G1 F1500 X12.83 Y83.541 E897.94738
G0 X12.707 Y83.418
G0 F3750 X12.83 Y97.683
G1 F1500 X125.316 Y210.169 E945.83022
G0 X125.439 Y210.292
G0 F3750 X111.174 Y210.169
G1 F1500 X12.83 Y111.825 E987.69313
G0 X12.707 Y111.702
G0 F3750 X12.83 Y125.967
G1 F1500 X97.032 Y210.169 E1023.53609
G0 X97.155 Y210.292
G0 F3750 X82.889 Y210.169
G1 F1500 X12.83 Y140.109 E1053.3589
G0 X12.707 Y139.986
G0 F3750 X12.83 Y154.251
G1 F1500 X68.747 Y210.169 E1077.16176
G0 X68.87 Y210.292
G0 F3750 X54.605 Y210.169
G1 F1500 X12.83 Y168.393 E1094.94469
G0 X12.707 Y168.27
G0 F3750 X12.83 Y182.536
G1 F1500 X40.463 Y210.169 E1106.70745
G0 X40.586 Y210.292
G0 F3750 X26.321 Y210.169
G1 F1500 X12.83 Y196.678 E1112.45028
G0 X12.707 Y196.555
G0 F3750 X26.972 Y12.83
G1 F1500 X210.169 Y196.026 E1190.43305
G0 X210.292 Y196.149
G0 F3750 X210.169 Y181.884
G1 F1500 X41.114 Y12.83 E1262.39588
G0 X40.991 Y12.707
G0 F3750 X55.256 Y12.83
G1 F1500 X210.169 Y167.742 E1328.33877
G0 X210.292 Y167.865
G0 F3750 X210.169 Y153.6
G1 F1500 X69.398 Y12.83 E1388.26171
G0 X69.275 Y12.707
G0 F3750 X83.541 Y12.83
G1 F1500 X210.169 Y139.458 E1442.1645
G0 X210.292 Y139.581
G0 F3750 X210.169 Y125.316
G1 F1500 X97.683 Y12.83 E1490.04735
G0 X97.56 Y12.707
G0 F3750 X111.825 Y12.83
G1 F1500 X210.169 Y111.174 E1531.91025
G0 X210.292 Y111.297
G0 F3750 X210.169 Y97.032
G1 F1500 X125.967 Y12.83 E1567.75322
G0 X125.844 Y12.707
G0 F3750 X140.109 Y12.83
G1 F1500 X210.169 Y82.889 E1597.57602
G0 X210.292 Y83.012
G0 F3750 X210.169 Y68.747
G1 F1500 X154.251 Y12.83 E1621.37889
G0 X154.128 Y12.707
G0 F3750 X168.393 Y12.83
G1 F1500 X210.169 Y54.605 E1639.16181
G0 X210.292 Y54.728
G0 F3750 X210.169 Y40.463
G1 F1500 X182.536 Y12.83 E1650.92458
G0 X182.413 Y12.707
G0 F3750 X196.678 Y12.83
G1 F1500 X210.169 Y26.321 E1656.66741
G0 X210.292 Y26.444
G0 F3750 X210.379 Y12.621
G0 X210.449 Y12.551
;TYPE:WALL-INNER
G1 F1500 X210.449 Y210.45 E1716.23501
G1 X12.551 Y210.45 E1775.8023
G1 X12.551 Y12.551 E1835.3699
G1 X210.449 Y12.551 E1894.9372
G0 F3750 X211.099 Y11.901
;TYPE:WALL-OUTER
G1 F1500 X211.099 Y211.1 E1954.8961
G1 X11.901 Y211.1 E2014.8547
G1 X11.901 Y11.901 E2074.8136
G1 X211.099 Y11.901 E2134.77219
G0 F3750 X211.099 Y12.301
G0 X209.749 Y13.045
;TIME_ELAPSED:311.867014
;LAYER:1
M106 S255
G0 F4875 X209.749 Y13.045 Z0.68
G0 X210.168 Y16.105
;TYPE:FILL
G1 F2370 X16.105 Y210.169 E2182.80046
G0 X15.982 Y210.292
G0 F4875 X12.831 Y199.3
G1 F2370 X199.301 Y12.83 E2228.94943
G0 X199.424 Y12.707
G0 F4875 X185.159 Y12.83
G1 F2370 X12.831 Y185.158 E2271.59843
G0 X12.708 Y185.281
G0 F4875 X12.831 Y171.016
G1 F2370 X171.017 Y12.83 E2310.74747
G0 X171.14 Y12.707
G0 F4875 X156.875 Y12.83
G1 F2370 X12.831 Y156.874 E2346.39654
G0 X12.708 Y156.997
G0 F4875 X12.831 Y142.732
G1 F2370 X142.733 Y12.83 E2378.54565
G0 X142.856 Y12.707
G0 F4875 X128.59 Y12.83
G1 F2370 X12.831 Y128.59 E2407.19466
G0 X12.708 Y128.713
G0 F4875 X12.831 Y114.448
G1 F2370 X114.448 Y12.83 E2432.34371
G0 X114.571 Y12.707
G0 F4875 X100.306 Y12.83
G1 F2370 X12.831 Y100.305 E2453.99267
G0 X12.708 Y100.428
G0 F4875 X12.831 Y86.163
G1 F2370 X86.164 Y12.83 E2472.14166
G0 X86.287 Y12.707
G0 F4875 X72.022 Y12.83
G1 F2370 X12.831 Y72.021 E2486.79069
G0 X12.708 Y72.144
G0 F4875 X12.831 Y57.879
G1 F2370 X57.88 Y12.83 E2497.93974
G0 X58.003 Y12.707
G0 F4875 X43.738 Y12.83
G1 F2370 X12.831 Y43.737 E2505.58884
G0 X12.708 Y43.86
G0 F4875 X12.831 Y29.595
G1 F2370 X29.595 Y12.83 E2509.73784
G0 X29.718 Y12.707
G0 F4875 X15.453 Y12.83
G1 F2370 X12.831 Y15.453 E2510.38687
G0 X12.708 Y15.576
G0 F4875 X30.247 Y210.169
G1 F2370 X210.168 Y30.247 E2554.91517
G0 X210.291 Y30.124
G0 F4875 X210.168 Y44.39
G1 F2370 X44.389 Y210.169 E2595.94338
G0 X44.266 Y210.292
G0 F4875 X58.531 Y210.169
G1 F2370 X210.168 Y58.532 E2633.47163
G0 X210.291 Y58.409
G0 F4875 X210.168 Y72.674
G1 F2370 X72.673 Y210.169 E2667.4999
G0 X72.55 Y210.292
G0 F4875 X86.815 Y210.169
G1 F2370 X210.168 Y86.816 E2698.02821
G0 X210.291 Y86.693
G0 F4875 X210.168 Y100.958
G1 F2370 X100.957 Y210.169 E2725.05656
G0 X100.834 Y210.292
G0 F4875 X115.1 Y210.169
G1 F2370 X210.168 Y115.1 E2748.58481
G0 X210.291 Y114.977
G0 F4875 X210.168 Y129.242
G1 F2370 X129.242 Y210.169 E2768.6131
G0 X129.119 Y210.292
G0 F4875 X143.384 Y210.169
G1 F2370 X210.168 Y143.384 E2785.14142
G0 X210.291 Y143.261
G0 F4875 X210.168 Y157.527
G1 F2370 X157.526 Y210.169 E2798.16965
G0 X157.403 Y210.292
G0 F4875 X171.668 Y210.169
G1 F2370 X210.168 Y171.669 E2807.69791
G0 X210.291 Y171.546
G0 F4875 X210.168 Y185.811
G1 F2370 X185.81 Y210.169 E2813.72621
G0 X185.687 Y210.292
G0 F4875 X199.952 Y210.169
G1 F2370 X210.168 Y199.953 E2816.25454
G0 X210.291 Y199.83
G0 F4875 X210.379 Y210.38
G0 X210.449 Y210.45
;TYPE:WALL-INNER
G1 F2070 X12.551 Y210.45 E2850.88669
G1 X12.551 Y12.551 E2885.51901
G1 X210.449 Y12.551 E2920.15116
G1 X210.449 Y210.45 E2954.78349
G0 F4875 X211.099 Y211.1
;TYPE:WALL-OUTER
G1 F1650 X11.901 Y211.1 E2989.64314
G1 X11.901 Y11.901 E3024.50296
G1 X211.099 Y11.901 E3059.36261
G1 X211.099 Y211.1 E3094.22244
G0 F4875 X210.699 Y211.1
G0 X209.749 Y209.956
;TIME_ELAPSED:470.498124
;LAYER:2
G0 F6000 X210.169 Y210.169 Z0.93
;TYPE:FILL
G1 F3240 X12.83 Y12.83 E3143.06135
G0 X12.707 Y12.707
G0 F6000 X12.83 Y26.972
G1 F3240 X196.026 Y210.169 E3188.40017
G0 X196.149 Y210.292
G0 F6000 X181.884 Y210.169
G1 F3240 X12.83 Y41.114 E3230.23902
G0 X12.707 Y40.991
G0 F6000 X12.83 Y55.256
G1 F3240 X167.742 Y210.169 E3268.57791
G0 X167.865 Y210.292
G0 F6000 X153.6 Y210.169
G1 F3240 X12.83 Y69.398 E3303.41683
G0 X12.707 Y69.275
G0 F6000 X12.83 Y83.541
G1 F3240 X139.458 Y210.169 E3334.75567
G0 X139.581 Y210.292
G0 F6000 X125.316 Y210.169
G1 F3240 X12.83 Y97.683 E3362.59453
G0 X12.707 Y97.56
G0 F6000 X12.83 Y111.825
G1 F3240 X111.174 Y210.169 E3386.93343
G0 X111.297 Y210.292
G0 F6000 X97.032 Y210.169
G1 F3240 X12.83 Y125.967 E3407.77236
G0 X12.707 Y125.844
G0 F6000 X12.83 Y140.109
G1 F3240 X82.889 Y210.169 E3425.1112
G0 X83.012 Y210.292
G0 F6000 X68.747 Y210.169
G1 F3240 X12.83 Y154.251 E3438.95008
G0 X12.707 Y154.128
G0 F6000 X12.83 Y168.393
G1 F3240 X54.605 Y210.169 E3449.28899
G0 X54.728 Y210.292
G0 F6000 X40.463 Y210.169
G1 F3240 X12.83 Y182.536 E3456.1278
G0 X12.707 Y182.413
G0 F6000 X12.83 Y196.678
G1 F3240 X26.321 Y210.169 E3459.46666
G0 X26.444 Y210.292
G0 F6000 X210.169 Y196.026
G1 F3240 X26.972 Y12.83 E3504.80548
G0 X26.849 Y12.707
G0 F6000 X41.114 Y12.83
G1 F3240 X210.169 Y181.884 E3546.64433
G0 X210.292 Y182.007
G0 F6000 X210.169 Y167.742
G1 F3240 X55.256 Y12.83 E3584.98322
G0 X55.133 Y12.707
G0 F6000 X69.398 Y12.83
G1 F3240 X210.169 Y153.6 E3619.82214
G0 X210.292 Y153.723
G0 F6000 X210.169 Y139.458
G1 F3240 X83.541 Y12.83 E3651.16097
G0 X83.418 Y12.707
G0 F6000 X97.683 Y12.83
G1 F3240 X210.169 Y125.316 E3678.99984
G0 X210.292 Y125.439
G0 F6000 X210.169 Y111.174
G1 F3240 X111.825 Y12.83 E3703.33873
G0 X111.702 Y12.707
G0 F6000 X125.967 Y12.83
G1 F3240 X210.169 Y97.032 E3724.17767
G0 X210.292 Y97.155
G0 F6000 X210.169 Y82.889
G1 F3240 X140.109 Y12.83 E3741.51651
G0 X139.986 Y12.707
G0 F6000 X154.251 Y12.83
G1 F3240 X210.169 Y68.747 E3755.35538
G0 X210.292 Y68.87
G0 F6000 X210.169 Y54.605
G1 F3240 X168.393 Y12.83 E3765.69429
G0 X168.27 Y12.707
G0 F6000 X182.536 Y12.83
G1 F3240 X210.169 Y40.463 E3772.53311
G0 X210.292 Y40.586
G0 F6000 X210.169 Y26.321
G1 F3240 X196.678 Y12.83 E3775.87196
G0 X196.555 Y12.707
G0 F6000 X210.379 Y12.621
G0 X210.449 Y12.551
;TYPE:WALL-INNER
G1 F2640 X210.449 Y210.45 E3810.50429
G1 X12.551 Y210.45 E3845.13644
G1 X12.551 Y12.551 E3879.76876
G1 X210.449 Y12.551 E3914.40091
G0 F6000 X211.099 Y11.901
;TYPE:WALL-OUTER
G1 F1800 X211.099 Y211.1 E3949.26074
G1 X11.901 Y211.1 E3984.12039
G1 X11.901 Y11.901 E4018.98021
G1 X211.099 Y11.901 E4053.83986
G0 F6000 X211.099 Y12.301
G0 X209.749 Y13.045
;TIME_ELAPSED:593.999074
;LAYER:3
G0 X209.749 Y13.045 Z1.18
G0 X210.168 Y16.105
;TYPE:FILL
G1 F3240 X16.105 Y210.169 E4101.86813
G0 X15.982 Y210.292
G0 F6000 X12.831 Y199.3
G1 F3240 X199.301 Y12.83 E4148.0171
G0 X199.424 Y12.707
G0 F6000 X185.159 Y12.83
G1 F3240 X12.831 Y185.158 E4190.6661
G0 X12.708 Y185.281
G0 F6000 X12.831 Y171.016
G1 F3240 X171.017 Y12.83 E4229.81514
G0 X171.14 Y12.707
G0 F6000 X156.875 Y12.83
G1 F3240 X12.831 Y156.874 E4265.46421
G0 X12.708 Y156.997
G0 F6000 X12.831 Y142.732
G1 F3240 X142.733 Y12.83 E4297.61332
G0 X142.856 Y12.707
G0 F6000 X128.59 Y12.83
G1 F3240 X12.831 Y128.59 E4326.26233
G0 X12.708 Y128.713
G0 F6000 X12.831 Y114.448
G1 F3240 X114.448 Y12.83 E4351.41138
G0 X114.571 Y12.707
G0 F6000 X100.306 Y12.83
G1 F3240 X12.831 Y100.305 E4373.06034
G0 X12.708 Y100.428
G0 F6000 X12.831 Y86.163
G1 F3240 X86.164 Y12.83 E4391.20933
G0 X86.287 Y12.707
G0 F6000 X72.022 Y12.83
G1 F3240 X12.831 Y72.021 E4405.85835
G0 X12.708 Y72.144
G0 F6000 X12.831 Y57.879
G1 F3240 X57.88 Y12.83 E4417.00741
G0 X58.003 Y12.707
G0 F6000 X43.738 Y12.83
G1 F3240 X12.831 Y43.737 E4424.6565
G0 X12.708 Y43.86
G0 F6000 X12.831 Y29.595
G1 F3240 X29.595 Y12.83 E4428.80551
G0 X29.718 Y12.707
G0 F6000 X15.453 Y12.83
G1 F3240 X12.831 Y15.453 E4429.45454
G0 X12.708 Y15.576
G0 F6000 X30.247 Y210.169
G1 F3240 X210.168 Y30.247 E4473.98284
G0 X210.291 Y30.124
G0 F6000 X210.168 Y44.39
G1 F3240 X44.389 Y210.169 E4515.01105
G0 X44.266 Y210.292
G0 F6000 X58.531 Y210.169
G1 F3240 X210.168 Y58.532 E4552.53929
G0 X210.291 Y58.409
G0 F6000 X210.168 Y72.674
G1 F3240 X72.673 Y210.169 E4586.56757
G0 X72.55 Y210.292
G0 F6000 X86.815 Y210.169
G1 F3240 X210.168 Y86.816 E4617.09588
G0 X210.291 Y86.693
G0 F6000 X210.168 Y100.958
G1 F3240 X100.957 Y210.169 E4644.12422
G0 X100.834 Y210.292
G0 F6000 X115.1 Y210.169
G1 F3240 X210.168 Y115.1 E4667.65248
G0 X210.291 Y114.977
G0 F6000 X210.168 Y129.242
G1 F3240 X129.242 Y210.169 E4687.68076
G0 X129.119 Y210.292
G0 F6000 X143.384 Y210.169
G1 F3240 X210.168 Y143.384 E4704.20908
G0 X210.291 Y143.261
G0 F6000 X210.168 Y157.527
G1 F3240 X157.526 Y210.169 E4717.23732
G0 X157.403 Y210.292
G0 F6000 X171.668 Y210.169
G1 F3240 X210.168 Y171.669 E4726.76558
G0 X210.291 Y171.546
G0 F6000 X210.168 Y185.811
G1 F3240 X185.81 Y210.169 E4732.79388
G0 X185.687 Y210.292
G0 F6000 X199.952 Y210.169
G1 F3240 X210.168 Y199.953 E4735.32221
G0 X210.291 Y199.83
G0 F6000 X210.379 Y210.38
G0 X210.449 Y210.45
;TYPE:WALL-INNER
G1 F2640 X12.551 Y210.45 E4769.95436
G1 X12.551 Y12.551 E4804.58668
G1 X210.449 Y12.551 E4839.21883
G1 X210.449 Y210.45 E4873.85116
G0 F6000 X211.099 Y211.1
;TYPE:WALL-OUTER
G1 F1800 X11.901 Y211.1 E4908.71081
G1 X11.901 Y11.901 E4943.57063
G1 X211.099 Y11.901 E4978.43028
G1 X211.099 Y211.1 E5013.29011
G0 F6000 X210.699 Y211.1
G0 X209.749 Y209.956
;TIME_ELAPSED:717.717069
;LAYER:4
G0 X210.169 Y210.169 Z1.43
;TYPE:FILL
G1 F3240 X12.83 Y12.83 E5062.12902
G0 X12.707 Y12.707
G0 F6000 X12.83 Y26.972
G1 F3240 X196.026 Y210.169 E5107.46784
G0 X196.149 Y210.292
G0 F6000 X181.884 Y210.169
G1 F3240 X12.83 Y41.114 E5149.30669
G0 X12.707 Y40.991
G0 F6000 X12.83 Y55.256
G1 F3240 X167.742 Y210.169 E5187.64558
G0 X167.865 Y210.292
G0 F6000 X153.6 Y210.169
G1 F3240 X12.83 Y69.398 E5222.4845
G0 X12.707 Y69.275
G0 F6000 X12.83 Y83.541
G1 F3240 X139.458 Y210.169 E5253.82333
G0 X139.581 Y210.292
G0 F6000 X125.316 Y210.169
G1 F3240 X12.83 Y97.683 E5281.6622
G0 X12.707 Y97.56
G0 F6000 X12.83 Y111.825
G1 F3240 X111.174 Y210.169 E5306.0011
G0 X111.297 Y210.292
G0 F6000 X97.032 Y210.169
G1 F3240 X12.83 Y125.967 E5326.84003
G0 X12.707 Y125.844
G0 F6000 X12.83 Y140.109
G1 F3240 X82.889 Y210.169 E5344.17887
G0 X83.012 Y210.292
G0 F6000 X68.747 Y210.169
G1 F3240 X12.83 Y154.251 E5358.01774
G0 X12.707 Y154.128
G0 F6000 X12.83 Y168.393
G1 F3240 X54.605 Y210.169 E5368.35665
G0 X54.728 Y210.292
G0 F6000 X40.463 Y210.169
G1 F3240 X12.83 Y182.536 E5375.19547
G0 X12.707 Y182.413
G0 F6000 X12.83 Y196.678
G1 F3240 X26.321 Y210.169 E5378.53432
G0 X26.444 Y210.292
G0 F6000 X210.169 Y196.026
G1 F3240 X26.972 Y12.83 E5423.87314
G0 X26.849 Y12.707
G0 F6000 X41.114 Y12.83
G1 F3240 X210.169 Y181.884 E5465.712
G0 X210.292 Y182.007
G0 F6000 X210.169 Y167.742
G1 F3240 X55.256 Y12.83 E5504.05089
G0 X55.133 Y12.707
G0 F6000 X69.398 Y12.83
G1 F3240 X210.169 Y153.6 E5538.88981
G0 X210.292 Y153.723
G0 F6000 X210.169 Y139.458
G1 F3240 X83.541 Y12.83 E5570.22864
G0 X83.418 Y12.707
G0 F6000 X97.683 Y12.83
G1 F3240 X210.169 Y125.316 E5598.0675
G0 X210.292 Y125.439
G0 F6000 X210.169 Y111.174
G1 F3240 X111.825 Y12.83 E5622.4064
G0 X111.702 Y12.707
G0 F6000 X125.967 Y12.83
G1 F3240 X210.169 Y97.032 E5643.24533
G0 X210.292 Y97.155
G0 F6000 X210.169 Y82.889
G1 F3240 X140.109 Y12.83 E5660.58418
G0 X139.986 Y12.707
G0 F6000 X154.251 Y12.83
G1 F3240 X210.169 Y68.747 E5674.42305
G0 X210.292 Y68.87
G0 F6000 X210.169 Y54.605
G1 F3240 X168.393 Y12.83 E5684.76196
G0 X168.27 Y12.707
G0 F6000 X182.536 Y12.83
G1 F3240 X210.169 Y40.463 E5691.60078
G0 X210.292 Y40.586
G0 F6000 X210.169 Y26.321
G1 F3240 X196.678 Y12.83 E5694.93963
G0 X196.555 Y12.707
G0 F6000 X210.379 Y12.621
G0 X210.449 Y12.551
;TYPE:WALL-INNER
G1 F2640 X210.449 Y210.45 E5729.57196
G1 X12.551 Y210.45 E5764.20411
G1 X12.551 Y12.551 E5798.83643
G1 X210.449 Y12.551 E5833.46858
G0 F6000 X211.099 Y11.901
;TYPE:WALL-OUTER
G1 F1800 X211.099 Y211.1 E5868.32841
G1 X11.901 Y211.1 E5903.18806
G1 X11.901 Y11.901 E5938.04788
G1 X211.099 Y11.901 E5972.90753
G0 F6000 X211.099 Y12.301
G0 X209.749 Y13.045
;TIME_ELAPSED:841.218019
;LAYER:5
G0 X209.749 Y13.045 Z1.68
G0 X210.168 Y16.105
;TYPE:FILL
G1 F3240 X16.105 Y210.169 E6020.9358
G0 X15.982 Y210.292
G0 F6000 X12.831 Y199.3
G1 F3240 X199.301 Y12.83 E6067.08477
G0 X199.424 Y12.707
G0 F6000 X185.159 Y12.83
G1 F3240 X12.831 Y185.158 E6109.73377
G0 X12.708 Y185.281
G0 F6000 X12.831 Y171.016
G1 F3240 X171.017 Y12.83 E6148.88281
G0 X171.14 Y12.707
G0 F6000 X156.875 Y12.83
G1 F3240 X12.831 Y156.874 E6184.53188
G0 X12.708 Y156.997
G0 F6000 X12.831 Y142.732
G1 F3240 X142.733 Y12.83 E6216.68098
G0 X142.856 Y12.707
G0 F6000 X128.59 Y12.83
G1 F3240 X12.831 Y128.59 E6245.33
G0 X12.708 Y128.713
G0 F6000 X12.831 Y114.448
G1 F3240 X114.448 Y12.83 E6270.47905
