;FLAVOR:UltiGCode
;TIME:22539
;MATERIAL:98078
;MATERIAL2:0
;NOZZLE_DIAMETER:0.8
;Generated with Cura_SteamEngine 2.3.0-BETA

;LAYER_COUNT:95
;LAYER:0
M106 S255.000000
G10
G1 Z21.000
G0 F3600.000 X10.791 Y10.726 Z1.430
G0 X11.501 Y10.450 Z1.430
;TYPE:SKIRT
G1 Z0.430
G11
G1 F1200.000 X211.499 Y10.450 E60.19940
G1 X211.785 Y10.490 E60.28632
G1 X212.050 Y10.606 E60.37339
G1 X212.273 Y10.790 E60.46042
G1 X212.437 Y11.028 E60.54742
G1 X212.530 Y11.302 E60.63451
G1 X212.549 Y11.500 E60.69438
G1 X212.549 Y211.499 E120.89408
G1 X212.509 Y211.785 E120.98101
G1 X212.393 Y212.050 E121.06808
G1 X212.209 Y212.273 E121.15510
G1 X211.971 Y212.437 E121.24210
G1 X211.697 Y212.530 E121.32919
G1 X211.499 Y212.549 E121.38907
G1 X11.501 Y212.549 E181.58846
G1 X11.215 Y212.509 E181.67539
G1 X10.950 Y212.393 E181.76246
G1 X10.727 Y212.209 E181.84948
G1 X10.563 Y211.971 E181.93648
G1 X10.470 Y211.697 E182.02358
G1 X10.451 Y211.499 E182.08345
G1 X10.451 Y11.500 E242.28315
G1 X10.491 Y11.214 E242.37007
G1 X10.607 Y10.949 E242.45714
G1 X10.791 Y10.726 E242.54417
G1 X11.029 Y10.562 E242.63116
G1 X11.303 Y10.469 E242.71826
G1 X11.501 Y10.450 E242.77813
G0 F3600.00000 X11.501 Y11.150
G1 F1200.000 X211.499 Y11.150 E302.97753
G1 X211.660 Y11.189 E303.02739
G1 X211.785 Y11.299 E303.07751
G1 X211.849 Y11.500 E303.14100
G1 X211.849 Y211.499 E363.34070
G1 X211.810 Y211.660 E363.39057
G1 X211.700 Y211.785 E363.44069
G1 X211.499 Y211.849 E363.50418
G1 X11.501 Y211.849 E423.70358
G1 X11.340 Y211.810 E423.75344
G1 X11.215 Y211.700 E423.80356
G1 X11.151 Y211.499 E423.86705
G1 X11.151 Y11.500 E484.06675
G1 X11.190 Y11.339 E484.11661
G1 X11.300 Y11.214 E484.16673
G1 X11.501 Y11.150 E484.23023
G10
G0 F3600.00000 X12.579 Y12.578
G0 X12.830 Y12.830
;TYPE:FILL
G11
G1 F1200.000 X210.168 Y210.168 E568.23273
G0 X210.291 Y210.291
G0 F3600.000 X196.026 Y210.168
G1 F1200.000 X12.830 Y26.972 E646.21529
G0 X12.707 Y26.849
G0 F3600.000 X12.830 Y41.114
G1 F1200.000 X181.884 Y210.168 E718.17790
G0 X182.007 Y210.291
G0 F3600.000 X167.741 Y210.168
G1 F1200.000 X12.830 Y55.256 E784.12036
G0 X12.707 Y55.133
G0 F3600.000 X12.830 Y69.398
G1 F1200.000 X153.599 Y210.168 E844.04288
G0 X153.722 Y210.291
G0 F3600.000 X139.457 Y210.168
G1 F1200.000 X12.830 Y83.541 E897.94525
G0 X12.707 Y83.418
G0 F3600.000 X12.830 Y97.683
G1 F1200.000 X125.315 Y210.168 E945.82767
G0 X125.438 Y210.291
G0 F3600.000 X111.173 Y210.168
G1 F1200.000 X12.830 Y111.825 E987.69015
G0 X12.707 Y111.702
G0 F3600.000 X12.830 Y125.967
G1 F1200.000 X97.031 Y210.168 E1023.53268
G0 X97.154 Y210.291
G0 F3600.000 X82.889 Y210.168
G1 F1200.000 X12.830 Y140.109 E1053.35528
G0 X12.707 Y139.986
G0 F3600.000 X12.830 Y154.251
G1 F1200.000 X68.747 Y210.168 E1077.15793
G0 X68.870 Y210.291
G0 F3600.000 X54.604 Y210.168
G1 F1200.000 X12.830 Y168.393 E1094.94043
G0 X12.707 Y168.270
G0 F3600.000 X12.830 Y182.536
G1 F1200.000 X40.462 Y210.168 E1106.70277
G0 X40.585 Y210.291
G0 F3600.000 X26.320 Y210.168
G1 F1200.000 X12.830 Y196.678 E1112.44517
G0 X12.707 Y196.555
G0 F3600.000 X26.972 Y12.830
G1 F1200.000 X210.168 Y196.026 E1190.42773
G0 X210.291 Y196.149
G0 F3600.000 X210.168 Y181.884
G1 F1200.000 X41.114 Y12.830 E1262.39035
G0 X40.991 Y12.707
G0 F3600.000 X55.256 Y12.830
G1 F1200.000 X210.168 Y167.741 E1328.33281
G0 X210.291 Y167.864
G0 F3600.000 X210.168 Y153.599
G1 F1200.000 X69.398 Y12.830 E1388.25533
G0 X69.275 Y12.707
G0 F3600.000 X83.541 Y12.830
G1 F1200.000 X210.168 Y139.457 E1442.15769
G0 X210.291 Y139.580
G0 F3600.000 X210.168 Y125.315
G1 F1200.000 X97.683 Y12.830 E1490.04011
G0 X97.560 Y12.707
G0 F3600.000 X111.825 Y12.830
G1 F1200.000 X210.168 Y111.173 E1531.90259
G0 X210.291 Y111.296
G0 F3600.000 X210.168 Y97.031
G1 F1200.000 X125.967 Y12.830 E1567.74513
G0 X125.844 Y12.707
G0 F3600.000 X140.109 Y12.830
G1 F1200.000 X210.168 Y82.889 E1597.56772
G0 X210.291 Y83.012
G0 F3600.000 X210.168 Y68.747
G1 F1200.000 X154.251 Y12.830 E1621.37038
G0 X154.128 Y12.707
G0 F3600.000 X168.393 Y12.830
G1 F1200.000 X210.168 Y54.604 E1639.15287
G0 X210.291 Y54.727
G0 F3600.000 X210.168 Y40.462
G1 F1200.000 X182.536 Y12.830 E1650.91522
G0 X182.413 Y12.707
G0 F3600.000 X196.678 Y12.830
G1 F1200.000 X210.168 Y26.320 E1656.65762
G0 X210.291 Y26.443
G0 F3600.000 X210.379 Y12.620
G0 X210.449 Y12.550
;TYPE:WALL-INNER
G1 F1200.000 X210.449 Y210.449 E1716.22521
G1 X12.551 Y210.449 E1775.79251
G1 X12.551 Y12.550 E1835.36011
G1 X210.449 Y12.550 E1894.92741
G0 F3600.00000 X211.099 Y11.900
;TYPE:WALL-OUTER
G1 F1200.000 X211.099 Y211.099 E1954.88631
G1 X11.901 Y211.099 E2014.84491
G1 X11.901 Y11.900 E2074.80381
G1 X211.099 Y11.900 E2134.76240
G0 F3600.00000 X209.749 Y13.044
;TIME_ELAPSED:367.072
;LAYER:1
G0 F5400.000 X209.749 Y13.044 Z0.680
G0 X210.168 Y16.105
;TYPE:FILL
G1 F2100.000 X16.105 Y210.168 E2182.79055
G0 X15.982 Y210.291
G0 F5400.000 X12.830 Y199.301
G1 F2100.000 X199.301 Y12.830 E2228.93976
G0 X199.424 Y12.707
G0 F5400.000 X185.159 Y12.830
G1 F2100.000 X12.830 Y185.159 E2271.58902
G0 X12.707 Y185.282
G0 F5400.000 X12.830 Y171.017
G1 F2100.000 X171.017 Y12.830 E2310.73830
G0 X171.140 Y12.707
G0 F5400.000 X156.875 Y12.830
G1 F2100.000 X12.830 Y156.875 E2346.38762
G0 X12.707 Y156.998
G0 F5400.000 X12.830 Y142.733
G1 F2100.000 X142.733 Y12.830 E2378.53697
G0 X142.856 Y12.707
G0 F5400.000 X128.590 Y12.830
G1 F2100.000 X12.830 Y128.590 E2407.18611
G0 X12.707 Y128.713
G0 F5400.000 X12.830 Y114.448
G1 F2100.000 X114.448 Y12.830 E2432.33528
G0 X114.571 Y12.707
G0 F5400.000 X100.306 Y12.830
G1 F2100.000 X12.830 Y100.306 E2453.98449
G0 X12.707 Y100.429
G0 F5400.000 X12.830 Y86.164
G1 F2100.000 X86.164 Y12.830 E2472.13373
G0 X86.287 Y12.707
G0 F5400.000 X72.022 Y12.830
G1 F2100.000 X12.830 Y72.022 E2486.78300
G0 X12.707 Y72.145
G0 F5400.000 X12.830 Y57.880
G1 F2100.000 X57.880 Y12.830 E2497.93230
G0 X58.003 Y12.707
G0 F5400.000 X43.738 Y12.830
G1 F2100.000 X12.830 Y43.738 E2505.58164
G0 X12.707 Y43.861
G0 F5400.000 X12.830 Y29.595
G1 F2100.000 X29.595 Y12.830 E2509.73077
G0 X29.718 Y12.707
G0 F5400.000 X15.453 Y12.830
G1 F2100.000 X12.830 Y15.453 E2510.37993
G0 X12.707 Y15.576
G0 F5400.000 X30.247 Y210.168
G1 F2100.000 X210.168 Y30.247 E2554.90811
G0 X210.291 Y30.124
G0 F5400.000 X210.168 Y44.390
G1 F2100.000 X44.390 Y210.168 E2595.93607
G0 X44.267 Y210.291
G0 F5400.000 X58.532 Y210.168
G1 F2100.000 X210.168 Y58.532 E2633.46406
G0 X210.291 Y58.409
G0 F5400.000 X210.168 Y72.674
G1 F2100.000 X72.674 Y210.168 E2667.49209
G0 X72.551 Y210.291
G0 F5400.000 X86.816 Y210.168
G1 F2100.000 X210.168 Y86.816 E2698.02015
G0 X210.291 Y86.693
G0 F5400.000 X210.168 Y100.958
G1 F2100.000 X100.958 Y210.168 E2725.04825
G0 X100.835 Y210.291
G0 F5400.000 X115.100 Y210.168
G1 F2100.000 X210.168 Y115.100 E2748.57638
G0 X210.291 Y114.977
G0 F5400.000 X210.168 Y129.242
G1 F2100.000 X129.242 Y210.168 E2768.60454
G0 X129.119 Y210.291
G0 F5400.000 X143.384 Y210.168
G1 F2100.000 X210.168 Y143.384 E2785.13274
G0 X210.291 Y143.261
G0 F5400.000 X210.168 Y157.527
G1 F2100.000 X157.527 Y210.168 E2798.16072
G0 X157.404 Y210.291
G0 F5400.000 X171.669 Y210.168
G1 F2100.000 X210.168 Y171.669 E2807.68874
G0 X210.291 Y171.546
G0 F5400.000 X210.168 Y185.811
G1 F2100.000 X185.811 Y210.168 E2813.71679
G0 X185.688 Y210.291
G0 F5400.000 X199.953 Y210.168
G1 F2100.000 X210.168 Y199.953 E2816.24487
G0 X210.291 Y199.830
G0 F5400.000 X210.379 Y210.379
G0 X210.449 Y210.449
;TYPE:WALL-INNER
G1 F2100.000 X12.551 Y210.449 E2850.87702
G1 X12.551 Y12.550 E2885.50935
G1 X210.449 Y12.550 E2920.14150
G1 X210.449 Y210.449 E2954.77382
G0 F5400.00000 X211.099 Y211.099
;TYPE:WALL-OUTER
G1 F1800.000 X11.901 Y211.099 E2989.63347
G1 X11.901 Y11.900 E3024.49330
G1 X211.099 Y11.900 E3059.35295
G1 X211.099 Y211.099 E3094.21277
G0 F5400.00000 X209.749 Y209.955
;TIME_ELAPSED:535.036
;LAYER:2
G0 F7200.000 X210.168 Y210.168 Z0.930
;TYPE:FILL
G1 F3000.000 X12.830 Y12.830 E3143.05144
G0 X12.707 Y12.707
G0 F7200.000 X12.830 Y26.972
G1 F3000.000 X196.026 Y210.168 E3188.39013
G0 X196.149 Y210.291
G0 F7200.000 X181.884 Y210.168
G1 F3000.000 X12.830 Y41.114 E3230.22886
G0 X12.707 Y40.991
G0 F7200.000 X12.830 Y55.256
G1 F3000.000 X167.741 Y210.168 E3268.56750
G0 X167.864 Y210.291
G0 F7200.000 X153.599 Y210.168
G1 F3000.000 X12.830 Y69.398 E3303.40618
G0 X12.707 Y69.275
G0 F7200.000 X12.830 Y83.541
G1 F3000.000 X139.457 Y210.168 E3334.74476
G0 X139.580 Y210.291
G0 F7200.000 X125.315 Y210.168
G1 F3000.000 X12.830 Y97.683 E3362.58338
G0 X12.707 Y97.560
G0 F7200.000 X12.830 Y111.825
G1 F3000.000 X111.173 Y210.168 E3386.92203
G0 X111.296 Y210.291
G0 F7200.000 X97.031 Y210.168
G1 F3000.000 X12.830 Y125.967 E3407.76071
G0 X12.707 Y125.844
G0 F7200.000 X12.830 Y140.109
G1 F3000.000 X82.889 Y210.168 E3425.09943
G0 X83.012 Y210.291
G0 F7200.000 X68.747 Y210.168
G1 F3000.000 X12.830 Y154.251 E3438.93818
G0 X12.707 Y154.128
G0 F7200.000 X12.830 Y168.393
G1 F3000.000 X54.604 Y210.168 E3449.27684
G0 X54.727 Y210.291
G0 F7200.000 X40.462 Y210.168
G1 F3000.000 X12.830 Y182.536 E3456.11541
G0 X12.707 Y182.413
G0 F7200.000 X12.830 Y196.678
G1 F3000.000 X26.320 Y210.168 E3459.45402
G0 X26.443 Y210.291
G0 F7200.000 X210.168 Y196.026
G1 F3000.000 X26.972 Y12.830 E3504.79272
G0 X26.849 Y12.707
G0 F7200.000 X41.114 Y12.830
G1 F3000.000 X210.168 Y181.884 E3546.63145
G0 X210.291 Y182.007
G0 F7200.000 X210.168 Y167.741
G1 F3000.000 X55.256 Y12.830 E3584.97009
G0 X55.133 Y12.707
G0 F7200.000 X69.398 Y12.830
G1 F3000.000 X210.168 Y153.599 E3619.80876
G0 X210.291 Y153.722
G0 F7200.000 X210.168 Y139.457
G1 F3000.000 X83.541 Y12.830 E3651.14734
G0 X83.418 Y12.707
G0 F7200.000 X97.683 Y12.830
G1 F3000.000 X210.168 Y125.315 E3678.98596
G0 X210.291 Y125.438
G0 F7200.000 X210.168 Y111.173
G1 F3000.000 X111.825 Y12.830 E3703.32461
G0 X111.702 Y12.707
G0 F7200.000 X125.967 Y12.830
G1 F3000.000 X210.168 Y97.031 E3724.16330
G0 X210.291 Y97.154
G0 F7200.000 X210.168 Y82.889
G1 F3000.000 X140.109 Y12.830 E3741.50201
G0 X139.986 Y12.707
G0 F7200.000 X154.251 Y12.830
G1 F3000.000 X210.168 Y68.747 E3755.34077
G0 X210.291 Y68.870
G0 F7200.000 X210.168 Y54.604
G1 F3000.000 X168.393 Y12.830 E3765.67943
G0 X168.270 Y12.707
G0 F7200.000 X182.536 Y12.830
G1 F3000.000 X210.168 Y40.462 E3772.51800
G0 X210.291 Y40.585
G0 F7200.000 X210.168 Y26.320
G1 F3000.000 X196.678 Y12.830 E3775.85660
G0 X196.555 Y12.707
G0 F7200.000 X210.379 Y12.620
G0 X210.449 Y12.550
;TYPE:WALL-INNER
G1 F3000.000 X210.449 Y210.449 E3810.48893
G1 X12.551 Y210.449 E3845.12108
G1 X12.551 Y12.550 E3879.75340
G1 X210.449 Y12.550 E3914.38555
G0 F7200.00000 X211.099 Y11.900
;TYPE:WALL-OUTER
G1 F2400.000 X211.099 Y211.099 E3949.24538
G1 X11.901 Y211.099 E3984.10503
G1 X11.901 Y11.900 E4018.96485
G1 X211.099 Y11.900 E4053.82450
G0 F7200.00000 X209.749 Y13.044
;TIME_ELAPSED:654.784
;LAYER:3
G0 X209.749 Y13.044 Z1.180
G0 X210.168 Y16.105
;TYPE:FILL
G1 F3000.000 X16.105 Y210.168 E4101.85265
G0 X15.982 Y210.291
G0 F7200.000 X12.830 Y199.301
G1 F3000.000 X199.301 Y12.830 E4148.00186
G0 X199.424 Y12.707
G0 F7200.000 X185.159 Y12.830
G1 F3000.000 X12.830 Y185.159 E4190.65111
G0 X12.707 Y185.282
G0 F7200.000 X12.830 Y171.017
G1 F3000.000 X171.017 Y12.830 E4229.80040
G0 X171.140 Y12.707
G0 F7200.000 X156.875 Y12.830
G1 F3000.000 X12.830 Y156.875 E4265.44972
G0 X12.707 Y156.998
G0 F7200.000 X12.830 Y142.733
G1 F3000.000 X142.733 Y12.830 E4297.59907
G0 X142.856 Y12.707
G0 F7200.000 X128.590 Y12.830
G1 F3000.000 X12.830 Y128.590 E4326.24821
G0 X12.707 Y128.713
G0 F7200.000 X12.830 Y114.448
G1 F3000.000 X114.448 Y12.830 E4351.39738
G0 X114.571 Y12.707
G0 F7200.000 X100.306 Y12.830
G1 F3000.000 X12.830 Y100.306 E4373.04659
G0 X12.707 Y100.429
G0 F7200.000 X12.830 Y86.164
G1 F3000.000 X86.164 Y12.830 E4391.19583
G0 X86.287 Y12.707
G0 F7200.000 X72.022 Y12.830
G1 F3000.000 X12.830 Y72.022 E4405.84510
G0 X12.707 Y72.145
G0 F7200.000 X12.830 Y57.880
G1 F3000.000 X57.880 Y12.830 E4416.99440
G0 X58.003 Y12.707
G0 F7200.000 X43.738 Y12.830
G1 F3000.000 X12.830 Y43.738 E4424.64374
G0 X12.707 Y43.861
G0 F7200.000 X12.830 Y29.595
G1 F3000.000 X29.595 Y12.830 E4428.79287
G0 X29.718 Y12.707
G0 F7200.000 X15.453 Y12.830
G1 F3000.000 X12.830 Y15.453 E4429.44203
G0 X12.707 Y15.576
G0 F7200.000 X30.247 Y210.168
G1 F3000.000 X210.168 Y30.247 E4473.97021
G0 X210.291 Y30.124
G0 F7200.000 X210.168 Y44.390
G1 F3000.000 X44.390 Y210.168 E4514.99817
G0 X44.267 Y210.291
G0 F7200.000 X58.532 Y210.168
G1 F3000.000 X210.168 Y58.532 E4552.52616
G0 X210.291 Y58.409
G0 F7200.000 X210.168 Y72.674
G1 F3000.000 X72.674 Y210.168 E4586.55419
G0 X72.551 Y210.291
G0 F7200.000 X86.816 Y210.168
G1 F3000.000 X210.168 Y86.816 E4617.08225
G0 X210.291 Y86.693
G0 F7200.000 X210.168 Y100.958
G1 F3000.000 X100.958 Y210.168 E4644.11035
G0 X100.835 Y210.291
G0 F7200.000 X115.100 Y210.168
G1 F3000.000 X210.168 Y115.100 E4667.63848
G0 X210.291 Y114.977
G0 F7200.000 X210.168 Y129.242
G1 F3000.000 X129.242 Y210.168 E4687.66664
G0 X129.119 Y210.291
G0 F7200.000 X143.384 Y210.168
G1 F3000.000 X210.168 Y143.384 E4704.19484
G0 X210.291 Y143.261
G0 F7200.000 X210.168 Y157.527
G1 F3000.000 X157.527 Y210.168 E4717.22282
G0 X157.404 Y210.291
G0 F7200.000 X171.669 Y210.168
G1 F3000.000 X210.168 Y171.669 E4726.75084
G0 X210.291 Y171.546
G0 F7200.000 X210.168 Y185.811
G1 F3000.000 X185.811 Y210.168 E4732.77889
G0 X185.688 Y210.291
G0 F7200.000 X199.953 Y210.168
G1 F3000.000 X210.168 Y199.953 E4735.30697
G0 X210.291 Y199.830
G0 F7200.000 X210.379 Y210.379
G0 X210.449 Y210.449
;TYPE:WALL-INNER
G1 F3000.000 X12.551 Y210.449 E4769.93912
G1 X12.551 Y12.550 E4804.57145
G1 X210.449 Y12.550 E4839.20360
G1 X210.449 Y210.449 E4873.83592
G0 F7200.00000 X211.099 Y211.099
;TYPE:WALL-OUTER
G1 F2400.000 X11.901 Y211.099 E4908.69557
G1 X11.901 Y11.900 E4943.55540
G1 X211.099 Y11.900 E4978.41505
G1 X211.099 Y211.099 E5013.27487
G0 F7200.00000 X209.749 Y209.955
;TIME_ELAPSED:774.725
;LAYER:4
G0 X210.168 Y210.168 Z1.430
;TYPE:FILL
G1 F3000.000 X12.830 Y12.830 E5062.11354
G0 X12.707 Y12.707
G0 F7200.000 X12.830 Y26.972
G1 F3000.000 X196.026 Y210.168 E5107.45223
G0 X196.149 Y210.291
G0 F7200.000 X181.884 Y210.168
G1 F3000.000 X12.830 Y41.114 E5149.29096
G0 X12.707 Y40.991
G0 F7200.000 X12.830 Y55.256
G1 F3000.000 X167.741 Y210.168 E5187.62960
G0 X167.864 Y210.291
G0 F7200.000 X153.599 Y210.168
G1 F3000.000 X12.830 Y69.398 E5222.46828
G0 X12.707 Y69.275
G0 F7200.000 X12.830 Y83.541
G1 F3000.000 X139.457 Y210.168 E5253.80686
G0 X139.580 Y210.291
G0 F7200.000 X125.315 Y210.168
G1 F3000.000 X12.830 Y97.683 E5281.64548
G0 X12.707 Y97.560
G0 F7200.000 X12.830 Y111.825
G1 F3000.000 X111.173 Y210.168 E5305.98413
G0 X111.296 Y210.291
G0 F7200.000 X97.031 Y210.168
G1 F3000.000 X12.830 Y125.967 E5326.82281
G0 X12.707 Y125.844
G0 F7200.000 X12.830 Y140.109
G1 F3000.000 X82.889 Y210.168 E5344.16153
G0 X83.012 Y210.291
G0 F7200.000 X68.747 Y210.168
G1 F3000.000 X12.830 Y154.251 E5358.00028
G0 X12.707 Y154.128
G0 F7200.000 X12.830 Y168.393
G1 F3000.000 X54.604 Y210.168 E5368.33894
G0 X54.727 Y210.291
G0 F7200.000 X40.462 Y210.168
G1 F3000.000 X12.830 Y182.536 E5375.17751
G0 X12.707 Y182.413
G0 F7200.000 X12.830 Y196.678
G1 F3000.000 X26.320 Y210.168 E5378.51612
G0 X26.443 Y210.291
G0 F7200.000 X210.168 Y196.026
G1 F3000.000 X26.972 Y12.830 E5423.85482
G0 X26.849 Y12.707
G0 F7200.000 X41.114 Y12.830
G1 F3000.000 X210.168 Y181.884 E5465.69355
G0 X210.291 Y182.007
G0 F7200.000 X210.168 Y167.741
G1 F3000.000 X55.256 Y12.830 E5504.03219
G0 X55.133 Y12.707
G0 F7200.000 X69.398 Y12.830
G1 F3000.000 X210.168 Y153.599 E5538.87086
G0 X210.291 Y153.722
G0 F7200.000 X210.168 Y139.457
G1 F3000.000 X83.541 Y12.830 E5570.20944
G0 X83.418 Y12.707
G0 F7200.000 X97.683 Y12.830
G1 F3000.000 X210.168 Y125.315 E5598.04806
G0 X210.291 Y125.438
G0 F7200.000 X210.168 Y111.173
G1 F3000.000 X111.825 Y12.830 E5622.38671
G0 X111.702 Y12.707
G0 F7200.000 X125.967 Y12.830
G1 F3000.000 X210.168 Y97.031 E5643.22540
G0 X210.291 Y97.154
G0 F7200.000 X210.168 Y82.889
G1 F3000.000 X140.109 Y12.830 E5660.56411
G0 X139.986 Y12.707
G0 F7200.000 X154.251 Y12.830
G1 F3000.000 X210.168 Y68.747 E5674.40287
G0 X210.291 Y68.870
