;FLAVOR:UltiGCode
;TIME:22551
;MATERIAL:98586
;MATERIAL2:0
;NOZZLE_DIAMETER:0.8
;Generated with Cura_SteamEngine 2.3.0-BETA

;LAYER_COUNT:55
;LAYER:0
M106 S255.000000
G10
G1 Z21.000
G0 F3600.000 X10.791 Y10.726 Z1.430
G0 X11.501 Y10.450 Z1.430
;TYPE:SKIRT
G1 Z0.430
G11
G1 F1200.000 X211.500 Y10.450 E60.19970
G1 X211.786 Y10.490 E60.28662
G1 X212.051 Y10.606 E60.37370
G1 X212.274 Y10.790 E60.46072
G1 X212.438 Y11.028 E60.54772
G1 X212.531 Y11.302 E60.63481
G1 X212.550 Y11.500 E60.69468
G1 X212.550 Y211.499 E120.89438
G1 X212.510 Y211.785 E120.98131
G1 X212.394 Y212.050 E121.06838
G1 X212.210 Y212.273 E121.15540
G1 X211.972 Y212.437 E121.24240
G1 X211.698 Y212.530 E121.32949
G1 X211.500 Y212.549 E121.38937
G1 X11.501 Y212.549 E181.58907
G1 X11.215 Y212.509 E181.67599
G1 X10.950 Y212.393 E181.76306
G1 X10.727 Y212.209 E181.85008
G1 X10.563 Y211.971 E181.93708
G1 X10.470 Y211.697 E182.02418
G1 X10.451 Y211.499 E182.08405
G1 X10.451 Y11.500 E242.28375
G1 X10.491 Y11.214 E242.37067
G1 X10.607 Y10.949 E242.45775
G1 X10.791 Y10.726 E242.54477
G1 X11.029 Y10.562 E242.63177
G1 X11.303 Y10.469 E242.71886
G1 X11.501 Y10.450 E242.77873
G0 F3600.00000 X11.501 Y11.150
G1 F1200.000 X211.500 Y11.150 E302.97843
G1 X211.661 Y11.189 E303.02829
G1 X211.786 Y11.299 E303.07841
G1 X211.850 Y11.500 E303.14191
G1 X211.850 Y211.499 E363.34161
G1 X211.811 Y211.660 E363.39147
G1 X211.701 Y211.785 E363.44159
G1 X211.500 Y211.849 E363.50508
G1 X11.501 Y211.849 E423.70478
G1 X11.340 Y211.810 E423.75464
G1 X11.215 Y211.700 E423.80476
G1 X11.151 Y211.499 E423.86826
G1 X11.151 Y11.500 E484.06796
G1 X11.190 Y11.339 E484.11782
G1 X11.300 Y11.214 E484.16794
G1 X11.501 Y11.150 E484.23143
G10
G0 F3600.00000 X12.579 Y12.578
G0 X12.830 Y12.830
;TYPE:FILL
G11
G1 F1200.000 X210.169 Y210.169 E568.23436
G0 X210.292 Y210.292
G0 F3600.000 X196.026 Y210.168
G1 F1200.000 X12.830 Y26.972 E646.21692
G0 X12.707 Y26.849
G0 F3600.000 X12.830 Y41.114
G1 F1200.000 X181.884 Y210.168 E718.17953
G0 X182.007 Y210.291
G0 F3600.000 X167.741 Y210.168
G1 F1200.000 X12.830 Y55.256 E784.12199
G0 X12.707 Y55.133
G0 F3600.000 X12.830 Y69.398
G1 F1200.000 X153.599 Y210.168 E844.04451
G0 X153.722 Y210.291
G0 F3600.000 X139.457 Y210.168
G1 F1200.000 X12.830 Y83.541 E897.94688
G0 X12.707 Y83.418
G0 F3600.000 X12.830 Y97.683
G1 F1200.000 X125.315 Y210.168 E945.82930
G0 X125.438 Y210.291
G0 F3600.000 X111.173 Y210.168
G1 F1200.000 X12.830 Y111.825 E987.69178
G0 X12.707 Y111.702
G0 F3600.000 X12.830 Y125.967
G1 F1200.000 X97.031 Y210.168 E1023.53431
G0 X97.154 Y210.291
G0 F3600.000 X82.889 Y210.168
G1 F1200.000 X12.830 Y140.109 E1053.35691
G0 X12.707 Y139.986
G0 F3600.000 X12.830 Y154.251
G1 F1200.000 X68.747 Y210.168 E1077.15956
G0 X68.870 Y210.291
G0 F3600.000 X54.604 Y210.168
G1 F1200.000 X12.830 Y168.393 E1094.94206
G0 X12.707 Y168.270
G0 F3600.000 X12.830 Y182.536
G1 F1200.000 X40.462 Y210.168 E1106.70440
G0 X40.585 Y210.291
G0 F3600.000 X26.320 Y210.168
G1 F1200.000 X12.830 Y196.678 E1112.44680
G0 X12.707 Y196.555
G0 F3600.000 X26.972 Y12.830
G1 F1200.000 X210.169 Y196.026 E1190.42957
G0 X210.292 Y196.149
G0 F3600.000 X210.169 Y181.884
G1 F1200.000 X41.114 Y12.830 E1262.39240
G0 X40.991 Y12.707
G0 F3600.000 X55.256 Y12.830
G1 F1200.000 X210.169 Y167.742 E1328.33529
G0 X210.292 Y167.865
G0 F3600.000 X210.169 Y153.600
G1 F1200.000 X69.398 Y12.830 E1388.25823
G0 X69.275 Y12.707
G0 F3600.000 X83.541 Y12.830
G1 F1200.000 X210.169 Y139.458 E1442.16102
G0 X210.292 Y139.581
G0 F3600.000 X210.169 Y125.316
G1 F1200.000 X97.683 Y12.830 E1490.04387
G0 X97.560 Y12.707
G0 F3600.000 X111.825 Y12.830
G1 F1200.000 X210.169 Y111.174 E1531.90678
G0 X210.292 Y111.297
G0 F3600.000 X210.169 Y97.032
G1 F1200.000 X125.967 Y12.830 E1567.74974
G0 X125.844 Y12.707
G0 F3600.000 X140.109 Y12.830
G1 F1200.000 X210.169 Y82.889 E1597.57255
G0 X210.292 Y83.012
G0 F3600.000 X210.169 Y68.747
G1 F1200.000 X154.251 Y12.830 E1621.37541
G0 X154.128 Y12.707
G0 F3600.000 X168.393 Y12.830
G1 F1200.000 X210.169 Y54.605 E1639.15833
G0 X210.292 Y54.728
G0 F3600.000 X210.169 Y40.463
G1 F1200.000 X182.536 Y12.830 E1650.92110
G0 X182.413 Y12.707
G0 F3600.000 X196.678 Y12.830
G1 F1200.000 X210.169 Y26.321 E1656.66393
G0 X210.292 Y26.444
G0 F3600.000 X210.380 Y12.620
G0 X210.450 Y12.550
;TYPE:WALL-INNER
G1 F1200.000 X210.450 Y210.449 E1716.23153
G1 X12.551 Y210.449 E1775.79913
G1 X12.551 Y12.550 E1835.36672
G1 X210.450 Y12.550 E1894.93432
G0 F3600.00000 X211.100 Y11.900
;TYPE:WALL-OUTER
G1 F1200.000 X211.100 Y211.099 E1954.89322
G1 X11.901 Y211.099 E2014.85212
G1 X11.901 Y11.900 E2074.81102
G1 X211.100 Y11.900 E2134.76992
G0 F3600.00000 X209.750 Y13.044
;TIME_ELAPSED:367.074
;LAYER:1
G0 F5400.000 X209.750 Y13.044 Z0.680
G0 X210.169 Y16.105
;TYPE:FILL
G1 F2100.000 X16.105 Y210.169 E2182.79831
G0 X15.982 Y210.292
G0 F5400.000 X12.830 Y199.301
G1 F2100.000 X199.302 Y12.829 E2228.94777
G0 X199.425 Y12.706
G0 F5400.000 X185.160 Y12.829
G1 F2100.000 X12.830 Y185.159 E2271.59727
G0 X12.707 Y185.282
G0 F5400.000 X12.830 Y171.017
G1 F2100.000 X171.018 Y12.829 E2310.74681
G0 X171.141 Y12.706
G0 F5400.000 X156.875 Y12.829
G1 F2100.000 X12.830 Y156.875 E2346.39625
G0 X12.707 Y156.998
G0 F5400.000 X12.830 Y142.733
G1 F2100.000 X142.733 Y12.829 E2378.54573
G0 X142.856 Y12.706
G0 F5400.000 X128.591 Y12.829
G1 F2100.000 X12.830 Y128.590 E2407.19511
G0 X12.707 Y128.713
G0 F5400.000 X12.830 Y114.448
G1 F2100.000 X114.449 Y12.829 E2432.34453
G0 X114.572 Y12.706
G0 F5400.000 X100.307 Y12.829
G1 F2100.000 X12.830 Y100.306 E2453.99398
G0 X12.707 Y100.429
G0 F5400.000 X12.830 Y86.164
G1 F2100.000 X86.165 Y12.829 E2472.14347
G0 X86.288 Y12.706
G0 F5400.000 X72.023 Y12.829
G1 F2100.000 X12.830 Y72.022 E2486.79299
G0 X12.707 Y72.145
G0 F5400.000 X12.830 Y57.880
G1 F2100.000 X57.880 Y12.829 E2497.94242
G0 X58.003 Y12.706
G0 F5400.000 X43.738 Y12.829
G1 F2100.000 X12.830 Y43.738 E2505.59188
G0 X12.707 Y43.861
G0 F5400.000 X12.830 Y29.595
G1 F2100.000 X29.596 Y12.829 E2509.74126
G0 X29.719 Y12.706
G0 F5400.000 X15.454 Y12.829
G1 F2100.000 X12.830 Y15.453 E2510.39066
G0 X12.707 Y15.576
G0 F5400.000 X30.247 Y210.169
G1 F2100.000 X210.169 Y30.247 E2554.91909
G0 X210.292 Y30.124
G0 F5400.000 X210.169 Y44.389
G1 F2100.000 X44.389 Y210.169 E2595.94754
G0 X44.266 Y210.292
G0 F5400.000 X58.531 Y210.169
G1 F2100.000 X210.169 Y58.531 E2633.47603
G0 X210.292 Y58.408
G0 F5400.000 X210.169 Y72.673
G1 F2100.000 X72.673 Y210.169 E2667.50456
G0 X72.550 Y210.292
G0 F5400.000 X86.815 Y210.169
G1 F2100.000 X210.169 Y86.815 E2698.03312
G0 X210.292 Y86.692
G0 F5400.000 X210.169 Y100.957
G1 F2100.000 X100.957 Y210.169 E2725.06171
G0 X100.834 Y210.292
G0 F5400.000 X115.100 Y210.169
G1 F2100.000 X210.169 Y115.100 E2748.59008
G0 X210.292 Y114.977
G0 F5400.000 X210.169 Y129.242
G1 F2100.000 X129.242 Y210.169 E2768.61849
G0 X129.119 Y210.292
G0 F5400.000 X143.384 Y210.169
G1 F2100.000 X210.169 Y143.384 E2785.14694
G0 X210.292 Y143.261
G0 F5400.000 X210.169 Y157.526
G1 F2100.000 X157.526 Y210.169 E2798.17542
G0 X157.403 Y210.292
G0 F5400.000 X171.668 Y210.169
G1 F2100.000 X210.169 Y171.668 E2807.70393
G0 X210.292 Y171.545
G0 F5400.000 X210.169 Y185.810
G1 F2100.000 X185.810 Y210.169 E2813.73247
G0 X185.687 Y210.292
G0 F5400.000 X199.952 Y210.169
G1 F2100.000 X210.169 Y199.952 E2816.26105
G0 X210.292 Y199.829
G0 F5400.000 X210.380 Y210.379
G0 X210.450 Y210.449
;TYPE:WALL-INNER
G1 F2100.000 X12.551 Y210.449 E2850.89338
G1 X12.551 Y12.550 E2885.52570
G1 X210.450 Y12.550 E2920.15803
G1 X210.450 Y210.449 E2954.79035
G0 F5400.00000 X211.100 Y211.099
;TYPE:WALL-OUTER
G1 F1800.000 X11.901 Y211.099 E2989.65018
G1 X11.901 Y11.900 E3024.51000
G1 X211.100 Y11.900 E3059.36983
G1 X211.100 Y211.099 E3094.22965
G0 F5400.00000 X209.750 Y209.955
;TIME_ELAPSED:535.039
;LAYER:2
G0 F7200.000 X210.169 Y210.169 Z0.930
;TYPE:FILL
G1 F3000.000 X12.830 Y12.830 E3143.06856
G0 X12.707 Y12.707
G0 F7200.000 X12.830 Y26.972
G1 F3000.000 X196.026 Y210.168 E3188.40726
G0 X196.149 Y210.291
G0 F7200.000 X181.884 Y210.168
G1 F3000.000 X12.830 Y41.114 E3230.24599
G0 X12.707 Y40.991
G0 F7200.000 X12.830 Y55.256
G1 F3000.000 X167.741 Y210.168 E3268.58463
G0 X167.864 Y210.291
G0 F7200.000 X153.599 Y210.168
G1 F3000.000 X12.830 Y69.398 E3303.42330
G0 X12.707 Y69.275
G0 F7200.000 X12.830 Y83.541
G1 F3000.000 X139.457 Y210.168 E3334.76189
G0 X139.580 Y210.291
G0 F7200.000 X125.315 Y210.168
G1 F3000.000 X12.830 Y97.683 E3362.60050
G0 X12.707 Y97.560
G0 F7200.000 X12.830 Y111.825
G1 F3000.000 X111.173 Y210.168 E3386.93915
G0 X111.296 Y210.291
G0 F7200.000 X97.031 Y210.168
G1 F3000.000 X12.830 Y125.967 E3407.77784
G0 X12.707 Y125.844
G0 F7200.000 X12.830 Y140.109
G1 F3000.000 X82.889 Y210.168 E3425.11656
G0 X83.012 Y210.291
G0 F7200.000 X68.747 Y210.168
G1 F3000.000 X12.830 Y154.251 E3438.95531
G0 X12.707 Y154.128
G0 F7200.000 X12.830 Y168.393
G1 F3000.000 X54.604 Y210.168 E3449.29397
G0 X54.727 Y210.291
G0 F7200.000 X40.462 Y210.168
G1 F3000.000 X12.830 Y182.536 E3456.13254
G0 X12.707 Y182.413
G0 F7200.000 X12.830 Y196.678
G1 F3000.000 X26.320 Y210.168 E3459.47115
G0 X26.443 Y210.291
G0 F7200.000 X210.169 Y196.026
G1 F3000.000 X26.972 Y12.830 E3504.80997
G0 X26.849 Y12.707
G0 F7200.000 X41.114 Y12.830
G1 F3000.000 X210.169 Y181.884 E3546.64882
G0 X210.292 Y182.007
G0 F7200.000 X210.169 Y167.742
G1 F3000.000 X55.256 Y12.830 E3584.98771
G0 X55.133 Y12.707
G0 F7200.000 X69.398 Y12.830
G1 F3000.000 X210.169 Y153.600 E3619.82663
G0 X210.292 Y153.723
G0 F7200.000 X210.169 Y139.458
G1 F3000.000 X83.541 Y12.830 E3651.16546
G0 X83.418 Y12.707
G0 F7200.000 X97.683 Y12.830
G1 F3000.000 X210.169 Y125.316 E3679.00432
G0 X210.292 Y125.439
G0 F7200.000 X210.169 Y111.174
G1 F3000.000 X111.825 Y12.830 E3703.34322
G0 X111.702 Y12.707
G0 F7200.000 X125.967 Y12.830
G1 F3000.000 X210.169 Y97.032 E3724.18215
G0 X210.292 Y97.155
G0 F7200.000 X210.169 Y82.889
G1 F3000.000 X140.109 Y12.830 E3741.52100
G0 X139.986 Y12.707
G0 F7200.000 X154.251 Y12.830
G1 F3000.000 X210.169 Y68.747 E3755.35987
G0 X210.292 Y68.870
G0 F7200.000 X210.169 Y54.605
G1 F3000.000 X168.393 Y12.830 E3765.69878
G0 X168.270 Y12.707
G0 F7200.000 X182.536 Y12.830
G1 F3000.000 X210.169 Y40.463 E3772.53760
G0 X210.292 Y40.586
G0 F7200.000 X210.169 Y26.321
G1 F3000.000 X196.678 Y12.830 E3775.87645
G0 X196.555 Y12.707
G0 F7200.000 X210.380 Y12.620
G0 X210.450 Y12.550
;TYPE:WALL-INNER
G1 F3000.000 X210.450 Y210.449 E3810.50878
G1 X12.551 Y210.449 E3845.14110
G1 X12.551 Y12.550 E3879.77343
G1 X210.450 Y12.550 E3914.40575
G0 F7200.00000 X211.100 Y11.900
;TYPE:WALL-OUTER
G1 F2400.000 X211.100 Y211.099 E3949.26558
G1 X11.901 Y211.099 E3984.12540
G1 X11.901 Y11.900 E4018.98523
G1 X211.100 Y11.900 E4053.84505
G0 F7200.00000 X209.750 Y13.044
;TIME_ELAPSED:654.787
;LAYER:3
G0 X209.750 Y13.044 Z1.180
G0 X210.169 Y16.105
;TYPE:FILL
G1 F3000.000 X16.105 Y210.169 E4101.87344
G0 X15.982 Y210.292
G0 F7200.000 X12.830 Y199.301
G1 F3000.000 X199.302 Y12.829 E4148.02291
G0 X199.425 Y12.706
G0 F7200.000 X185.160 Y12.829
G1 F3000.000 X12.830 Y185.159 E4190.67241
G0 X12.707 Y185.282
G0 F7200.000 X12.830 Y171.017
G1 F3000.000 X171.018 Y12.829 E4229.82194
G0 X171.141 Y12.706
G0 F7200.000 X156.875 Y12.829
G1 F3000.000 X12.830 Y156.875 E4265.47138
G0 X12.707 Y156.998
G0 F7200.000 X12.830 Y142.733
G1 F3000.000 X142.733 Y12.829 E4297.62086
G0 X142.856 Y12.706
G0 F7200.000 X128.591 Y12.829
G1 F3000.000 X12.830 Y128.590 E4326.27024
G0 X12.707 Y128.713
G0 F7200.000 X12.830 Y114.448
G1 F3000.000 X114.449 Y12.829 E4351.41966
G0 X114.572 Y12.706
G0 F7200.000 X100.307 Y12.829
G1 F3000.000 X12.830 Y100.306 E4373.06911
G0 X12.707 Y100.429
G0 F7200.000 X12.830 Y86.164
G1 F3000.000 X86.165 Y12.829 E4391.21860
G0 X86.288 Y12.706
G0 F7200.000 X72.023 Y12.829
G1 F3000.000 X12.830 Y72.022 E4405.86812
G0 X12.707 Y72.145
G0 F7200.000 X12.830 Y57.880
G1 F3000.000 X57.880 Y12.829 E4417.01755
G0 X58.003 Y12.706
G0 F7200.000 X43.738 Y12.829
G1 F3000.000 X12.830 Y43.738 E4424.66701
G0 X12.707 Y43.861
G0 F7200.000 X12.830 Y29.595
G1 F3000.000 X29.596 Y12.829 E4428.81639
G0 X29.719 Y12.706
G0 F7200.000 X15.454 Y12.829
G1 F3000.000 X12.830 Y15.453 E4429.46579
G0 X12.707 Y15.576
G0 F7200.000 X30.247 Y210.169
G1 F3000.000 X210.169 Y30.247 E4473.99422
G0 X210.292 Y30.124
G0 F7200.000 X210.169 Y44.389
G1 F3000.000 X44.389 Y210.169 E4515.02267
G0 X44.266 Y210.292
G0 F7200.000 X58.531 Y210.169
G1 F3000.000 X210.169 Y58.531 E4552.55117
G0 X210.292 Y58.408
G0 F7200.000 X210.169 Y72.673
G1 F3000.000 X72.673 Y210.169 E4586.57969
G0 X72.550 Y210.292
G0 F7200.000 X86.815 Y210.169
G1 F3000.000 X210.169 Y86.815 E4617.10825
G0 X210.292 Y86.692
G0 F7200.000 X210.169 Y100.957
G1 F3000.000 X100.957 Y210.169 E4644.13684
G0 X100.834 Y210.292
G0 F7200.000 X115.100 Y210.169
G1 F3000.000 X210.169 Y115.100 E4667.66521
G0 X210.292 Y114.977
G0 F7200.000 X210.169 Y129.242
G1 F3000.000 X129.242 Y210.169 E4687.69363
G0 X129.119 Y210.292
G0 F7200.000 X143.384 Y210.169
G1 F3000.000 X210.169 Y143.384 E4704.22207
G0 X210.292 Y143.261
G0 F7200.000 X210.169 Y157.526
G1 F3000.000 X157.526 Y210.169 E4717.25055
G0 X157.403 Y210.292
G0 F7200.000 X171.668 Y210.169
G1 F3000.000 X210.169 Y171.668 E4726.77906
G0 X210.292 Y171.545
G0 F7200.000 X210.169 Y185.810
G1 F3000.000 X185.810 Y210.169 E4732.80760
G0 X185.687 Y210.292
G0 F7200.000 X199.952 Y210.169
G1 F3000.000 X210.169 Y199.952 E4735.33618
G0 X210.292 Y199.829
G0 F7200.000 X210.380 Y210.379
G0 X210.450 Y210.449
;TYPE:WALL-INNER
G1 F3000.000 X12.551 Y210.449 E4769.96851
G1 X12.551 Y12.550 E4804.60083
G1 X210.450 Y12.550 E4839.23316
G1 X210.450 Y210.449 E4873.86548
G0 F7200.00000 X211.100 Y211.099
;TYPE:WALL-OUTER
G1 F2400.000 X11.901 Y211.099 E4908.72531
G1 X11.901 Y11.900 E4943.58513
G1 X211.100 Y11.900 E4978.44496
G1 X211.100 Y211.099 E5013.30478
G0 F7200.00000 X209.750 Y209.955
;TIME_ELAPSED:774.729
;LAYER:4
G0 X210.169 Y210.169 Z1.430
;TYPE:FILL
G1 F3000.000 X12.830 Y12.830 E5062.14369
G0 X12.707 Y12.707
G0 F7200.000 X12.830 Y26.972
G1 F3000.000 X196.026 Y210.168 E5107.48239
G0 X196.149 Y210.291
G0 F7200.000 X181.884 Y210.168
G1 F3000.000 X12.830 Y41.114 E5149.32112
G0 X12.707 Y40.991
G0 F7200.000 X12.830 Y55.256
G1 F3000.000 X167.741 Y210.168 E5187.65976
G0 X167.864 Y210.291
G0 F7200.000 X153.599 Y210.168
G1 F3000.000 X12.830 Y69.398 E5222.49843
G0 X12.707 Y69.275
G0 F7200.000 X12.830 Y83.541
G1 F3000.000 X139.457 Y210.168 E5253.83702
G0 X139.580 Y210.291
G0 F7200.000 X125.315 Y210.168
G1 F3000.000 X12.830 Y97.683 E5281.67564
G0 X12.707 Y97.560
G0 F7200.000 X12.830 Y111.825
G1 F3000.000 X111.173 Y210.168 E5306.01429
G0 X111.296 Y210.291
G0 F7200.000 X97.031 Y210.168
G1 F3000.000 X12.830 Y125.967 E5326.85297
G0 X12.707 Y125.844
G0 F7200.000 X12.830 Y140.109
G1 F3000.000 X82.889 Y210.168 E5344.19169
G0 X83.012 Y210.291
G0 F7200.000 X68.747 Y210.168
G1 F3000.000 X12.830 Y154.251 E5358.03044
G0 X12.707 Y154.128
G0 F7200.000 X12.830 Y168.393
G1 F3000.000 X54.604 Y210.168 E5368.36910
G0 X54.727 Y210.291
G0 F7200.000 X40.462 Y210.168
G1 F3000.000 X12.830 Y182.536 E5375.20767
G0 X12.707 Y182.413
G0 F7200.000 X12.830 Y196.678
G1 F3000.000 X26.320 Y210.168 E5378.54628
G0 X26.443 Y210.291
G0 F7200.000 X210.169 Y196.026
G1 F3000.000 X26.972 Y12.830 E5423.88510
G0 X26.849 Y12.707
G0 F7200.000 X41.114 Y12.830
G1 F3000.000 X210.169 Y181.884 E5465.72395
G0 X210.292 Y182.007
G0 F7200.000 X210.169 Y167.742
G1 F3000.000 X55.256 Y12.830 E5504.06284
G0 X55.133 Y12.707
G0 F7200.000 X69.398 Y12.830
G1 F3000.000 X210.169 Y153.600 E5538.90176
G0 X210.292 Y153.723
G0 F7200.000 X210.169 Y139.458
G1 F3000.000 X83.541 Y12.830 E5570.24059
G0 X83.418 Y12.707
G0 F7200.000 X97.683 Y12.830
G1 F3000.000 X210.169 Y125.316 E5598.07946
G0 X210.292 Y125.439
G0 F7200.000 X210.169 Y111.174
G1 F3000.000 X111.825 Y12.830 E5622.41835
G0 X111.702 Y12.707
G0 F7200.000 X125.967 Y12.830
G1 F3000.000 X210.169 Y97.032 E5643.25729
G0 X210.292 Y97.155
G0 F7200.000 X210.169 Y82.889
G1 F3000.000 X140.109 Y12.830 E5660.59613
G0 X139.986 Y12.707
G0 F7200.000 X154.251 Y12.830
G1 F3000.000 X210.169 Y68.747 E5674.43500
G0 X210.292 Y68.870
