;FLAVOR:UltiGCode
;TIME:23218
;MATERIAL:100678
;MATERIAL2:0
;NOZZLE_DIAMETER:0.8
;Generated with Cura_SteamEngine 2.4.0

;LAYER_COUNT:82
;LAYER:0
M107
G10
G1 Z22
G0 F3750 X10.791 Y10.727 Z2.43
G0 X11.501 Y10.451 Z2.43
;TYPE:SKIRT
G1 Z0.43
G11
G1 F1200 X211.499 Y10.451 E60.1994
G1 X211.785 Y10.491 E60.28632
G1 X212.05 Y10.607 E60.37339
G1 X212.273 Y10.791 E60.46042
G1 X212.437 Y11.029 E60.54742
G1 X212.53 Y11.303 E60.63451
G1 X212.549 Y11.501 E60.69438
G1 X212.549 Y211.499 E120.89378
G1 X212.509 Y211.785 E120.9807
G1 X212.393 Y212.05 E121.06778
G1 X212.209 Y212.273 E121.1548
G1 X211.971 Y212.437 E121.2418
G1 X211.697 Y212.53 E121.32889
G1 X211.499 Y212.549 E121.38876
G1 X11.501 Y212.549 E181.58816
G1 X11.215 Y212.509 E181.67509
G1 X10.95 Y212.393 E181.76216
G1 X10.727 Y212.209 E181.84918
G1 X10.563 Y211.971 E181.93618
G1 X10.47 Y211.697 E182.02328
G1 X10.451 Y211.499 E182.08315
G1 X10.451 Y11.501 E242.28254
G1 X10.491 Y11.215 E242.36947
G1 X10.607 Y10.95 E242.45654
G1 X10.791 Y10.727 E242.54356
G1 X11.029 Y10.563 E242.63056
G1 X11.303 Y10.47 E242.71766
G1 X11.501 Y10.451 E242.77753
G0 F3750 X11.501 Y11.151
G1 F1200 X211.499 Y11.151 E302.97693
G1 X211.66 Y11.19 E303.02679
G1 X211.785 Y11.3 E303.07691
G1 X211.849 Y11.501 E303.1404
G1 X211.849 Y211.499 E363.3398
G1 X211.81 Y211.66 E363.38966
G1 X211.7 Y211.785 E363.43978
G1 X211.499 Y211.849 E363.50328
G1 X11.501 Y211.849 E423.70267
G1 X11.34 Y211.81 E423.75254
G1 X11.215 Y211.7 E423.80266
G1 X11.151 Y211.499 E423.86615
G1 X11.151 Y11.501 E484.06555
G1 X11.19 Y11.34 E484.11541
G1 X11.3 Y11.215 E484.16553
G1 X11.501 Y11.151 E484.22902
G10
G0 F3750 X12.565 Y12.565
G0 X12.83 Y12.83
;TYPE:FILL
G11
G1 F1500 X210.168 Y210.168 E568.23152
G0 X210.291 Y210.291
G0 F3750 X196.026 Y210.168
G1 F1500 X12.83 Y26.972 E646.21408
G0 X12.707 Y26.849
G0 F3750 X12.83 Y41.114
G1 F1500 X181.884 Y210.168 E718.1767
G0 X182.007 Y210.291
G0 F3750 X167.741 Y210.168
G1 F1500 X12.83 Y55.256 E784.11916
G0 X12.707 Y55.133
G0 F3750 X12.83 Y69.398
G1 F1500 X153.599 Y210.168 E844.04168
G0 X153.722 Y210.291
G0 F3750 X139.457 Y210.168
G1 F1500 X12.83 Y83.541 E897.94404
G0 X12.707 Y83.418
G0 F3750 X12.83 Y97.683
G1 F1500 X125.315 Y210.168 E945.82646
G0 X125.438 Y210.291
G0 F3750 X111.173 Y210.168
G1 F1500 X12.83 Y111.825 E987.68894
G0 X12.707 Y111.702
G0 F3750 X12.83 Y125.967
G1 F1500 X97.031 Y210.168 E1023.53148
G0 X97.154 Y210.291
G0 F3750 X82.889 Y210.168
G1 F1500 X12.83 Y140.109 E1053.35408
G0 X12.707 Y139.986
G0 F3750 X12.83 Y154.251
G1 F1500 X68.747 Y210.168 E1077.15673
G0 X68.87 Y210.291
G0 F3750 X54.604 Y210.168
G1 F1500 X12.83 Y168.393 E1094.93923
G0 X12.707 Y168.27
G0 F3750 X12.83 Y182.536
G1 F1500 X40.462 Y210.168 E1106.70157
G0 X40.585 Y210.291
G0 F3750 X26.32 Y210.168
G1 F1500 X12.83 Y196.678 E1112.44397
G0 X12.707 Y196.555
G0 F3750 X26.972 Y12.83
G1 F1500 X210.168 Y196.026 E1190.42653
G0 X210.291 Y196.149
G0 F3750 X210.168 Y181.884
G1 F1500 X41.114 Y12.83 E1262.38914
G0 X40.991 Y12.707
G0 F3750 X55.256 Y12.83
G1 F1500 X210.168 Y167.741 E1328.3316
G0 X210.291 Y167.864
G0 F3750 X210.168 Y153.599
G1 F1500 X69.398 Y12.83 E1388.25412
G0 X69.275 Y12.707
G0 F3750 X83.541 Y12.83
G1 F1500 X210.168 Y139.457 E1442.15649
G0 X210.291 Y139.58
G0 F3750 X210.168 Y125.315
G1 F1500 X97.683 Y12.83 E1490.03891
G0 X97.56 Y12.707
G0 F3750 X111.825 Y12.83
G1 F1500 X210.168 Y111.173 E1531.90139
G0 X210.291 Y111.296
G0 F3750 X210.168 Y97.031
G1 F1500 X125.967 Y12.83 E1567.74392
G0 X125.844 Y12.707
G0 F3750 X140.109 Y12.83
G1 F1500 X210.168 Y82.889 E1597.56652
G0 X210.291 Y83.012
G0 F3750 X210.168 Y68.747
G1 F1500 X154.251 Y12.83 E1621.36917
G0 X154.128 Y12.707
G0 F3750 X168.393 Y12.83
G1 F1500 X210.168 Y54.604 E1639.15167
G0 X210.291 Y54.727
G0 F3750 X210.168 Y40.462
G1 F1500 X182.536 Y12.83 E1650.91401
G0 X182.413 Y12.707
G0 F3750 X196.678 Y12.83
G1 F1500 X210.168 Y26.32 E1656.65641
G0 X210.291 Y26.443
G0 F3750 X210.379 Y12.621
G0 X210.449 Y12.551
;TYPE:WALL-INNER
G1 F1500 X210.449 Y210.449 E1716.22371
G1 X12.551 Y210.449 E1775.79101
G1 X12.551 Y12.551 E1835.35831
G1 X210.449 Y12.551 E1894.9256
G0 F3750 X211.099 Y11.901
;TYPE:WALL-OUTER
G1 F1500 X211.099 Y211.099 E1954.8842
G1 X11.901 Y211.099 E2014.8428
G1 X11.901 Y11.901 E2074.8014
G1 X211.099 Y11.901 E2134.76
G0 F3750 X211.099 Y12.301
G0 X209.749 Y13.045
;TIME_ELAPSED:311.865334
;LAYER:1
M106 S255
G0 F4875 X209.749 Y13.045 Z0.68
G0 X210.168 Y16.105
;TYPE:FILL
G1 F2370 X16.105 Y210.168 E2182.78814
G0 X15.982 Y210.291
G0 F4875 X12.83 Y199.301
G1 F2370 X199.301 Y12.83 E2228.93736
G0 X199.424 Y12.707
G0 F4875 X185.159 Y12.83
G1 F2370 X12.83 Y185.159 E2271.58661
G0 X12.707 Y185.282
G0 F4875 X12.83 Y171.017
G1 F2370 X171.017 Y12.83 E2310.73589
G0 X171.14 Y12.707
G0 F4875 X156.875 Y12.83
G1 F2370 X12.83 Y156.875 E2346.38521
G0 X12.707 Y156.998
G0 F4875 X12.83 Y142.733
G1 F2370 X142.733 Y12.83 E2378.53456
G0 X142.856 Y12.707
G0 F4875 X128.59 Y12.83
G1 F2370 X12.83 Y128.59 E2407.1837
G0 X12.707 Y128.713
G0 F4875 X12.83 Y114.448
G1 F2370 X114.448 Y12.83 E2432.33287
G0 X114.571 Y12.707
G0 F4875 X100.306 Y12.83
G1 F2370 X12.83 Y100.306 E2453.98208
G0 X12.707 Y100.429
G0 F4875 X12.83 Y86.164
G1 F2370 X86.164 Y12.83 E2472.13132
G0 X86.287 Y12.707
G0 F4875 X72.022 Y12.83
G1 F2370 X12.83 Y72.022 E2486.78059
G0 X12.707 Y72.145
G0 F4875 X12.83 Y57.88
G1 F2370 X57.88 Y12.83 E2497.9299
G0 X58.003 Y12.707
G0 F4875 X43.738 Y12.83
G1 F2370 X12.83 Y43.738 E2505.57924
G0 X12.707 Y43.861
G0 F4875 X12.83 Y29.595
G1 F2370 X29.595 Y12.83 E2509.72836
G0 X29.718 Y12.707
G0 F4875 X15.453 Y12.83
G1 F2370 X12.83 Y15.453 E2510.37752
G0 X12.707 Y15.576
G0 F4875 X30.247 Y210.168
G1 F2370 X210.168 Y30.247 E2554.9057
G0 X210.291 Y30.124
G0 F4875 X210.168 Y44.39
G1 F2370 X44.39 Y210.168 E2595.93366
G0 X44.267 Y210.291
G0 F4875 X58.532 Y210.168
G1 F2370 X210.168 Y58.532 E2633.46165
G0 X210.291 Y58.409
G0 F4875 X210.168 Y72.674
G1 F2370 X72.674 Y210.168 E2667.48968
G0 X72.551 Y210.291
G0 F4875 X86.816 Y210.168
G1 F2370 X210.168 Y86.816 E2698.01775
G0 X210.291 Y86.693
G0 F4875 X210.168 Y100.958
G1 F2370 X100.958 Y210.168 E2725.04584
G0 X100.835 Y210.291
G0 F4875 X115.1 Y210.168
G1 F2370 X210.168 Y115.1 E2748.57397
G0 X210.291 Y114.977
G0 F4875 X210.168 Y129.242
G1 F2370 X129.242 Y210.168 E2768.60214
G0 X129.119 Y210.291
G0 F4875 X143.384 Y210.168
G1 F2370 X210.168 Y143.384 E2785.13033
G0 X210.291 Y143.261
G0 F4875 X210.168 Y157.527
G1 F2370 X157.527 Y210.168 E2798.15831
G0 X157.404 Y210.291
G0 F4875 X171.669 Y210.168
G1 F2370 X210.168 Y171.669 E2807.68633
G0 X210.291 Y171.546
G0 F4875 X210.168 Y185.811
G1 F2370 X185.811 Y210.168 E2813.71438
G0 X185.688 Y210.291
G0 F4875 X199.953 Y210.168
G1 F2370 X210.168 Y199.953 E2816.24246
G0 X210.291 Y199.83
G0 F4875 X210.379 Y210.379
G0 X210.449 Y210.449
;TYPE:WALL-INNER
G1 F2070 X12.551 Y210.449 E2850.87461
G1 X12.551 Y12.551 E2885.50676
G1 X210.449 Y12.551 E2920.13891
G1 X210.449 Y210.449 E2954.77106
G0 F4875 X211.099 Y211.099
;TYPE:WALL-OUTER
G1 F1650 X11.901 Y211.099 E2989.63071
G1 X11.901 Y11.901 E3024.49036
G1 X211.099 Y11.901 E3059.35001
G1 X211.099 Y211.099 E3094.20966
G0 F4875 X210.699 Y211.099
G0 X209.749 Y209.955
;TIME_ELAPSED:470.496286
;LAYER:2
G0 F6000 X210.168 Y210.168 Z0.93
;TYPE:FILL
G1 F3240 X12.83 Y12.83 E3143.04833
G0 X12.707 Y12.707
G0 F6000 X12.83 Y26.972
G1 F3240 X196.026 Y210.168 E3188.38702
G0 X196.149 Y210.291
G0 F6000 X181.884 Y210.168
G1 F3240 X12.83 Y41.114 E3230.22576
G0 X12.707 Y40.991
G0 F6000 X12.83 Y55.256
G1 F3240 X167.741 Y210.168 E3268.5644
G0 X167.864 Y210.291
G0 F6000 X153.599 Y210.168
G1 F3240 X12.83 Y69.398 E3303.40307
G0 X12.707 Y69.275
G0 F6000 X12.83 Y83.541
G1 F3240 X139.457 Y210.168 E3334.74165
G0 X139.58 Y210.291
G0 F6000 X125.315 Y210.168
G1 F3240 X12.83 Y97.683 E3362.58027
G0 X12.707 Y97.56
G0 F6000 X12.83 Y111.825
G1 F3240 X111.173 Y210.168 E3386.91892
G0 X111.296 Y210.291
G0 F6000 X97.031 Y210.168
G1 F3240 X12.83 Y125.967 E3407.75761
G0 X12.707 Y125.844
G0 F6000 X12.83 Y140.109
G1 F3240 X82.889 Y210.168 E3425.09632
G0 X83.012 Y210.291
G0 F6000 X68.747 Y210.168
G1 F3240 X12.83 Y154.251 E3438.93507
G0 X12.707 Y154.128
G0 F6000 X12.83 Y168.393
G1 F3240 X54.604 Y210.168 E3449.27374
G0 X54.727 Y210.291
G0 F6000 X40.462 Y210.168
G1 F3240 X12.83 Y182.536 E3456.11231
G0 X12.707 Y182.413
G0 F6000 X12.83 Y196.678
G1 F3240 X26.32 Y210.168 E3459.45091
G0 X26.443 Y210.291
G0 F6000 X210.168 Y196.026
G1 F3240 X26.972 Y12.83 E3504.78961
G0 X26.849 Y12.707
G0 F6000 X41.114 Y12.83
G1 F3240 X210.168 Y181.884 E3546.62834
G0 X210.291 Y182.007
G0 F6000 X210.168 Y167.741
G1 F3240 X55.256 Y12.83 E3584.96698
G0 X55.133 Y12.707
G0 F6000 X69.398 Y12.83
G1 F3240 X210.168 Y153.599 E3619.80565
G0 X210.291 Y153.722
G0 F6000 X210.168 Y139.457
G1 F3240 X83.541 Y12.83 E3651.14424
G0 X83.418 Y12.707
G0 F6000 X97.683 Y12.83
G1 F3240 X210.168 Y125.315 E3678.98285
G0 X210.291 Y125.438
G0 F6000 X210.168 Y111.173
G1 F3240 X111.825 Y12.83 E3703.3215
G0 X111.702 Y12.707
G0 F6000 X125.967 Y12.83
G1 F3240 X210.168 Y97.031 E3724.16019
G0 X210.291 Y97.154
G0 F6000 X210.168 Y82.889
G1 F3240 X140.109 Y12.83 E3741.49891
G0 X139.986 Y12.707
G0 F6000 X154.251 Y12.83
G1 F3240 X210.168 Y68.747 E3755.33766
G0 X210.291 Y68.87
G0 F6000 X210.168 Y54.604
G1 F3240 X168.393 Y12.83 E3765.67632
G0 X168.27 Y12.707
G0 F6000 X182.536 Y12.83
G1 F3240 X210.168 Y40.462 E3772.51489
G0 X210.291 Y40.585
G0 F6000 X210.168 Y26.32
G1 F3240 X196.678 Y12.83 E3775.8535
G0 X196.555 Y12.707
G0 F6000 X210.379 Y12.621
G0 X210.449 Y12.551
;TYPE:WALL-INNER
G1 F2640 X210.449 Y210.449 E3810.48565
G1 X12.551 Y210.449 E3845.1178
G1 X12.551 Y12.551 E3879.74995
G1 X210.449 Y12.551 E3914.3821
G0 F6000 X211.099 Y11.901
;TYPE:WALL-OUTER
G1 F1800 X211.099 Y211.099 E3949.24175
G1 X11.901 Y211.099 E3984.1014
G1 X11.901 Y11.901 E4018.96105
G1 X211.099 Y11.901 E4053.8207
G0 F6000 X211.099 Y12.301
G0 X209.749 Y13.045
;TIME_ELAPSED:593.996423
;LAYER:3
G0 X209.749 Y13.045 Z1.18
G0 X210.168 Y16.105
;TYPE:FILL
G1 F3240 X16.105 Y210.168 E4101.84884
G0 X15.982 Y210.291
G0 F6000 X12.83 Y199.301
G1 F3240 X199.301 Y12.83 E4147.99806
G0 X199.424 Y12.707
G0 F6000 X185.159 Y12.83
G1 F3240 X12.83 Y185.159 E4190.64731
G0 X12.707 Y185.282
G0 F6000 X12.83 Y171.017
G1 F3240 X171.017 Y12.83 E4229.79659
G0 X171.14 Y12.707
G0 F6000 X156.875 Y12.83
G1 F3240 X12.83 Y156.875 E4265.44591
G0 X12.707 Y156.998
G0 F6000 X12.83 Y142.733
G1 F3240 X142.733 Y12.83 E4297.59526
G0 X142.856 Y12.707
G0 F6000 X128.59 Y12.83
G1 F3240 X12.83 Y128.59 E4326.2444
G0 X12.707 Y128.713
G0 F6000 X12.83 Y114.448
G1 F3240 X114.448 Y12.83 E4351.39357
G0 X114.571 Y12.707
G0 F6000 X100.306 Y12.83
G1 F3240 X12.83 Y100.306 E4373.04278
G0 X12.707 Y100.429
G0 F6000 X12.83 Y86.164
G1 F3240 X86.164 Y12.83 E4391.19202
G0 X86.287 Y12.707
G0 F6000 X72.022 Y12.83
G1 F3240 X12.83 Y72.022 E4405.84129
G0 X12.707 Y72.145
G0 F6000 X12.83 Y57.88
G1 F3240 X57.88 Y12.83 E4416.9906
G0 X58.003 Y12.707
G0 F6000 X43.738 Y12.83
G1 F3240 X12.83 Y43.738 E4424.63994
G0 X12.707 Y43.861
G0 F6000 X12.83 Y29.595
G1 F3240 X29.595 Y12.83 E4428.78906
G0 X29.718 Y12.707
G0 F6000 X15.453 Y12.83
G1 F3240 X12.83 Y15.453 E4429.43822
G0 X12.707 Y15.576
G0 F6000 X30.247 Y210.168
G1 F3240 X210.168 Y30.247 E4473.9664
G0 X210.291 Y30.124
G0 F6000 X210.168 Y44.39
G1 F3240 X44.39 Y210.168 E4514.99436
G0 X44.267 Y210.291
G0 F6000 X58.532 Y210.168
G1 F3240 X210.168 Y58.532 E4552.52235
G0 X210.291 Y58.409
G0 F6000 X210.168 Y72.674
G1 F3240 X72.674 Y210.168 E4586.55038
G0 X72.551 Y210.291
G0 F6000 X86.816 Y210.168
G1 F3240 X210.168 Y86.816 E4617.07845
G0 X210.291 Y86.693
G0 F6000 X210.168 Y100.958
G1 F3240 X100.958 Y210.168 E4644.10654
G0 X100.835 Y210.291
G0 F6000 X115.1 Y210.168
G1 F3240 X210.168 Y115.1 E4667.63467
G0 X210.291 Y114.977
G0 F6000 X210.168 Y129.242
G1 F3240 X129.242 Y210.168 E4687.66283
G0 X129.119 Y210.291
G0 F6000 X143.384 Y210.168
G1 F3240 X210.168 Y143.384 E4704.19103
G0 X210.291 Y143.261
G0 F6000 X210.168 Y157.527
G1 F3240 X157.527 Y210.168 E4717.21901
G0 X157.404 Y210.291
G0 F6000 X171.669 Y210.168
G1 F3240 X210.168 Y171.669 E4726.74703
G0 X210.291 Y171.546
G0 F6000 X210.168 Y185.811
G1 F3240 X185.811 Y210.168 E4732.77508
G0 X185.688 Y210.291
G0 F6000 X199.953 Y210.168
G1 F3240 X210.168 Y199.953 E4735.30316
G0 X210.291 Y199.83
G0 F6000 X210.379 Y210.379
G0 X210.449 Y210.449
;TYPE:WALL-INNER
G1 F2640 X12.551 Y210.449 E4769.93531
G1 X12.551 Y12.551 E4804.56746
G1 X210.449 Y12.551 E4839.19961
G1 X210.449 Y210.449 E4873.83176
G0 F6000 X211.099 Y211.099
;TYPE:WALL-OUTER
G1 F1800 X11.901 Y211.099 E4908.69141
G1 X11.901 Y11.901 E4943.55106
G1 X211.099 Y11.901 E4978.41071
G1 X211.099 Y211.099 E5013.27036
G0 F6000 X210.699 Y211.099
G0 X209.749 Y209.955
;TIME_ELAPSED:717.714282
;LAYER:4
G0 X210.168 Y210.168 Z1.43
;TYPE:FILL
G1 F3240 X12.83 Y12.83 E5062.10903
G0 X12.707 Y12.707
G0 F6000 X12.83 Y26.972
G1 F3240 X196.026 Y210.168 E5107.44772
G0 X196.149 Y210.291
G0 F6000 X181.884 Y210.168
G1 F3240 X12.83 Y41.114 E5149.28645
G0 X12.707 Y40.991
G0 F6000 X12.83 Y55.256
G1 F3240 X167.741 Y210.168 E5187.62509
G0 X167.864 Y210.291
G0 F6000 X153.599 Y210.168
G1 F3240 X12.83 Y69.398 E5222.46377
G0 X12.707 Y69.275
G0 F6000 X12.83 Y83.541
G1 F3240 X139.457 Y210.168 E5253.80235
G0 X139.58 Y210.291
G0 F6000 X125.315 Y210.168
G1 F3240 X12.83 Y97.683 E5281.64097
G0 X12.707 Y97.56
G0 F6000 X12.83 Y111.825
G1 F3240 X111.173 Y210.168 E5305.97962
G0 X111.296 Y210.291
G0 F6000 X97.031 Y210.168
G1 F3240 X12.83 Y125.967 E5326.8183
G0 X12.707 Y125.844
G0 F6000 X12.83 Y140.109
G1 F3240 X82.889 Y210.168 E5344.15702
G0 X83.012 Y210.291
G0 F6000 X68.747 Y210.168
G1 F3240 X12.83 Y154.251 E5357.99577
G0 X12.707 Y154.128
G0 F6000 X12.83 Y168.393
G1 F3240 X54.604 Y210.168 E5368.33444
G0 X54.727 Y210.291
G0 F6000 X40.462 Y210.168
G1 F3240 X12.83 Y182.536 E5375.17301
G0 X12.707 Y182.413
G0 F6000 X12.83 Y196.678
G1 F3240 X26.32 Y210.168 E5378.51161
G0 X26.443 Y210.291
G0 F6000 X210.168 Y196.026
G1 F3240 X26.972 Y12.83 E5423.85031
G0 X26.849 Y12.707
G0 F6000 X41.114 Y12.83
G1 F3240 X210.168 Y181.884 E5465.68904
G0 X210.291 Y182.007
G0 F6000 X210.168 Y167.741
G1 F3240 X55.256 Y12.83 E5504.02768
G0 X55.133 Y12.707
G0 F6000 X69.398 Y12.83
G1 F3240 X210.168 Y153.599 E5538.86635
G0 X210.291 Y153.722
G0 F6000 X210.168 Y139.457
G1 F3240 X83.541 Y12.83 E5570.20494
G0 X83.418 Y12.707
G0 F6000 X97.683 Y12.83
G1 F3240 X210.168 Y125.315 E5598.04355
G0 X210.291 Y125.438
G0 F6000 X210.168 Y111.173
G1 F3240 X111.825 Y12.83 E5622.3822
G0 X111.702 Y12.707
G0 F6000 X125.967 Y12.83
G1 F3240 X210.168 Y97.031 E5643.22089
G0 X210.291 Y97.154
G0 F6000 X210.168 Y82.889
G1 F3240 X140.109 Y12.83 E5660.55961
G0 X139.986 Y12.707
G0 F6000 X154.251 Y12.83
G1 F3240 X210.168 Y68.747 E5674.39836
G0 X210.291 Y68.87
G0 F6000 X210.168 Y54.604
G1 F3240 X168.393 Y12.83 E5684.73702
G0 X168.27 Y12.707
G0 F6000 X182.536 Y12.83
G1 F3240 X210.168 Y40.462 E5691.57559
G0 X210.291 Y40.585
G0 F6000 X210.168 Y26.32
G1 F3240 X196.678 Y12.83 E5694.91419
G0 X196.555 Y12.707
G0 F6000 X210.379 Y12.621
G0 X210.449 Y12.551
;TYPE:WALL-INNER
G1 F2640 X210.449 Y210.449 E5729.54634
G1 X12.551 Y210.449 E5764.17849
G1 X12.551 Y12.551 E5798.81064
G1 X210.449 Y12.551 E5833.44279
G0 F6000 X211.099 Y11.901
;TYPE:WALL-OUTER
G1 F1800 X211.099 Y211.099 E5868.30244
G1 X11.901 Y211.099 E5903.16209
G1 X11.901 Y11.901 E5938.02174
G1 X211.099 Y11.901 E5972.88139
G0 F6000 X211.099 Y12.301
G0 X209.749 Y13.045
;TIME_ELAPSED:841.214419
;LAYER:5
G0 X209.749 Y13.045 Z1.68
G0 X210.168 Y16.105
;TYPE:FILL
G1 F3240 X16.105 Y210.168 E6020.90954
G0 X15.982 Y210.291
G0 F6000 X12.83 Y199.301
G1 F3240 X199.301 Y12.83 E6067.05875
G0 X199.424 Y12.707
G0 F6000 X185.159 Y12.83
G1 F3240 X12.83 Y185.159 E6109.70801
G0 X12.707 Y185.282
G0 F6000 X12.83 Y171.017
G1 F3240 X171.017 Y12.83 E6148.85729
G0 X171.14 Y12.707
G0 F6000 X156.875 Y12.83
G1 F3240 X12.83 Y156.875 E6184.50661
G0 X12.707 Y156.998
G0 F6000 X12.83 Y142.733
G1 F3240 X142.733 Y12.83 E6216.65596
G0 X142.856 Y12.707
G0 F6000 X128.59 Y12.83
G1 F3240 X12.83 Y128.59 E6245.3051
G0 X12.707 Y128.713
G0 F6000 X12.83 Y114.448
