;FLAVOR:UltiGCode
;TIME:26952
;MATERIAL:129050
;MATERIAL2:0
;NOZZLE_DIAMETER:0.8
;Generated with Cura_SteamEngine 2.3.0-BETA

;LAYER_COUNT:183
;LAYER:0
M106 S255.000000
G10
G1 Z21.000
G0 F3600.000 X10.791 Y10.726 Z1.430
G0 X11.501 Y10.450 Z1.430
;TYPE:SKIRT
G1 Z0.430
G11
G1 F1200.000 X211.499 Y10.450 E60.19940
G1 X211.785 Y10.490 E60.28632
G1 X212.050 Y10.606 E60.37339
G1 X212.273 Y10.790 E60.46042
G1 X212.437 Y11.028 E60.54742
G1 X212.530 Y11.302 E60.63451
G1 X212.549 Y11.500 E60.69438
G1 X212.549 Y211.500 E120.89438
G1 X212.509 Y211.786 E120.98131
G1 X212.393 Y212.051 E121.06838
G1 X212.209 Y212.274 E121.15540
G1 X211.971 Y212.438 E121.24240
G1 X211.697 Y212.531 E121.32949
G1 X211.499 Y212.550 E121.38937
G1 X11.501 Y212.550 E181.58876
G1 X11.215 Y212.510 E181.67569
G1 X10.950 Y212.394 E181.76276
G1 X10.727 Y212.210 E181.84978
G1 X10.563 Y211.972 E181.93678
G1 X10.470 Y211.698 E182.02388
G1 X10.451 Y211.500 E182.08375
G1 X10.451 Y11.500 E242.28375
G1 X10.491 Y11.214 E242.37067
G1 X10.607 Y10.949 E242.45775
G1 X10.791 Y10.726 E242.54477
G1 X11.029 Y10.562 E242.63177
G1 X11.303 Y10.469 E242.71886
G1 X11.501 Y10.450 E242.77873
G0 F3600.00000 X11.501 Y11.150
G1 F1200.000 X211.499 Y11.150 E302.97813
G1 X211.660 Y11.189 E303.02799
G1 X211.785 Y11.299 E303.07811
G1 X211.849 Y11.500 E303.14161
G1 X211.849 Y211.500 E363.34161
G1 X211.810 Y211.661 E363.39147
G1 X211.700 Y211.786 E363.44159
G1 X211.499 Y211.850 E363.50508
G1 X11.501 Y211.850 E423.70448
G1 X11.340 Y211.811 E423.75434
G1 X11.215 Y211.701 E423.80446
G1 X11.151 Y211.500 E423.86796
G1 X11.151 Y11.500 E484.06796
G1 X11.190 Y11.339 E484.11782
G1 X11.300 Y11.214 E484.16794
G1 X11.501 Y11.150 E484.23143
G10
G0 F3600.00000 X12.579 Y12.578
G0 X12.830 Y12.830
;TYPE:FILL
G11
G1 F1200.000 X210.169 Y210.169 E568.23436
G0 X210.292 Y210.292
G0 F3600.000 X196.026 Y210.169
G1 F1200.000 X12.830 Y26.972 E646.21713
G0 X12.707 Y26.849
G0 F3600.000 X12.830 Y41.114
G1 F1200.000 X181.884 Y210.169 E718.17996
G0 X182.007 Y210.292
G0 F3600.000 X167.742 Y210.169
G1 F1200.000 X12.830 Y55.256 E784.12284
G0 X12.707 Y55.133
G0 F3600.000 X12.830 Y69.398
G1 F1200.000 X153.600 Y210.169 E844.04579
G0 X153.723 Y210.292
G0 F3600.000 X139.458 Y210.169
G1 F1200.000 X12.830 Y83.541 E897.94858
G0 X12.707 Y83.418
G0 F3600.000 X12.830 Y97.683
G1 F1200.000 X125.316 Y210.169 E945.83143
G0 X125.439 Y210.292
G0 F3600.000 X111.174 Y210.169
G1 F1200.000 X12.830 Y111.825 E987.69433
G0 X12.707 Y111.702
G0 F3600.000 X12.830 Y125.967
G1 F1200.000 X97.032 Y210.169 E1023.53729
G0 X97.155 Y210.292
G0 F3600.000 X82.889 Y210.169
G1 F1200.000 X12.830 Y140.109 E1053.36010
G0 X12.707 Y139.986
G0 F3600.000 X12.830 Y154.251
G1 F1200.000 X68.747 Y210.169 E1077.16297
G0 X68.870 Y210.292
G0 F3600.000 X54.605 Y210.169
G1 F1200.000 X12.830 Y168.393 E1094.94589
G0 X12.707 Y168.270
G0 F3600.000 X12.830 Y182.536
G1 F1200.000 X40.463 Y210.169 E1106.70866
G0 X40.586 Y210.292
G0 F3600.000 X26.321 Y210.169
G1 F1200.000 X12.830 Y196.678 E1112.45148
G0 X12.707 Y196.555
G0 F3600.000 X26.972 Y12.830
G1 F1200.000 X210.169 Y196.026 E1190.43426
G0 X210.292 Y196.149
G0 F3600.000 X210.169 Y181.884
G1 F1200.000 X41.114 Y12.830 E1262.39708
G0 X40.991 Y12.707
G0 F3600.000 X55.256 Y12.830
G1 F1200.000 X210.169 Y167.742 E1328.33997
G0 X210.292 Y167.865
G0 F3600.000 X210.169 Y153.600
G1 F1200.000 X69.398 Y12.830 E1388.26292
G0 X69.275 Y12.707
G0 F3600.000 X83.541 Y12.830
G1 F1200.000 X210.169 Y139.458 E1442.16571
G0 X210.292 Y139.581
G0 F3600.000 X210.169 Y125.316
G1 F1200.000 X97.683 Y12.830 E1490.04855
G0 X97.560 Y12.707
G0 F3600.000 X111.825 Y12.830
G1 F1200.000 X210.169 Y111.174 E1531.91146
G0 X210.292 Y111.297
G0 F3600.000 X210.169 Y97.032
G1 F1200.000 X125.967 Y12.830 E1567.75442
G0 X125.844 Y12.707
G0 F3600.000 X140.109 Y12.830
G1 F1200.000 X210.169 Y82.889 E1597.57723
G0 X210.292 Y83.012
G0 F3600.000 X210.169 Y68.747
G1 F1200.000 X154.251 Y12.830 E1621.38009
G0 X154.128 Y12.707
G0 F3600.000 X168.393 Y12.830
G1 F1200.000 X210.169 Y54.605 E1639.16302
G0 X210.292 Y54.728
G0 F3600.000 X210.169 Y40.463
G1 F1200.000 X182.536 Y12.830 E1650.92578
G0 X182.413 Y12.707
G0 F3600.000 X196.678 Y12.830
G1 F1200.000 X210.169 Y26.321 E1656.66861
G0 X210.292 Y26.444
G0 F3600.000 X210.379 Y12.620
G0 X210.449 Y12.550
;TYPE:WALL-INNER
G1 F1200.000 X210.449 Y210.450 E1716.23651
G1 X12.551 Y210.450 E1775.80381
G1 X12.551 Y12.550 E1835.37171
G1 X210.449 Y12.550 E1894.93901
G0 F3600.00000 X211.099 Y11.900
;TYPE:WALL-OUTER
G1 F1200.000 X211.099 Y211.100 E1954.89821
G1 X11.901 Y211.100 E2014.85680
G1 X11.901 Y11.900 E2074.81600
G1 X211.099 Y11.900 E2134.77460
G0 F3600.00000 X209.749 Y13.044
;TIME_ELAPSED:367.074
;LAYER:1
G0 F5400.000 X209.749 Y13.044 Z0.680
G0 X210.168 Y16.105
;TYPE:FILL
G1 F2100.000 X16.105 Y210.169 E2182.80287
G0 X15.982 Y210.292
G0 F5400.000 X12.831 Y199.300
G1 F2100.000 X199.301 Y12.830 E2228.95184
G0 X199.424 Y12.707
G0 F5400.000 X185.159 Y12.830
G1 F2100.000 X12.831 Y185.158 E2271.60084
G0 X12.708 Y185.281
G0 F5400.000 X12.831 Y171.016
G1 F2100.000 X171.017 Y12.830 E2310.74988
G0 X171.140 Y12.707
G0 F5400.000 X156.875 Y12.830
G1 F2100.000 X12.831 Y156.874 E2346.39895
G0 X12.708 Y156.997
G0 F5400.000 X12.831 Y142.732
G1 F2100.000 X142.733 Y12.830 E2378.54806
G0 X142.856 Y12.707
G0 F5400.000 X128.590 Y12.830
G1 F2100.000 X12.831 Y128.590 E2407.19707
G0 X12.708 Y128.713
G0 F5400.000 X12.831 Y114.448
G1 F2100.000 X114.448 Y12.830 E2432.34612
G0 X114.571 Y12.707
G0 F5400.000 X100.306 Y12.830
G1 F2100.000 X12.831 Y100.305 E2453.99508
G0 X12.708 Y100.428
G0 F5400.000 X12.831 Y86.163
G1 F2100.000 X86.164 Y12.830 E2472.14407
G0 X86.287 Y12.707
G0 F5400.000 X72.022 Y12.830
G1 F2100.000 X12.831 Y72.021 E2486.79309
G0 X12.708 Y72.144
G0 F5400.000 X12.831 Y57.879
G1 F2100.000 X57.880 Y12.830 E2497.94215
G0 X58.003 Y12.707
G0 F5400.000 X43.738 Y12.830
G1 F2100.000 X12.831 Y43.737 E2505.59124
G0 X12.708 Y43.860
G0 F5400.000 X12.831 Y29.595
G1 F2100.000 X29.595 Y12.830 E2509.74025
G0 X29.718 Y12.707
G0 F5400.000 X15.453 Y12.830
G1 F2100.000 X12.831 Y15.453 E2510.38928
G0 X12.708 Y15.576
G0 F5400.000 X30.247 Y210.169
G1 F2100.000 X210.168 Y30.247 E2554.91758
G0 X210.291 Y30.124
G0 F5400.000 X210.168 Y44.390
G1 F2100.000 X44.389 Y210.169 E2595.94579
G0 X44.266 Y210.292
G0 F5400.000 X58.531 Y210.169
G1 F2100.000 X210.168 Y58.532 E2633.47403
G0 X210.291 Y58.409
G0 F5400.000 X210.168 Y72.674
G1 F2100.000 X72.673 Y210.169 E2667.50231
G0 X72.550 Y210.292
G0 F5400.000 X86.815 Y210.169
G1 F2100.000 X210.168 Y86.816 E2698.03062
G0 X210.291 Y86.693
G0 F5400.000 X210.168 Y100.958
G1 F2100.000 X100.957 Y210.169 E2725.05896
G0 X100.834 Y210.292
G0 F5400.000 X115.100 Y210.169
G1 F2100.000 X210.168 Y115.100 E2748.58722
G0 X210.291 Y114.977
G0 F5400.000 X210.168 Y129.242
G1 F2100.000 X129.242 Y210.169 E2768.61550
G0 X129.119 Y210.292
G0 F5400.000 X143.384 Y210.169
G1 F2100.000 X210.168 Y143.384 E2785.14382
G0 X210.291 Y143.261
G0 F5400.000 X210.168 Y157.527
G1 F2100.000 X157.526 Y210.169 E2798.17206
G0 X157.403 Y210.292
G0 F5400.000 X171.668 Y210.169
G1 F2100.000 X210.168 Y171.669 E2807.70032
G0 X210.291 Y171.546
G0 F5400.000 X210.168 Y185.811
G1 F2100.000 X185.810 Y210.169 E2813.72862
G0 X185.687 Y210.292
G0 F5400.000 X199.952 Y210.169
G1 F2100.000 X210.168 Y199.953 E2816.25695
G0 X210.291 Y199.830
G0 F5400.000 X210.379 Y210.380
G0 X210.449 Y210.450
;TYPE:WALL-INNER
G1 F2100.000 X12.551 Y210.450 E2850.88910
G1 X12.551 Y12.550 E2885.52160
G1 X210.449 Y12.550 E2920.15375
G1 X210.449 Y210.450 E2954.78625
G0 F5400.00000 X211.099 Y211.100
;TYPE:WALL-OUTER
G1 F1800.000 X11.901 Y211.100 E2989.64590
G1 X11.901 Y11.900 E3024.50590
G1 X211.099 Y11.900 E3059.36555
G1 X211.099 Y211.100 E3094.22555
G0 F5400.00000 X209.749 Y209.956
;TIME_ELAPSED:535.038
;LAYER:2
G0 F7200.000 X210.169 Y210.169 Z0.930
;TYPE:FILL
G1 F3000.000 X12.830 Y12.830 E3143.06446
G0 X12.707 Y12.707
G0 F7200.000 X12.830 Y26.972
G1 F3000.000 X196.026 Y210.169 E3188.40328
G0 X196.149 Y210.292
G0 F7200.000 X181.884 Y210.169
G1 F3000.000 X12.830 Y41.114 E3230.24213
G0 X12.707 Y40.991
G0 F7200.000 X12.830 Y55.256
G1 F3000.000 X167.742 Y210.169 E3268.58102
G0 X167.865 Y210.292
G0 F7200.000 X153.600 Y210.169
G1 F3000.000 X12.830 Y69.398 E3303.41994
G0 X12.707 Y69.275
G0 F7200.000 X12.830 Y83.541
G1 F3000.000 X139.458 Y210.169 E3334.75877
G0 X139.581 Y210.292
G0 F7200.000 X125.316 Y210.169
G1 F3000.000 X12.830 Y97.683 E3362.59764
G0 X12.707 Y97.560
G0 F7200.000 X12.830 Y111.825
G1 F3000.000 X111.174 Y210.169 E3386.93654
G0 X111.297 Y210.292
G0 F7200.000 X97.032 Y210.169
G1 F3000.000 X12.830 Y125.967 E3407.77547
G0 X12.707 Y125.844
G0 F7200.000 X12.830 Y140.109
G1 F3000.000 X82.889 Y210.169 E3425.11431
G0 X83.012 Y210.292
G0 F7200.000 X68.747 Y210.169
G1 F3000.000 X12.830 Y154.251 E3438.95318
G0 X12.707 Y154.128
G0 F7200.000 X12.830 Y168.393
G1 F3000.000 X54.605 Y210.169 E3449.29209
G0 X54.728 Y210.292
G0 F7200.000 X40.463 Y210.169
G1 F3000.000 X12.830 Y182.536 E3456.13091
G0 X12.707 Y182.413
G0 F7200.000 X12.830 Y196.678
G1 F3000.000 X26.321 Y210.169 E3459.46976
G0 X26.444 Y210.292
G0 F7200.000 X210.169 Y196.026
G1 F3000.000 X26.972 Y12.830 E3504.80858
G0 X26.849 Y12.707
G0 F7200.000 X41.114 Y12.830
G1 F3000.000 X210.169 Y181.884 E3546.64744
G0 X210.292 Y182.007
G0 F7200.000 X210.169 Y167.742
G1 F3000.000 X55.256 Y12.830 E3584.98633
G0 X55.133 Y12.707
G0 F7200.000 X69.398 Y12.830
G1 F3000.000 X210.169 Y153.600 E3619.82525
G0 X210.292 Y153.723
G0 F7200.000 X210.169 Y139.458
G1 F3000.000 X83.541 Y12.830 E3651.16408
G0 X83.418 Y12.707
G0 F7200.000 X97.683 Y12.830
G1 F3000.000 X210.169 Y125.316 E3679.00294
G0 X210.292 Y125.439
G0 F7200.000 X210.169 Y111.174
G1 F3000.000 X111.825 Y12.830 E3703.34184
G0 X111.702 Y12.707
G0 F7200.000 X125.967 Y12.830
G1 F3000.000 X210.169 Y97.032 E3724.18077
G0 X210.292 Y97.155
G0 F7200.000 X210.169 Y82.889
G1 F3000.000 X140.109 Y12.830 E3741.51962
G0 X139.986 Y12.707
G0 F7200.000 X154.251 Y12.830
G1 F3000.000 X210.169 Y68.747 E3755.35849
G0 X210.292 Y68.870
G0 F7200.000 X210.169 Y54.605
G1 F3000.000 X168.393 Y12.830 E3765.69740
G0 X168.270 Y12.707
G0 F7200.000 X182.536 Y12.830
G1 F3000.000 X210.169 Y40.463 E3772.53622
G0 X210.292 Y40.586
G0 F7200.000 X210.169 Y26.321
G1 F3000.000 X196.678 Y12.830 E3775.87507
G0 X196.555 Y12.707
G0 F7200.000 X210.379 Y12.620
G0 X210.449 Y12.550
;TYPE:WALL-INNER
G1 F3000.000 X210.449 Y210.450 E3810.50757
G1 X12.551 Y210.450 E3845.13972
G1 X12.551 Y12.550 E3879.77222
G1 X210.449 Y12.550 E3914.40437
G0 F7200.00000 X211.099 Y11.900
;TYPE:WALL-OUTER
G1 F2400.000 X211.099 Y211.100 E3949.26437
G1 X11.901 Y211.100 E3984.12402
G1 X11.901 Y11.900 E4018.98402
G1 X211.099 Y11.900 E4053.84367
G0 F7200.00000 X209.749 Y13.044
;TIME_ELAPSED:654.787
;LAYER:3
G0 X209.749 Y13.044 Z1.180
G0 X210.168 Y16.105
;TYPE:FILL
G1 F3000.000 X16.105 Y210.169 E4101.87194
G0 X15.982 Y210.292
G0 F7200.000 X12.831 Y199.300
G1 F3000.000 X199.301 Y12.830 E4148.02091
G0 X199.424 Y12.707
G0 F7200.000 X185.159 Y12.830
G1 F3000.000 X12.831 Y185.158 E4190.66991
G0 X12.708 Y185.281
G0 F7200.000 X12.831 Y171.016
G1 F3000.000 X171.017 Y12.830 E4229.81895
G0 X171.140 Y12.707
G0 F7200.000 X156.875 Y12.830
G1 F3000.000 X12.831 Y156.874 E4265.46802
G0 X12.708 Y156.997
G0 F7200.000 X12.831 Y142.732
G1 F3000.000 X142.733 Y12.830 E4297.61712
G0 X142.856 Y12.707
G0 F7200.000 X128.590 Y12.830
G1 F3000.000 X12.831 Y128.590 E4326.26614
G0 X12.708 Y128.713
G0 F7200.000 X12.831 Y114.448
G1 F3000.000 X114.448 Y12.830 E4351.41519
G0 X114.571 Y12.707
G0 F7200.000 X100.306 Y12.830
G1 F3000.000 X12.831 Y100.305 E4373.06415
G0 X12.708 Y100.428
G0 F7200.000 X12.831 Y86.163
G1 F3000.000 X86.164 Y12.830 E4391.21314
G0 X86.287 Y12.707
G0 F7200.000 X72.022 Y12.830
G1 F3000.000 X12.831 Y72.021 E4405.86216
G0 X12.708 Y72.144
G0 F7200.000 X12.831 Y57.879
G1 F3000.000 X57.880 Y12.830 E4417.01122
G0 X58.003 Y12.707
G0 F7200.000 X43.738 Y12.830
G1 F3000.000 X12.831 Y43.737 E4424.66031
G0 X12.708 Y43.860
G0 F7200.000 X12.831 Y29.595
G1 F3000.000 X29.595 Y12.830 E4428.80931
G0 X29.718 Y12.707
G0 F7200.000 X15.453 Y12.830
G1 F3000.000 X12.831 Y15.453 E4429.45835
G0 X12.708 Y15.576
G0 F7200.000 X30.247 Y210.169
G1 F3000.000 X210.168 Y30.247 E4473.98665
G0 X210.291 Y30.124
G0 F7200.000 X210.168 Y44.390
G1 F3000.000 X44.389 Y210.169 E4515.01486
G0 X44.266 Y210.292
G0 F7200.000 X58.531 Y210.169
G1 F3000.000 X210.168 Y58.532 E4552.54310
G0 X210.291 Y58.409
G0 F7200.000 X210.168 Y72.674
G1 F3000.000 X72.673 Y210.169 E4586.57138
G0 X72.550 Y210.292
G0 F7200.000 X86.815 Y210.169
G1 F3000.000 X210.168 Y86.816 E4617.09969
G0 X210.291 Y86.693
G0 F7200.000 X210.168 Y100.958
G1 F3000.000 X100.957 Y210.169 E4644.12803
G0 X100.834 Y210.292
G0 F7200.000 X115.100 Y210.169
G1 F3000.000 X210.168 Y115.100 E4667.65629
G0 X210.291 Y114.977
G0 F7200.000 X210.168 Y129.242
G1 F3000.000 X129.242 Y210.169 E4687.68457
G0 X129.119 Y210.292
G0 F7200.000 X143.384 Y210.169
G1 F3000.000 X210.168 Y143.384 E4704.21289
G0 X210.291 Y143.261
G0 F7200.000 X210.168 Y157.527
G1 F3000.000 X157.526 Y210.169 E4717.24112
G0 X157.403 Y210.292
G0 F7200.000 X171.668 Y210.169
G1 F3000.000 X210.168 Y171.669 E4726.76939
G0 X210.291 Y171.546
G0 F7200.000 X210.168 Y185.811
G1 F3000.000 X185.810 Y210.169 E4732.79768
G0 X185.687 Y210.292
G0 F7200.000 X199.952 Y210.169
G1 F3000.000 X210.168 Y199.953 E4735.32602
G0 X210.291 Y199.830
G0 F7200.000 X210.379 Y210.380
G0 X210.449 Y210.450
;TYPE:WALL-INNER
G1 F3000.000 X12.551 Y210.450 E4769.95817
G1 X12.551 Y12.550 E4804.59067
G1 X210.449 Y12.550 E4839.22282
G1 X210.449 Y210.450 E4873.85532
G0 F7200.00000 X211.099 Y211.100
;TYPE:WALL-OUTER
G1 F2400.000 X11.901 Y211.100 E4908.71497
G1 X11.901 Y11.900 E4943.57497
G1 X211.099 Y11.900 E4978.43462
G1 X211.099 Y211.100 E5013.29462
G0 F7200.00000 X209.749 Y209.956
;TIME_ELAPSED:774.728
;LAYER:4
G0 X210.169 Y210.169 Z1.430
;TYPE:FILL
G1 F3000.000 X12.830 Y12.830 E5062.13353
G0 X12.707 Y12.707
G0 F7200.000 X12.830 Y26.972
G1 F3000.000 X196.026 Y210.169 E5107.47235
G0 X196.149 Y210.292
G0 F7200.000 X181.884 Y210.169
G1 F3000.000 X12.830 Y41.114 E5149.31120
G0 X12.707 Y40.991
G0 F7200.000 X12.830 Y55.256
G1 F3000.000 X167.742 Y210.169 E5187.65009
G0 X167.865 Y210.292
G0 F7200.000 X153.600 Y210.169
G1 F3000.000 X12.830 Y69.398 E5222.48901
G0 X12.707 Y69.275
G0 F7200.000 X12.830 Y83.541
G1 F3000.000 X139.458 Y210.169 E5253.82784
G0 X139.581 Y210.292
G0 F7200.000 X125.316 Y210.169
G1 F3000.000 X12.830 Y97.683 E5281.66671
G0 X12.707 Y97.560
G0 F7200.000 X12.830 Y111.825
G1 F3000.000 X111.174 Y210.169 E5306.00560
G0 X111.297 Y210.292
G0 F7200.000 X97.032 Y210.169
G1 F3000.000 X12.830 Y125.967 E5326.84454
G0 X12.707 Y125.844
G0 F7200.000 X12.830 Y140.109
G1 F3000.000 X82.889 Y210.169 E5344.18338
G0 X83.012 Y210.292
G0 F7200.000 X68.747 Y210.169
G1 F3000.000 X12.830 Y154.251 E5358.02225
G0 X12.707 Y154.128
G0 F7200.000 X12.830 Y168.393
G1 F3000.000 X54.605 Y210.169 E5368.36116
G0 X54.728 Y210.292
G0 F7200.000 X40.463 Y210.169
G1 F3000.000 X12.830 Y182.536 E5375.19998
G0 X12.707 Y182.413
G0 F7200.000 X12.830 Y196.678
G1 F3000.000 X26.321 Y210.169 E5378.53883
G0 X26.444 Y210.292
G0 F7200.000 X210.169 Y196.026
G1 F3000.000 X26.972 Y12.830 E5423.87765
G0 X26.849 Y12.707
G0 F7200.000 X41.114 Y12.830
G1 F3000.000 X210.169 Y181.884 E5465.71651
G0 X210.292 Y182.007
G0 F7200.000 X210.169 Y167.742
G1 F3000.000 X55.256 Y12.830 E5504.05539
G0 X55.133 Y12.707
G0 F7200.000 X69.398 Y12.830
G1 F3000.000 X210.169 Y153.600 E5538.89432
G0 X210.292 Y153.723
G0 F7200.000 X210.169 Y139.458
G1 F3000.000 X83.541 Y12.830 E5570.23315
G0 X83.418 Y12.707
G0 F7200.000 X97.683 Y12.830
G1 F3000.000 X210.169 Y125.316 E5598.07201
G0 X210.292 Y125.439
G0 F7200.000 X210.169 Y111.174
G1 F3000.000 X111.825 Y12.830 E5622.41091
G0 X111.702 Y12.707
G0 F7200.000 X125.967 Y12.830
G1 F3000.000 X210.169 Y97.032 E5643.24984
G0 X210.292 Y97.155
G0 F7200.000 X210.169 Y82.889
G1 F3000.000 X140.109 Y12.830 E5660.58868
G0 X139.986 Y12.707
G0 F7200.000 X154.251 Y12.830
G1 F3000.000 X210.169 Y68.747 E5674.42756
G0 X210.292 Y68.870
